;FLAVOR:Marlin
;TIME:2454
;Filament used: 1.02446m
;Layer height: 0.2
;MINX:69.751
;MINY:89.699
;MINZ:0.2
;MAXX:144.174
;MAXY:132.3
;MAXZ:18.8
;Generated with Cura_SteamEngine 4.8.0
M140 S60
M105
M190 S60
M104 S200
M105
M109 S200
M82 ;absolute extrusion mode
; Ender 3 Custom Start G-code
G92 E0 ; Reset Extruder
G28 ; Home all axes
G1 Z2.0 F3000 ; Move Z Axis up little to prevent scratching of Heat Bed
G1 X0.1 Y20 Z0.3 F5000.0 ; Move to start position
G1 X0.1 Y200.0 Z0.3 F1500.0 E15 ; Draw the first line
G1 X0.4 Y200.0 Z0.3 F5000.0 ; Move to side a little
G1 X0.4 Y20 Z0.3 F1500.0 E30 ; Draw the second line
G92 E0 ; Reset Extruder
G1 Z2.0 F3000 ; Move Z Axis up little to prevent scratching of Heat Bed
G1 X5 Y20 Z0.3 F5000.0 ; Move over to prevent blob squish
G92 E0
G92 E0
G1 F2700 E-5
;LAYER_COUNT:94
;LAYER:0
M107
G0 F6000 X74.58 Y92.093 Z0.2
;TYPE:SKIRT
G1 F2700 E0
G1 F1200 X75.338 Y91.541 E0.03119
G1 X76.14 Y91.055 E0.06238
G1 X76.981 Y90.639 E0.09358
G1 X77.854 Y90.297 E0.12477
G1 X78.753 Y90.029 E0.15597
G1 X79.671 Y89.84 E0.18714
G1 X80.603 Y89.729 E0.21836
G1 X81.54 Y89.699 E0.24954
G1 X82.477 Y89.748 E0.28075
G1 X83.205 Y89.842 E0.30516
G1 X83.352 Y89.866 E0.31012
G1 X83.702 Y89.929 E0.32195
G1 X84.161 Y90.019 E0.3375
G1 X87.812 Y90.773 E0.4615
G1 X88.675 Y90.965 E0.4909
G1 X89.546 Y91.198 E0.52089
G1 X89.812 Y91.282 E0.53017
G1 X92.07 Y92.024 E0.60922
G1 X94.469 Y92.737 E0.69246
G1 X96.931 Y93.394 E0.77721
G1 X99.367 Y93.97 E0.86047
G1 X101.831 Y94.48 E0.94416
G1 X104.305 Y94.919 E1.02773
G1 X106.784 Y95.288 E1.11109
G1 X109.288 Y95.587 E1.19497
G1 X111.811 Y95.819 E1.27924
G1 X114.276 Y95.973 E1.36138
G1 X116.834 Y96.061 E1.44651
G1 X119.375 Y96.077 E1.53103
G1 X121.748 Y96.033 E1.60997
G1 X132.625 Y96.034 E1.97174
G1 X133.323 Y96.044 E1.99496
G1 X134.259 Y96.098 E2.02614
G1 X135.187 Y96.23 E2.05732
G1 X136.101 Y96.442 E2.08852
G1 X136.993 Y96.731 E2.11971
G1 X137.858 Y97.094 E2.15091
G1 X138.688 Y97.53 E2.18209
G1 X139.479 Y98.035 E2.21331
G1 X140.223 Y98.606 E2.2445
G1 X140.916 Y99.238 E2.27569
G1 X141.553 Y99.926 E2.30688
G1 X142.128 Y100.667 E2.33807
G1 X142.639 Y101.453 E2.36926
G1 X143.081 Y102.281 E2.40047
G1 X143.45 Y103.143 E2.43166
G1 X143.745 Y104.033 E2.46285
G1 X143.963 Y104.945 E2.49403
G1 X144.103 Y105.873 E2.52525
G1 X144.161 Y106.734 E2.55395
G1 X144.17 Y107.054 E2.5646
G1 X144.174 Y107.363 E2.57488
G1 X144.173 Y114.367 E2.80783
G1 X144.164 Y115.094 E2.83201
G1 X144.113 Y116.031 E2.86322
G1 X143.981 Y116.959 E2.8944
G1 X143.772 Y117.873 E2.92558
G1 X143.485 Y118.766 E2.95678
G1 X143.123 Y119.632 E2.988
G1 X142.689 Y120.463 E3.01918
G1 X142.185 Y121.254 E3.05038
G1 X141.616 Y121.999 E3.08155
G1 X140.985 Y122.694 E3.11278
G1 X140.298 Y123.332 E3.14396
G1 X139.559 Y123.909 E3.17514
G1 X138.773 Y124.421 E3.20634
G1 X137.947 Y124.864 E3.23752
G1 X137.085 Y125.236 E3.26874
G1 X136.196 Y125.532 E3.29991
G1 X135.284 Y125.752 E3.33111
G1 X134.357 Y125.893 E3.3623
G1 X133.473 Y125.954 E3.39177
G1 X133.152 Y125.963 E3.40245
G1 X132.844 Y125.967 E3.4127
G1 X121.942 Y125.966 E3.7753
G1 X119.947 Y125.938 E3.84166
G1 X117.371 Y125.938 E3.92734
G1 X114.823 Y126.01 E4.01212
G1 X112.324 Y126.153 E4.09537
G1 X109.84 Y126.364 E4.17829
G1 X107.308 Y126.652 E4.26304
G1 X104.839 Y127.003 E4.34599
G1 X102.353 Y127.43 E4.42988
G1 X99.847 Y127.933 E4.5149
G1 X97.463 Y128.481 E4.59626
G1 X94.98 Y129.128 E4.6816
G1 X92.61 Y129.817 E4.76369
G1 X91.035 Y130.335 E4.81883
G1 X90.683 Y130.435 E4.831
G1 X89.71 Y130.748 E4.865
G1 X88.779 Y131.004 E4.89711
G1 X87.782 Y131.231 E4.93112
G1 X84.363 Y131.939 E5.04725
G1 X83.505 Y132.105 E5.07632
G1 X82.577 Y132.242 E5.10752
G1 X81.641 Y132.3 E5.13871
G1 X80.703 Y132.278 E5.16992
G1 X79.771 Y132.176 E5.2011
G1 X78.851 Y131.995 E5.23229
G1 X77.949 Y131.736 E5.2635
G1 X77.073 Y131.401 E5.29469
G1 X76.229 Y130.993 E5.32587
G1 X75.422 Y130.514 E5.35709
G1 X74.659 Y129.969 E5.38827
G1 X73.946 Y129.36 E5.41946
G1 X73.286 Y128.693 E5.45067
G1 X72.686 Y127.972 E5.48187
G1 X72.15 Y127.203 E5.51304
G1 X71.681 Y126.391 E5.54423
G1 X71.283 Y125.542 E5.57542
G1 X70.959 Y124.662 E5.60661
G1 X70.711 Y123.757 E5.63782
G1 X70.512 Y122.617 E5.67631
G1 X70.385 Y121.559 E5.71175
G1 X70.032 Y118.952 E5.79925
G1 X69.998 Y118.73 E5.80672
G1 X69.903 Y118.052 E5.82949
G1 X69.865 Y117.747 E5.83971
G1 X69.842 Y117.541 E5.84661
G1 X69.814 Y117.256 E5.85613
G1 X69.787 Y116.94 E5.86668
G1 X69.752 Y115.676 E5.90874
G1 X69.778 Y114.836 E5.93669
G1 X69.832 Y113.555 E5.97933
G1 X69.869 Y111.019 E6.06369
G1 X69.834 Y108.493 E6.14771
G1 X69.766 Y106.863 E6.20198
G1 X69.751 Y106.322 E6.21998
G1 X69.755 Y105.594 E6.24419
G1 X69.788 Y105.035 E6.26281
G1 X69.807 Y104.811 E6.27029
G1 X69.839 Y104.496 E6.28082
G1 X69.875 Y104.18 E6.2914
G1 X69.914 Y103.873 E6.30169
G1 X70.114 Y102.473 E6.34873
G1 X70.133 Y102.348 E6.35294
G1 X70.463 Y99.774 E6.43925
G1 X70.486 Y99.577 E6.44584
G1 X70.527 Y99.265 E6.45631
G1 X70.688 Y98.341 E6.48751
G1 X70.928 Y97.434 E6.51871
G1 X71.245 Y96.551 E6.54992
G1 X71.635 Y95.699 E6.58108
G1 X72.096 Y94.882 E6.61228
G1 X72.626 Y94.108 E6.64348
G1 X73.219 Y93.382 E6.67466
G1 X73.872 Y92.708 E6.70587
G1 X74.58 Y92.093 E6.73707
G0 F6000 X74.949 Y92.312
G1 F1200 X75.701 Y91.781 E6.76768
G1 X76.496 Y91.318 E6.79828
G1 X77.329 Y90.925 E6.82892
G1 X78.193 Y90.605 E6.85956
G1 X79.081 Y90.362 E6.89018
G1 X79.986 Y90.197 E6.92078
G1 X80.903 Y90.111 E6.95141
G1 X81.823 Y90.105 E6.98201
G1 X83.141 Y90.237 E7.02607
G1 X83.288 Y90.261 E7.03102
G1 X83.625 Y90.321 E7.04241
G1 X84.08 Y90.411 E7.05783
G1 X87.904 Y91.202 E7.18771
G1 X88.587 Y91.355 E7.21099
G1 X89.426 Y91.58 E7.23988
G1 X89.687 Y91.662 E7.24898
G1 X91.968 Y92.411 E7.32884
G1 X94.358 Y93.122 E7.41177
G1 X96.808 Y93.775 E7.4961
G1 X99.3 Y94.365 E7.58128
G1 X101.751 Y94.872 E7.66452
G1 X104.213 Y95.31 E7.7477
G1 X106.744 Y95.686 E7.8328
G1 X109.244 Y95.985 E7.91654
G1 X111.783 Y96.218 E8.00135
G1 X114.272 Y96.374 E8.08429
G1 X116.819 Y96.461 E8.16906
G1 X119.38 Y96.477 E8.25424
G1 X121.748 Y96.433 E8.33301
G1 X132.619 Y96.434 E8.69458
G1 X133.317 Y96.444 E8.7178
G1 X134.236 Y96.497 E8.74842
G1 X135.147 Y96.63 E8.77904
G1 X136.043 Y96.841 E8.80965
G1 X136.917 Y97.129 E8.84026
G1 X137.764 Y97.492 E8.87091
G1 X138.575 Y97.927 E8.90152
G1 X139.345 Y98.431 E8.93213
G1 X140.069 Y99 E8.96276
G1 X140.741 Y99.63 E8.99339
G1 X141.356 Y100.315 E9.02401
G1 X141.909 Y101.051 E9.05463
G1 X142.396 Y101.832 E9.08524
G1 X142.813 Y102.653 E9.11587
G1 X143.158 Y103.507 E9.1465
G1 X143.427 Y104.387 E9.17711
G1 X143.619 Y105.288 E9.20775
G1 X143.732 Y106.201 E9.23835
G1 X143.761 Y106.745 E9.25647
G1 X143.77 Y107.065 E9.26712
G1 X143.774 Y107.363 E9.27703
G1 X143.773 Y114.362 E9.50982
G1 X143.764 Y115.089 E9.534
G1 X143.713 Y116.008 E9.56461
G1 X143.582 Y116.92 E9.59525
G1 X143.372 Y117.816 E9.62586
G1 X143.086 Y118.691 E9.65648
G1 X142.725 Y119.538 E9.6871
G1 X142.291 Y120.35 E9.71773
G1 X141.789 Y121.122 E9.74836
G1 X141.221 Y121.847 E9.77899
G1 X140.593 Y122.52 E9.8096
G1 X139.909 Y123.136 E9.84022
G1 X139.174 Y123.69 E9.87083
G1 X138.394 Y124.179 E9.90145
G1 X137.574 Y124.598 E9.93208
G1 X136.721 Y124.944 E9.9627
G1 X135.841 Y125.215 E9.99332
G1 X134.941 Y125.408 E10.02394
G1 X134.027 Y125.523 E10.05458
G1 X133.462 Y125.554 E10.0734
G1 X133.141 Y125.563 E10.08408
G1 X132.844 Y125.567 E10.09396
G1 X121.947 Y125.566 E10.45639
G1 X119.952 Y125.538 E10.52275
G1 X117.36 Y125.538 E10.60896
G1 X114.825 Y125.61 E10.69331
G1 X112.301 Y125.754 E10.7774
G1 X109.762 Y125.97 E10.86215
G1 X107.278 Y126.252 E10.9453
G1 X104.753 Y126.612 E11.03013
G1 X102.306 Y127.031 E11.1127
G1 X99.793 Y127.536 E11.19795
G1 X97.338 Y128.1 E11.28173
G1 X94.882 Y128.74 E11.36615
G1 X92.483 Y129.438 E11.44925
G1 X90.91 Y129.955 E11.50432
G1 X90.562 Y130.053 E11.51635
G1 X89.588 Y130.367 E11.55038
G1 X88.69 Y130.613 E11.58135
G1 X87.485 Y130.886 E11.62244
G1 X84.282 Y131.548 E11.73123
G1 X83.429 Y131.712 E11.76012
G1 X82.518 Y131.846 E11.79074
G1 X81.599 Y131.901 E11.82137
G1 X80.679 Y131.875 E11.85198
G1 X79.764 Y131.77 E11.88261
G1 X78.862 Y131.586 E11.91323
G1 X77.98 Y131.324 E11.94383
G1 X77.123 Y130.986 E11.97447
G1 X76.299 Y130.576 E12.00508
G1 X75.514 Y130.095 E12.0357
G1 X74.773 Y129.549 E12.06632
G1 X74.083 Y128.94 E12.09693
G1 X73.448 Y128.273 E12.12756
G1 X72.873 Y127.554 E12.15818
G1 X72.363 Y126.787 E12.18881
G1 X71.921 Y125.98 E12.21942
G1 X71.551 Y125.137 E12.25004
G1 X71.255 Y124.265 E12.28067
G1 X71.037 Y123.37 E12.3113
G1 X70.909 Y122.569 E12.33828
G1 X70.784 Y121.533 E12.37299
G1 X70.427 Y118.888 E12.46176
G1 X70.395 Y118.675 E12.46892
G1 X70.3 Y117.997 E12.4917
G1 X70.262 Y117.702 E12.50159
G1 X70.239 Y117.496 E12.50848
G1 X70.212 Y117.222 E12.51764
G1 X70.185 Y116.906 E12.52819
G1 X70.152 Y115.688 E12.56871
G1 X70.177 Y114.853 E12.5965
G1 X70.232 Y113.543 E12.64011
G1 X70.269 Y111.018 E12.7241
G1 X70.234 Y108.506 E12.80766
G1 X70.166 Y106.852 E12.86272
G1 X70.151 Y106.311 E12.88072
G1 X70.155 Y105.61 E12.90403
G1 X70.187 Y105.069 E12.92206
G1 X70.206 Y104.845 E12.92953
G1 X70.236 Y104.541 E12.93969
G1 X70.272 Y104.225 E12.95027
G1 X70.31 Y103.929 E12.9602
G1 X70.51 Y102.534 E13.00707
G1 X70.527 Y102.424 E13.01077
G1 X70.857 Y99.849 E13.09712
G1 X70.882 Y99.629 E13.10448
G1 X70.923 Y99.317 E13.11495
G1 X71.083 Y98.41 E13.14558
G1 X71.32 Y97.521 E13.17618
G1 X71.634 Y96.655 E13.20682
G1 X72.022 Y95.82 E13.23744
G1 X72.481 Y95.022 E13.26806
G1 X73.007 Y94.267 E13.29867
G1 X73.597 Y93.56 E13.3293
G1 X74.246 Y92.907 E13.35992
G1 X74.949 Y92.312 E13.39055
G0 F6000 X75.317 Y92.535
G1 F1200 X76.063 Y92.026 E13.42059
G1 X76.851 Y91.585 E13.45062
G1 X77.675 Y91.215 E13.48066
G1 X78.529 Y90.92 E13.51071
G1 X79.405 Y90.702 E13.54074
G1 X80.297 Y90.561 E13.57077
G1 X81.198 Y90.501 E13.60081
G1 X82.101 Y90.52 E13.63085
G1 X83.077 Y90.631 E13.66352
G1 X83.224 Y90.655 E13.66847
G1 X83.548 Y90.714 E13.67943
G1 X83.999 Y90.803 E13.69472
G1 X87.65 Y91.557 E13.81871
G1 X88.5 Y91.746 E13.84767
G1 X89.307 Y91.962 E13.87546
G1 X89.562 Y92.042 E13.88435
G1 X91.834 Y92.788 E13.96389
G1 X94.246 Y93.505 E14.04758
G1 X96.719 Y94.165 E14.13271
G1 X99.198 Y94.752 E14.21744
G1 X101.672 Y95.263 E14.30146
G1 X104.185 Y95.71 E14.38636
G1 X106.68 Y96.081 E14.47025
G1 X109.228 Y96.386 E14.55561
G1 X111.723 Y96.614 E14.63894
G1 X114.269 Y96.774 E14.72378
G1 X116.802 Y96.861 E14.80808
G1 X119.385 Y96.877 E14.89399
G1 X121.278 Y96.842 E14.95697
G1 X121.448 Y96.837 E14.96262
G1 X121.748 Y96.833 E14.9726
G1 X132.613 Y96.834 E15.33397
G1 X133.311 Y96.844 E15.35719
G1 X134.213 Y96.897 E15.38724
G1 X135.106 Y97.029 E15.41727
G1 X135.984 Y97.24 E15.4473
G1 X136.84 Y97.528 E15.47734
G1 X137.667 Y97.89 E15.50737
G1 X138.459 Y98.325 E15.53742
G1 X139.21 Y98.827 E15.56746
G1 X139.913 Y99.394 E15.5975
G1 X140.563 Y100.021 E15.62754
G1 X141.155 Y100.703 E15.65758
G1 X141.685 Y101.434 E15.68761
G1 X142.147 Y102.21 E15.71765
G1 X142.54 Y103.023 E15.74768
G1 X142.858 Y103.868 E15.77771
G1 X143.101 Y104.738 E15.80775
G1 X143.266 Y105.626 E15.8378
G1 X143.361 Y106.756 E15.87551
G1 X143.37 Y107.076 E15.88616
G1 X143.374 Y107.363 E15.89571
G1 X143.373 Y114.357 E16.12833
G1 X143.364 Y115.084 E16.15251
G1 X143.313 Y115.986 E16.18256
G1 X143.182 Y116.88 E16.21261
G1 X142.973 Y117.758 E16.24263
G1 X142.687 Y118.615 E16.27268
G1 X142.326 Y119.443 E16.30272
G1 X141.894 Y120.235 E16.33273
G1 X141.393 Y120.987 E16.36278
G1 X140.827 Y121.691 E16.39283
G1 X140.202 Y122.342 E16.42284
G1 X139.521 Y122.936 E16.4529
G1 X138.79 Y123.467 E16.48295
G1 X138.016 Y123.931 E16.51296
G1 X137.203 Y124.325 E16.54301
G1 X136.359 Y124.645 E16.57303
G1 X135.489 Y124.89 E16.60309
G1 X134.602 Y125.056 E16.63311
G1 X133.451 Y125.154 E16.67153
G1 X133.13 Y125.163 E16.68221
G1 X132.844 Y125.167 E16.69172
G1 X121.953 Y125.166 E17.05396
G1 X119.958 Y125.138 E17.12032
G1 X117.349 Y125.138 E17.2071
G1 X114.79 Y125.21 E17.29224
G1 X112.281 Y125.354 E17.37583
G1 X109.755 Y125.569 E17.46015
G1 X107.208 Y125.858 E17.5454
G1 X104.699 Y126.215 E17.62969
G1 X102.196 Y126.644 E17.71416
G1 X99.73 Y127.14 E17.79782
G1 X97.252 Y127.709 E17.88238
G1 X94.774 Y128.354 E17.96755
G1 X92.363 Y129.056 E18.05107
G1 X90.785 Y129.575 E18.10632
G1 X90.464 Y129.665 E18.11741
G1 X89.465 Y129.987 E18.15232
G1 X88.601 Y130.223 E18.18211
G1 X87.405 Y130.494 E18.2229
G1 X84.202 Y131.156 E18.33168
G1 X83.354 Y131.319 E18.3604
G1 X82.46 Y131.45 E18.39045
G1 X81.559 Y131.501 E18.42047
G1 X80.656 Y131.472 E18.45052
G1 X79.76 Y131.364 E18.48053
G1 X78.876 Y131.176 E18.51059
G1 X78.013 Y130.911 E18.54062
G1 X77.176 Y130.571 E18.57067
G1 X76.373 Y130.158 E18.6007
G1 X75.609 Y129.676 E18.63075
G1 X74.891 Y129.128 E18.66079
G1 X74.225 Y128.519 E18.6908
G1 X73.615 Y127.853 E18.72084
G1 X73.066 Y127.136 E18.75088
G1 X72.583 Y126.373 E18.78091
G1 X72.169 Y125.57 E18.81096
G1 X71.828 Y124.734 E18.84099
G1 X71.562 Y123.871 E18.87103
G1 X71.373 Y122.988 E18.90106
G1 X71.306 Y122.522 E18.91672
G1 X71.171 Y121.401 E18.95427
G1 X70.822 Y118.825 E19.04073
G1 X70.791 Y118.619 E19.04766
G1 X70.696 Y117.941 E19.07043
G1 X70.66 Y117.658 E19.07992
G1 X70.637 Y117.452 E19.08682
G1 X70.611 Y117.188 E19.09564
G1 X70.584 Y116.872 E19.10619
G1 X70.552 Y115.7 E19.14518
G1 X70.577 Y114.87 E19.1728
G1 X70.632 Y113.565 E19.21624
G1 X70.669 Y111.019 E19.30093
G1 X70.634 Y108.483 E19.38529
G1 X70.566 Y106.841 E19.43995
G1 X70.551 Y106.3 E19.45795
G1 X70.555 Y105.625 E19.4804
G1 X70.585 Y105.103 E19.49779
G1 X70.604 Y104.879 E19.50527
G1 X70.634 Y104.586 E19.51506
G1 X70.67 Y104.27 E19.52564
G1 X70.706 Y103.986 E19.53516
G1 X70.905 Y102.595 E19.5819
G1 X70.926 Y102.458 E19.58651
G1 X71.252 Y99.916 E19.67175
G1 X71.279 Y99.681 E19.67962
G1 X71.32 Y99.369 E19.69008
G1 X71.477 Y98.48 E19.72011
G1 X71.712 Y97.608 E19.75015
G1 X72.024 Y96.76 E19.7802
G1 X72.409 Y95.943 E19.81024
G1 X72.865 Y95.164 E19.84026
G1 X73.388 Y94.428 E19.87029
G1 X73.974 Y93.74 E19.90035
G1 X74.619 Y93.108 E19.93039
G1 X75.317 Y92.535 E19.96042
G1 F2700 E14.96042
;MESH:excavator_v2.STL
G0 F6000 X80.139 Y116.706
G0 X80.346 Y117.384
G0 X80.679 Y118.01
G0 X81.043 Y118.453
G0 X81.556 Y118.875
G0 X81.838 Y119.927
G0 X82.024 Y120.577
;TYPE:WALL-INNER
G1 F2700 E19.96042
G1 F1200 X82.024 Y120.335 E19.96847
G1 X82.024 Y120.333 E19.96854
G1 X82.024 Y120.113 E19.97585
G1 X82.319 Y120.113 E19.98567
G1 X84.268 Y120.113 E20.05049
G1 X82.359 Y120.507 E20.08307
G1 X82.262 Y120.528 E20.08637
G1 X82.024 Y120.577 E20.09132
G0 F6000 X81.624 Y121.068
;TYPE:WALL-OUTER
G1 F1200 X81.624 Y119.713 E20.13639
G1 X86.062 Y119.713 E20.284
G1 X86.062 Y120.151 E20.29857
G1 X81.624 Y121.068 E20.44929
G0 F6000 X81.887 Y120.745
G0 X84.423 Y120.061
G0 X84.525 Y120.163
;TYPE:SKIN
G1 F1200 X84.696 Y120.052 E20.45499
G1 X85.731 Y119.955 E20.48402
G0 F6000 X85.756 Y120.113
G1 F2700 E15.48402
G0 F6000 X85.758 Y120.112
G0 X84.603 Y119.726
G0 X84.143 Y118.283
G0 X84.113 Y118.146
;TYPE:WALL-INNER
G1 F2700 E20.48402
G1 F1200 X84.524 Y118.022 E20.49829
G1 X84.904 Y117.819 E20.51262
G1 X85.234 Y117.547 E20.52685
G1 X85.506 Y117.217 E20.54107
G1 X85.709 Y116.837 E20.5554
G1 X85.833 Y116.426 E20.56968
G1 X85.875 Y116 E20.58392
G1 X85.833 Y115.574 E20.59815
G1 X85.709 Y115.163 E20.61243
G1 X85.506 Y114.783 E20.62676
G1 X85.234 Y114.453 E20.64098
G1 X84.904 Y114.181 E20.65521
G1 X84.524 Y113.978 E20.66954
G1 X84.113 Y113.854 E20.68382
G1 X83.687 Y113.812 E20.69805
G1 X83.261 Y113.854 E20.71229
G1 X82.85 Y113.978 E20.72657
G1 X82.47 Y114.181 E20.7409
G1 X82.14 Y114.453 E20.75512
G1 X81.868 Y114.783 E20.76935
G1 X81.665 Y115.163 E20.78368
