;FLAVOR:Marlin
;TIME:12817
;Filament used: 9.24132m
;Layer height: 0.2
;MINX:55.698
;MINY:69.071
;MINZ:0.2
;MAXX:164.82
;MAXY:150.929
;MAXZ:18.2
;Generated with Cura_SteamEngine 4.8.0
M140 S60
M105
M190 S60
M104 S200
M105
M109 S200
M82 ;absolute extrusion mode
; Ender 3 Custom Start G-code
G92 E0 ; Reset Extruder
G28 ; Home all axes
G1 Z2.0 F3000 ; Move Z Axis up little to prevent scratching of Heat Bed
G1 X0.1 Y20 Z0.3 F5000.0 ; Move to start position
G1 X0.1 Y200.0 Z0.3 F1500.0 E15 ; Draw the first line
G1 X0.4 Y200.0 Z0.3 F5000.0 ; Move to side a little
G1 X0.4 Y20 Z0.3 F1500.0 E30 ; Draw the second line
G92 E0 ; Reset Extruder
G1 Z2.0 F3000 ; Move Z Axis up little to prevent scratching of Heat Bed
G1 X5 Y20 Z0.3 F5000.0 ; Move over to prevent blob squish
G92 E0
G92 E0
G1 F2700 E-5
;LAYER_COUNT:91
;LAYER:0
M107
G0 F6000 X65.597 Y75.764 Z0.2
;TYPE:SKIRT
G1 F2700 E0
G1 F1200 X66.343 Y75.166 E0.0318
G1 X66.552 Y75.013 E0.04041
G1 X66.831 Y74.816 E0.05177
G1 X69.307 Y73.12 E0.15159
G1 X69.875 Y72.741 E0.1743
G1 X70.676 Y72.254 E0.20548
G1 X71.261 Y71.955 E0.22734
G1 X72.001 Y71.604 E0.25458
G1 X74.778 Y70.313 E0.35643
G1 X75.351 Y70.056 E0.37732
G1 X76.223 Y69.709 E0.40853
G1 X77.12 Y69.438 E0.4397
G1 X78.038 Y69.244 E0.47091
G1 X78.969 Y69.129 E0.50211
G1 X79.641 Y69.095 E0.52449
G1 X80.627 Y69.076 E0.55729
G1 X80.838 Y69.074 E0.56431
G1 X138.384 Y69.071 E2.47829
G1 X139.528 Y69.086 E2.51635
G1 X139.997 Y69.103 E2.53196
G1 X140.401 Y69.126 E2.54542
G1 X141.086 Y69.186 E2.56829
G1 X142.245 Y69.325 E2.60711
G1 X142.648 Y69.381 E2.62064
G1 X143.238 Y69.474 E2.64051
G1 X144.143 Y69.656 E2.67121
G1 X144.494 Y69.742 E2.68323
G1 X144.799 Y69.822 E2.69372
G1 X145.453 Y70.003 E2.71629
G1 X146.101 Y70.192 E2.73874
G1 X147.014 Y70.502 E2.77081
G1 X147.92 Y70.855 E2.80315
G1 X148.254 Y70.992 E2.81516
G1 X148.871 Y71.256 E2.83748
G1 X149.697 Y71.651 E2.86793
G1 X150.43 Y72.04 E2.89553
G1 X150.777 Y72.232 E2.90872
G1 X151.394 Y72.583 E2.93233
G1 X151.816 Y72.835 E2.94868
G1 X151.897 Y72.886 E2.95186
G1 X152.25 Y73.118 E2.96591
G1 X152.785 Y73.486 E2.98751
G1 X153.149 Y73.741 E3.00229
G1 X153.703 Y74.142 E3.02504
G1 X154.113 Y74.454 E3.04217
G1 X154.39 Y74.675 E3.05396
G1 X154.699 Y74.931 E3.0673
G1 X155.026 Y75.212 E3.08164
G1 X155.35 Y75.501 E3.09609
G1 X155.537 Y75.675 E3.10458
G1 X156.017 Y76.134 E3.12667
G1 X156.358 Y76.471 E3.14262
G1 X156.8 Y76.919 E3.16355
G1 X156.786 Y76.932 E3.16418
G1 X157.25 Y77.401 E3.18613
G1 X157.399 Y77.571 E3.19365
G1 X157.577 Y77.779 E3.20275
G1 X158.108 Y78.419 E3.23041
G1 X158.458 Y78.856 E3.24903
G1 X158.867 Y79.4 E3.27167
G1 X159.49 Y80.285 E3.30767
G1 X159.69 Y80.58 E3.31952
G1 X159.992 Y81.04 E3.33782
G1 X160.495 Y81.886 E3.37056
G1 X160.92 Y82.68 E3.40051
G1 X161.011 Y82.854 E3.40704
G1 X161.779 Y84.355 E3.46312
G1 X162.037 Y84.877 E3.48249
G1 X162.43 Y85.77 E3.51494
G1 X162.8 Y86.723 E3.54894
G1 X162.93 Y87.075 E3.56142
G1 X163.103 Y87.57 E3.57886
G1 X163.47 Y88.873 E3.62389
G1 X163.705 Y89.959 E3.66084
G1 X163.753 Y90.193 E3.66879
G1 X164.306 Y93.052 E3.76564
G1 X164.423 Y93.704 E3.78767
G1 X164.549 Y94.634 E3.81889
G1 X164.588 Y95.082 E3.83384
G1 X164.617 Y95.484 E3.84725
G1 X164.764 Y97.927 E3.92865
G1 X164.792 Y98.509 E3.94803
G1 X164.804 Y98.863 E3.95981
G1 X164.819 Y99.804 E3.99111
G1 X164.82 Y120.137 E4.66739
G1 X164.81 Y120.909 E4.69307
G1 X164.8 Y121.231 E4.70378
G1 X164.752 Y122.295 E4.73921
G1 X164.616 Y124.511 E4.81305
G1 X164.572 Y125.086 E4.83223
G1 X164.503 Y125.731 E4.85381
G1 X164.339 Y126.926 E4.89393
G1 X164.128 Y128.281 E4.93954
G1 X164.006 Y129.001 E4.96383
G1 X163.894 Y129.572 E4.98318
G1 X163.861 Y129.719 E4.98819
G1 X163.79 Y130.014 E4.99828
G1 X163.67 Y130.486 E5.01448
G1 X163.523 Y131.032 E5.03329
G1 X163.353 Y131.635 E5.05412
G1 X163.159 Y132.253 E5.07567
G1 X162.855 Y133.13 E5.10654
G1 X162.736 Y133.456 E5.11808
G1 X162.497 Y134.081 E5.14034
G1 X162.363 Y134.416 E5.15234
G1 X162.234 Y134.715 E5.16317
G1 X161.945 Y135.359 E5.18665
G1 X161.785 Y135.7 E5.19918
G1 X161.504 Y136.284 E5.22073
G1 X161.351 Y136.59 E5.23211
G1 X161.159 Y136.956 E5.24586
G1 X160.969 Y137.304 E5.25904
G1 X160.69 Y137.799 E5.27794
G1 X160.345 Y138.392 E5.30076
G1 X160.143 Y138.725 E5.31372
G1 X159.986 Y138.972 E5.32345
G1 X159.595 Y139.565 E5.34707
G1 X159.406 Y139.844 E5.35828
G1 X159.073 Y140.322 E5.37766
G1 X158.666 Y140.869 E5.40034
G1 X158.011 Y141.695 E5.4354
G1 X157.781 Y141.975 E5.44745
G1 X157.362 Y142.469 E5.46899
G1 X156.681 Y143.202 E5.50227
G1 X156.443 Y143.433 E5.5133
G1 X156.101 Y143.758 E5.529
G1 X155.155 Y144.635 E5.5719
G1 X154.625 Y145.112 E5.59562
G1 X153.952 Y145.671 E5.62471
G1 X153.609 Y145.927 E5.63895
G1 X153.093 Y146.297 E5.66007
G1 X152.733 Y146.549 E5.67468
G1 X152.155 Y146.943 E5.69795
G1 X151.602 Y147.297 E5.71979
G1 X151.291 Y147.478 E5.73176
G1 X150.762 Y147.777 E5.75197
G1 X150.325 Y148.016 E5.76853
G1 X149.707 Y148.344 E5.7918
G1 X148.851 Y148.752 E5.82334
G1 X148.039 Y149.096 E5.85267
G1 X147.731 Y149.221 E5.86373
G1 X147.152 Y149.449 E5.88443
G1 X146.214 Y149.77 E5.9174
G1 X145.306 Y150.036 E5.94887
G1 X144.995 Y150.123 E5.95961
G1 X144.31 Y150.302 E5.98316
G1 X143.048 Y150.554 E6.02596
G1 X142.62 Y150.611 E6.04032
G1 X142.194 Y150.661 E6.05459
G1 X140.746 Y150.813 E6.10302
G1 X140.108 Y150.872 E6.12433
G1 X139.492 Y150.912 E6.14486
G1 X139.326 Y150.918 E6.15038
G1 X139.051 Y150.924 E6.15953
G1 X138.569 Y150.929 E6.17556
G1 X80.418 Y150.926 E8.10967
G1 X79.738 Y150.916 E8.13229
G1 X78.802 Y150.862 E8.16348
G1 X77.874 Y150.729 E8.19466
G1 X76.96 Y150.517 E8.22586
G1 X76.068 Y150.228 E8.25705
G1 X75.468 Y149.985 E8.27858
G1 X74.539 Y149.576 E8.31234
G1 X74.331 Y149.481 E8.31995
G1 X71.843 Y148.323 E8.41122
G1 X71.24 Y148.033 E8.43348
G1 X70.4 Y147.583 E8.46517
G1 X70.292 Y147.519 E8.46935
G1 X69.789 Y147.202 E8.48912
G1 X69.247 Y146.839 E8.51082
G1 X67.078 Y145.351 E8.5983
G1 X66.483 Y144.931 E8.62253
G1 X65.741 Y144.358 E8.65371
G1 X65.05 Y143.723 E8.68492
G1 X64.603 Y143.249 E8.70659
G1 X64.274 Y142.875 E8.72316
G1 X62.994 Y141.351 E8.78935
G1 X62.424 Y140.654 E8.8193
G1 X61.863 Y139.903 E8.85048
G1 X61.368 Y139.106 E8.88168
G1 X61.079 Y138.557 E8.90232
G1 X60.901 Y138.188 E8.91595
G1 X60.658 Y137.659 E8.93531
G1 X59.613 Y135.324 E9.02039
G1 X59.367 Y134.755 E9.04101
G1 X59.014 Y133.824 E9.07413
G1 X58.691 Y132.841 E9.10854
G1 X58.626 Y132.637 E9.11566
G1 X57.734 Y129.73 E9.2168
G1 X57.546 Y129.09 E9.23899
G1 X57.32 Y128.18 E9.27017
G1 X57.203 Y127.495 E9.29328
G1 X57.067 Y126.51 E9.32636
G1 X57.042 Y126.316 E9.33286
G1 X56.68 Y123.3 E9.43389
G1 X56.557 Y122.14 E9.47269
G1 X56.527 Y121.812 E9.48365
G1 X55.744 Y111.421 E9.83023
G1 X55.702 Y110.746 E9.85273
G1 X55.698 Y109.443 E9.89607
G1 X55.755 Y108.433 E9.92971
G1 X55.769 Y108.227 E9.93658
G1 X56.51 Y98.4 E10.26435
G1 X56.595 Y97.453 E10.29598
G1 X56.635 Y97.072 E10.30872
G1 X57.083 Y93.345 E10.43357
G1 X57.174 Y92.661 E10.45652
G1 X57.337 Y91.738 E10.4877
G1 X57.507 Y91.07 E10.51062
G1 X57.841 Y89.914 E10.55065
G1 X58.693 Y87.142 E10.6471
G1 X58.931 Y86.402 E10.67295
G1 X59.282 Y85.459 E10.70642
G1 X59.677 Y84.532 E10.73993
G1 X60.623 Y82.415 E10.81706
G1 X60.969 Y81.667 E10.84447
G1 X61.4 Y80.834 E10.87566
G1 X61.901 Y80.041 E10.90686
G1 X62.192 Y79.64 E10.92334
G1 X62.278 Y79.527 E10.92806
G1 X62.526 Y79.213 E10.94137
G1 X62.899 Y78.759 E10.96091
G1 X64.019 Y77.424 E11.01887
G1 X64.497 Y76.87 E11.04321
G1 X65.139 Y76.187 E11.07439
G1 X65.597 Y75.764 E11.09512
G0 F6000 X65.861 Y76.065
G1 F1200 X66.58 Y75.489 E11.12576
G1 X66.789 Y75.336 E11.13438
G1 X67.057 Y75.146 E11.1453
G1 X69.529 Y73.453 E11.24496
G1 X70.097 Y73.074 E11.26767
G1 X70.884 Y72.596 E11.29829
G1 X71.432 Y72.316 E11.31876
G1 X72.17 Y71.966 E11.34593
G1 X74.942 Y70.678 E11.44759
G1 X75.515 Y70.421 E11.46848
G1 X76.371 Y70.081 E11.49911
G1 X77.253 Y69.817 E11.52974
G1 X78.154 Y69.63 E11.56034
G1 X79.068 Y69.522 E11.59095
G1 X79.649 Y69.495 E11.6103
G1 X80.635 Y69.476 E11.6431
G1 X80.838 Y69.474 E11.64985
G1 X138.384 Y69.471 E13.56384
G1 X139.522 Y69.486 E13.60169
G1 X139.974 Y69.502 E13.61673
G1 X140.378 Y69.525 E13.63019
G1 X141.038 Y69.583 E13.65223
G1 X142.197 Y69.722 E13.69105
G1 X142.585 Y69.776 E13.70408
G1 X143.175 Y69.869 E13.72395
G1 X144.048 Y70.045 E13.75357
G1 X144.399 Y70.131 E13.76559
G1 X144.693 Y70.207 E13.77569
G1 X145.341 Y70.387 E13.79806
G1 X145.989 Y70.576 E13.82051
G1 X146.869 Y70.875 E13.85142
G1 X147.775 Y71.228 E13.88376
G1 X148.097 Y71.36 E13.89534
G1 X148.714 Y71.624 E13.91766
G1 X149.51 Y72.004 E13.94699
G1 X150.238 Y72.391 E13.97442
G1 X150.579 Y72.58 E13.98738
G1 X151.196 Y72.931 E14.01099
G1 X151.603 Y73.174 E14.02676
G1 X151.684 Y73.225 E14.02994
G1 X152.024 Y73.448 E14.04347
G1 X152.556 Y73.813 E14.06493
G1 X152.914 Y74.065 E14.07949
G1 X153.468 Y74.466 E14.10223
G1 X153.864 Y74.767 E14.11878
G1 X154.141 Y74.988 E14.13056
G1 X154.439 Y75.235 E14.14344
G1 X154.766 Y75.516 E14.15778
G1 X155.081 Y75.797 E14.17182
G1 X155.261 Y75.965 E14.18001
G1 X155.737 Y76.42 E14.20191
G1 X156.074 Y76.752 E14.21764
G1 X156.516 Y77.2 E14.23857
G1 X156.503 Y77.213 E14.23918
G1 X156.95 Y77.664 E14.2603
G1 X157.099 Y77.834 E14.26782
G1 X157.27 Y78.035 E14.2766
G1 X157.796 Y78.669 E14.304
G1 X158.146 Y79.106 E14.32262
G1 X158.54 Y79.63 E14.34443
G1 X159.163 Y80.515 E14.38042
G1 X159.356 Y80.8 E14.39187
G1 X159.658 Y81.26 E14.41017
G1 X160.142 Y82.075 E14.4417
G1 X160.655 Y83.036 E14.47793
G1 X161.421 Y84.532 E14.53383
G1 X161.679 Y85.054 E14.5532
G1 X162.057 Y85.915 E14.58448
G1 X162.427 Y86.868 E14.61848
G1 X162.552 Y87.207 E14.63049
G1 X162.725 Y87.702 E14.64794
G1 X163.079 Y88.957 E14.69131
G1 X163.314 Y90.043 E14.72826
G1 X163.361 Y90.269 E14.73594
G1 X163.886 Y92.979 E14.82775
G1 X164.029 Y93.775 E14.85465
G1 X164.151 Y94.671 E14.88473
G1 X164.189 Y95.111 E14.89941
G1 X164.218 Y95.508 E14.91265
G1 X164.365 Y97.947 E14.99392
G1 X164.393 Y98.529 E15.0133
G1 X164.404 Y98.869 E15.02462
G1 X164.419 Y99.81 E15.05592
G1 X164.42 Y120.137 E15.732
G1 X164.41 Y120.903 E15.75748
G1 X164.401 Y121.214 E15.76782
G1 X164.353 Y122.271 E15.80302
G1 X164.229 Y124.314 E15.87109
G1 X164.173 Y125.056 E15.89584
G1 X164.107 Y125.677 E15.91661
G1 X163.944 Y126.865 E15.9565
G1 X163.734 Y128.214 E16.0019
G1 X163.612 Y128.934 E16.02619
G1 X163.504 Y129.485 E16.04487
G1 X163.403 Y129.916 E16.05959
G1 X163.284 Y130.383 E16.07562
G1 X163.179 Y130.777 E16.08918
G1 X162.968 Y131.526 E16.11506
G1 X162.781 Y132.122 E16.13584
G1 X162.477 Y132.999 E16.16671
G1 X162.363 Y133.313 E16.17782
G1 X162.124 Y133.938 E16.20008
G1 X161.994 Y134.263 E16.21172
G1 X161.869 Y134.552 E16.22219
G1 X161.581 Y135.191 E16.2455
G1 X161.425 Y135.527 E16.25783
G1 X161.144 Y136.111 E16.27938
G1 X160.996 Y136.405 E16.29033
G1 X160.808 Y136.765 E16.30384
G1 X160.62 Y137.108 E16.31685
G1 X160.344 Y137.597 E16.33552
G1 X159.999 Y138.19 E16.35834
G1 X159.803 Y138.515 E16.37096
G1 X159.652 Y138.752 E16.38031
G1 X159.263 Y139.342 E16.40382
G1 X159.078 Y139.615 E16.41478
G1 X158.745 Y140.093 E16.43416
G1 X158.353 Y140.62 E16.45601
G1 X157.698 Y141.446 E16.49107
G1 X157.476 Y141.717 E16.50272
G1 X157.057 Y142.211 E16.52426
G1 X156.401 Y142.917 E16.55632
G1 X156.167 Y143.144 E16.56716
G1 X155.829 Y143.465 E16.58266
G1 X154.887 Y144.338 E16.62538
G1 X154.357 Y144.815 E16.6491
G1 X153.709 Y145.353 E16.67711
G1 X153.376 Y145.602 E16.69094
G1 X152.863 Y145.97 E16.71194
G1 X152.507 Y146.219 E16.72639
G1 X151.929 Y146.613 E16.74965
G1 X151.396 Y146.953 E16.77068
G1 X151.094 Y147.13 E16.78232
G1 X150.569 Y147.427 E16.80239
G1 X150.137 Y147.663 E16.81876
G1 X149.519 Y147.991 E16.84203
G1 X148.694 Y148.384 E16.87242
G1 X147.888 Y148.726 E16.90154
G1 X147.585 Y148.849 E16.91242
G1 X147.006 Y149.077 E16.93312
G1 X146.102 Y149.386 E16.96489
G1 X145.194 Y149.652 E16.99636
G1 X144.894 Y149.736 E17.00672
G1 X144.209 Y149.915 E17.03027
G1 X142.993 Y150.157 E17.07151
G1 X142.572 Y150.214 E17.08564
G1 X142.152 Y150.263 E17.0997
G1 X140.709 Y150.415 E17.14796
G1 X140.071 Y150.474 E17.16927
G1 X139.478 Y150.512 E17.18904
G1 X139.047 Y150.524 E17.20338
G1 X138.569 Y150.529 E17.21928
G1 X80.424 Y150.526 E19.15319
G1 X79.744 Y150.516 E19.17581
G1 X78.825 Y150.462 E19.20643
G1 X77.914 Y150.329 E19.23705
G1 X77.018 Y150.118 E19.26766
G1 X76.144 Y149.829 E19.29828
G1 X75.629 Y149.618 E19.31679
G1 X74.7 Y149.209 E19.35055
G1 X74.5 Y149.119 E19.35785
G1 X72.017 Y147.963 E19.44894
G1 X71.414 Y147.673 E19.4712
G1 X70.604 Y147.239 E19.50176
G1 X70.496 Y147.175 E19.50594
G1 X70.011 Y146.869 E19.52501
G1 X69.473 Y146.509 E19.54654
G1 X67.309 Y145.024 E19.63383
G1 X66.714 Y144.604 E19.65806
G1 X65.986 Y144.041 E19.68867
G1 X65.309 Y143.417 E19.71929
G1 X64.902 Y142.984 E19.73905
G1 X64.727 Y142.787 E19.74782
G1 X64.376 Y142.377 E19.76577
G1 X63.206 Y140.981 E19.82635
G1 X62.734 Y140.402 E19.8512
G1 X62.184 Y139.663 E19.88184
G1 X61.7 Y138.88 E19.91245
G1 X61.438 Y138.381 E19.9312
G1 X61.264 Y138.02 E19.94453
G1 X61.023 Y137.495 E19.96374
G1 X59.98 Y135.165 E20.04865
G1 X59.734 Y134.596 E20.06927
G1 X59.394 Y133.699 E20.10117
G1 X59.008 Y132.519 E20.14246
G1 X58.118 Y129.618 E20.24339
G1 X57.93 Y128.978 E20.26558
G1 X57.709 Y128.084 E20.29621
G1 X57.6 Y127.44 E20.31793
G1 X57.464 Y126.455 E20.351
G1 X57.44 Y126.268 E20.35727
G1 X57.061 Y123.102 E20.46333
G1 X56.955 Y122.098 E20.49691
G1 X56.926 Y121.782 E20.50746
G1 X56.143 Y111.396 E20.85388
G1 X56.101 Y110.721 E20.87637
G1 X56.098 Y109.466 E20.91812
G1 X56.155 Y108.456 E20.95176
G1 X56.168 Y108.257 E20.95839
G1 X56.908 Y98.435 E21.286
G1 X56.993 Y97.488 E21.31763
G1 X57.032 Y97.116 E21.33007
G1 X57.48 Y93.398 E21.45462
G1 X57.571 Y92.714 E21.47757
G1 X57.732 Y91.808 E21.50818
G1 X57.891 Y91.18 E21.52972
G1 X58.169 Y90.214 E21.56316
G1 X59.117 Y87.128 E21.67053
G1 X59.311 Y86.525 E21.6916
G1 X59.65 Y85.616 E21.72387
G1 X60.045 Y84.689 E21.75738
G1 X60.988 Y82.579 E21.83425
G1 X61.332 Y81.836 E21.86148
G1 X61.756 Y81.019 E21.8921
G1 X62.51 Y79.882 E21.93747
G1 X62.596 Y79.769 E21.9422
G1 X62.835 Y79.467 E21.95501
G1 X63.205 Y79.016 E21.97441
G1 X64.321 Y77.685 E22.03218
G1 X64.799 Y77.131 E22.05652
G1 X65.431 Y76.461 E22.08715
G1 X65.861 Y76.065 E22.10659
G0 F6000 X66.124 Y76.366
G1 F1200 X66.816 Y75.812 E22.13608
G1 X67.025 Y75.659 E22.14469
G1 X67.283 Y75.476 E22.15521
G1 X69.751 Y73.785 E22.25472
G1 X70.319 Y73.406 E22.27743
G1 X71.091 Y72.939 E22.30744
G1 X71.604 Y72.677 E22.3266
G1 X72.338 Y72.329 E22.35362
G1 X75.106 Y71.043 E22.45513
G1 X75.679 Y70.786 E22.47602
G1 X76.518 Y70.453 E22.50604
G1 X77.384 Y70.196 E22.53609
G1 X78.269 Y70.017 E22.56612
G1 X79.167 Y69.916 E22.59617
G1 X79.656 Y69.895 E22.61245
G1 X80.642 Y69.876 E22.64525
G1 X80.838 Y69.874 E22.65177
G1 X138.384 Y69.871 E24.56576
G1 X139.517 Y69.886 E24.60345
G1 X139.952 Y69.901 E24.61792
G1 X140.356 Y69.924 E24.63138
G1 X140.991 Y69.981 E24.65259
G1 X142.15 Y70.12 E24.69141
G1 X142.523 Y70.171 E24.70393
G1 X143.113 Y70.264 E24.7238
G1 X143.952 Y70.433 E24.75227
G1 X144.303 Y70.519 E24.76429
G1 X144.587 Y70.593 E24.77405
G1 X145.229 Y70.771 E24.7962
G1 X145.877 Y70.96 E24.81866
G1 X146.724 Y71.248 E24.84841
G1 X147.63 Y71.601 E24.88075
G1 X147.939 Y71.727 E24.89185
G1 X148.556 Y71.991 E24.91417
G1 X149.323 Y72.358 E24.94245
G1 X150.046 Y72.742 E24.96968
G1 X150.382 Y72.927 E24.98244
G1 X150.999 Y73.278 E25.00605
G1 X151.39 Y73.512 E25.0212
G1 X151.471 Y73.563 E25.02439
G1 X151.798 Y73.778 E25.0374
G1 X152.327 Y74.141 E25.05874
G1 X152.68 Y74.389 E25.07309
G1 X153.234 Y74.79 E25.09584
G1 X153.614 Y75.08 E25.11174
G1 X153.891 Y75.301 E25.12352
