;FLAVOR:Marlin
;TIME:2065
;Filament used: 0.831803m
;Layer height: 0.2
;MINX:96.911
;MINY:81.559
;MINZ:0.2
;MAXX:129.383
;MAXY:137.8
;MAXZ:12
;Generated with Cura_SteamEngine 4.8.0
M140 S60
M105
M190 S60
M104 S200
M105
M109 S200
M82 ;absolute extrusion mode
; Ender 3 Custom Start G-code
G92 E0 ; Reset Extruder
G28 ; Home all axes
G1 Z2.0 F3000 ; Move Z Axis up little to prevent scratching of Heat Bed
G1 X0.1 Y20 Z0.3 F5000.0 ; Move to start position
G1 X0.1 Y200.0 Z0.3 F1500.0 E15 ; Draw the first line
G1 X0.4 Y200.0 Z0.3 F5000.0 ; Move to side a little
G1 X0.4 Y20 Z0.3 F1500.0 E30 ; Draw the second line
G92 E0 ; Reset Extruder
G1 Z2.0 F3000 ; Move Z Axis up little to prevent scratching of Heat Bed
G1 X5 Y20 Z0.3 F5000.0 ; Move over to prevent blob squish
G92 E0
G92 E0
G1 F2700 E-5
;LAYER_COUNT:60
;LAYER:0
M107
G0 F6000 X102.25 Y90.525 Z0.2
;TYPE:SKIRT
G1 F2700 E0
G1 F1200 X102.881 Y89.832 E0.03117
G1 X103.333 Y89.403 E0.0519
G1 X104.165 Y88.657 E0.08907
G1 X108.794 Y84.642 E0.29287
G1 X109.361 Y84.163 E0.31756
G1 X110.103 Y83.589 E0.34876
G1 X110.891 Y83.08 E0.37996
G1 X111.719 Y82.64 E0.41115
G1 X112.582 Y82.272 E0.44235
G1 X113.473 Y81.979 E0.47355
G1 X114.385 Y81.763 E0.50472
G1 X115.313 Y81.626 E0.53592
G1 X116.266 Y81.568 E0.56768
G1 X116.72 Y81.56 E0.58278
G1 X117.07 Y81.559 E0.59442
G1 X117.211 Y81.561 E0.59911
G1 X118.147 Y81.614 E0.63029
G1 X119.076 Y81.747 E0.66151
G1 X119.99 Y81.959 E0.69271
G1 X120.882 Y82.247 E0.72389
G1 X121.746 Y82.611 E0.75507
G1 X122.577 Y83.046 E0.78627
G1 X123.367 Y83.551 E0.81745
G1 X124.112 Y84.122 E0.84867
G1 X124.805 Y84.754 E0.87987
G1 X125.442 Y85.442 E0.91105
G1 X126.018 Y86.182 E0.94224
G1 X126.528 Y86.969 E0.97343
G1 X126.97 Y87.796 E1.00462
G1 X127.34 Y88.658 E1.03582
G1 X127.635 Y89.549 E1.06704
G1 X127.853 Y90.461 E1.09823
G1 X127.992 Y91.388 E1.1294
G1 X128.037 Y91.927 E1.14739
G1 X128.101 Y93.053 E1.1849
G1 X128.131 Y93.748 E1.20804
G1 X128.312 Y96.263 E1.29191
G1 X128.563 Y98.757 E1.37528
G1 X128.887 Y101.269 E1.45952
G1 X129.141 Y102.891 E1.51412
G1 X129.215 Y103.416 E1.53176
G1 X129.255 Y103.734 E1.54242
G1 X129.287 Y104.025 E1.55216
G1 X129.313 Y104.293 E1.56111
G1 X129.343 Y104.645 E1.57286
G1 X129.383 Y105.582 E1.60405
G1 X129.365 Y106.201 E1.62465
G1 X129.279 Y107.72 E1.67525
G1 X129.267 Y107.897 E1.68115
G1 X129.162 Y110.438 E1.76574
G1 X129.129 Y112.928 E1.84857
G1 X129.168 Y115.451 E1.93249
G1 X129.279 Y118.007 E2.01758
G1 X129.307 Y118.411 E2.03105
G1 X129.366 Y119.462 E2.06606
G1 X129.378 Y120.4 E2.09727
G1 X129.35 Y120.932 E2.11498
G1 X129.328 Y121.215 E2.12443
G1 X129.29 Y121.609 E2.13759
G1 X129.243 Y122.021 E2.15138
G1 X129.032 Y123.251 E2.19289
G1 X128.74 Y124.509 E2.23584
G1 X128.622 Y124.993 E2.25241
G1 X127.86 Y128.673 E2.37741
G1 X127.827 Y128.849 E2.38336
G1 X127.612 Y129.762 E2.41456
G1 X127.321 Y130.654 E2.44577
G1 X126.954 Y131.517 E2.47696
G1 X126.515 Y132.346 E2.50816
G1 X126.008 Y133.134 E2.53932
G1 X125.435 Y133.877 E2.57053
G1 X124.8 Y134.568 E2.60174
G1 X124.11 Y135.202 E2.63291
G1 X123.367 Y135.776 E2.66414
G1 X122.579 Y136.284 E2.69532
G1 X121.75 Y136.722 E2.72651
G1 X120.887 Y137.089 E2.7577
G1 X119.996 Y137.381 E2.78888
G1 X119.083 Y137.596 E2.82008
G1 X118.155 Y137.732 E2.85127
G1 X117.325 Y137.787 E2.87894
G1 X117 Y137.796 E2.88976
G1 X116.706 Y137.8 E2.89953
G1 X115.432 Y137.8 E2.94191
G1 X114.758 Y137.79 E2.96433
G1 X113.821 Y137.736 E2.99554
G1 X112.893 Y137.602 E3.02673
G1 X111.98 Y137.39 E3.0579
G1 X111.087 Y137.101 E3.08912
G1 X110.223 Y136.737 E3.1203
G1 X109.393 Y136.301 E3.15149
G1 X108.603 Y135.795 E3.18269
G1 X107.859 Y135.225 E3.21386
G1 X107.198 Y134.624 E3.24358
G1 X106.814 Y134.245 E3.26152
G1 X104.954 Y132.466 E3.34713
G1 X104.186 Y131.764 E3.38173
G1 X103.923 Y131.516 E3.39376
G1 X103.057 Y130.599 E3.43571
G1 X102.79 Y130.282 E3.44949
G1 X102.595 Y130.045 E3.4597
G1 X102.264 Y129.629 E3.47738
G1 X101.712 Y128.871 E3.50857
G1 X101.252 Y128.114 E3.53803
G1 X101.028 Y127.71 E3.5534
G1 X100.877 Y127.428 E3.56404
G1 X100.665 Y127.018 E3.57939
G1 X100.186 Y125.958 E3.61808
G1 X100.149 Y125.863 E3.62147
G1 X99.907 Y125.177 E3.64566
G1 X99.792 Y124.812 E3.65839
G1 X99.713 Y124.548 E3.66756
G1 X99.574 Y124.065 E3.68427
G1 X99.353 Y123.154 E3.71545
G1 X99.213 Y122.248 E3.74594
G1 X99.097 Y121.215 E3.78052
G1 X98.772 Y118.635 E3.86701
G1 X98.396 Y116.21 E3.94862
G1 X97.928 Y113.673 E4.03443
G1 X97.443 Y111.386 E4.11219
G1 X97.189 Y110.265 E4.15042
G1 X97.021 Y109.342 E4.18162
G1 X96.938 Y108.497 E4.20986
G1 X96.932 Y108.397 E4.21319
G1 X96.912 Y107.777 E4.23382
G1 X96.911 Y107.498 E4.2431
G1 X96.959 Y106.434 E4.27853
G1 X97.139 Y104.505 E4.34297
G1 X97.199 Y103.893 E4.36342
G1 X97.301 Y102.993 E4.39354
G1 X97.446 Y102.066 E4.42475
G1 X97.666 Y101.171 E4.45541
G1 X97.848 Y100.544 E4.47712
G1 X97.93 Y100.273 E4.48654
G1 X98.135 Y99.629 E4.50902
G1 X98.438 Y98.807 E4.53815
G1 X99.43 Y96.313 E4.62743
G1 X99.893 Y95.054 E4.67204
G1 X100.375 Y93.755 E4.71813
G1 X100.739 Y92.891 E4.74931
G1 X101.174 Y92.06 E4.78051
G1 X101.679 Y91.27 E4.81169
G1 X102.25 Y90.525 E4.84291
G0 F6000 X102.6 Y90.73
G1 F1200 X103.225 Y90.054 E4.87353
G1 X103.6 Y89.7 E4.89068
G1 X104.285 Y89.084 E4.92132
G1 X108.947 Y85.038 E5.12663
G1 X109.619 Y84.469 E5.15592
G1 X110.348 Y83.906 E5.18656
G1 X111.122 Y83.408 E5.21717
G1 X111.937 Y82.979 E5.2478
G1 X112.786 Y82.623 E5.27842
G1 X113.663 Y82.342 E5.30905
G1 X114.56 Y82.138 E5.33965
G1 X115.472 Y82.012 E5.37027
G1 X116.273 Y81.968 E5.39695
G1 X116.727 Y81.96 E5.41205
G1 X117.064 Y81.959 E5.42326
G1 X117.205 Y81.961 E5.42795
G1 X118.124 Y82.014 E5.45857
G1 X119.036 Y82.147 E5.48922
G1 X119.932 Y82.358 E5.51984
G1 X120.806 Y82.646 E5.55045
G1 X121.652 Y83.009 E5.58107
G1 X122.464 Y83.444 E5.6117
G1 X123.234 Y83.947 E5.64229
G1 X123.958 Y84.516 E5.67292
G1 X124.63 Y85.145 E5.70354
G1 X125.245 Y85.831 E5.73418
G1 X125.798 Y86.567 E5.7648
G1 X126.285 Y87.348 E5.79541
G1 X126.703 Y88.169 E5.82605
G1 X127.047 Y89.022 E5.85664
G1 X127.317 Y89.903 E5.88729
G1 X127.508 Y90.803 E5.91789
G1 X127.637 Y91.95 E5.95628
G1 X127.701 Y93.071 E5.99363
G1 X127.731 Y93.758 E6.0165
G1 X127.913 Y96.296 E6.10113
G1 X128.167 Y98.812 E6.18524
G1 X128.489 Y101.31 E6.26901
G1 X128.746 Y102.953 E6.32432
G1 X128.819 Y103.471 E6.34172
G1 X128.857 Y103.777 E6.35197
G1 X128.915 Y104.327 E6.37037
G1 X128.945 Y104.679 E6.38212
G1 X128.983 Y105.599 E6.41274
G1 X128.966 Y106.179 E6.43204
G1 X128.879 Y107.693 E6.48248
G1 X128.868 Y107.854 E6.48785
G1 X128.762 Y110.416 E6.57313
G1 X128.729 Y112.929 E6.65672
G1 X128.768 Y115.474 E6.74138
G1 X128.878 Y118.016 E6.82601
G1 X128.907 Y118.434 E6.83994
G1 X128.966 Y119.485 E6.87496
G1 X128.978 Y120.405 E6.90556
G1 X128.951 Y120.901 E6.92208
G1 X128.929 Y121.184 E6.93152
G1 X128.893 Y121.563 E6.94418
G1 X128.846 Y121.975 E6.95797
G1 X128.642 Y123.161 E6.998
G1 X128.351 Y124.415 E7.04082
G1 X128.231 Y124.907 E7.05766
G1 X127.47 Y128.584 E7.18255
G1 X127.434 Y128.774 E7.18898
G1 X127.222 Y129.67 E7.21961
G1 X126.934 Y130.545 E7.25024
G1 X126.571 Y131.391 E7.28086
G1 X126.136 Y132.202 E7.31147
G1 X125.632 Y132.973 E7.34211
G1 X125.063 Y133.696 E7.37271
G1 X124.433 Y134.368 E7.40335
G1 X123.748 Y134.983 E7.43396
G1 X123.012 Y135.536 E7.46458
G1 X122.23 Y136.023 E7.49522
G1 X121.41 Y136.44 E7.52582
G1 X120.556 Y136.784 E7.55644
G1 X119.675 Y137.053 E7.58708
G1 X118.775 Y137.245 E7.61769
G1 X117.861 Y137.358 E7.64832
G1 X117.314 Y137.387 E7.66654
G1 X116.989 Y137.396 E7.67735
G1 X116.706 Y137.4 E7.68677
G1 X115.438 Y137.4 E7.72894
G1 X114.764 Y137.39 E7.75136
G1 X113.845 Y137.336 E7.78198
G1 X112.934 Y137.203 E7.8126
G1 X112.038 Y136.991 E7.84322
G1 X111.163 Y136.703 E7.87386
G1 X110.318 Y136.339 E7.90446
G1 X109.506 Y135.904 E7.9351
G1 X108.736 Y135.4 E7.96571
G1 X108.012 Y134.83 E7.99636
G1 X107.479 Y134.339 E8.02046
G1 X107.121 Y133.986 E8.03718
G1 X105.216 Y132.164 E8.12486
G1 X104.461 Y131.473 E8.1589
G1 X104.198 Y131.225 E8.17092
G1 X103.363 Y130.342 E8.21134
G1 X103.096 Y130.025 E8.22513
G1 X102.908 Y129.796 E8.23498
G1 X102.577 Y129.38 E8.25267
G1 X102.036 Y128.635 E8.28329
G1 X101.602 Y127.92 E8.31111
G1 X101.378 Y127.516 E8.32647
G1 X101.232 Y127.245 E8.33671
G1 X101.02 Y126.835 E8.35206
G1 X100.559 Y125.813 E8.38935
G1 X100.522 Y125.718 E8.39274
G1 X100.289 Y125.056 E8.41608
G1 X100.174 Y124.691 E8.42881
G1 X100.097 Y124.438 E8.43761
G1 X99.958 Y123.955 E8.45433
G1 X99.742 Y123.06 E8.48495
G1 X99.611 Y122.203 E8.51378
G1 X99.501 Y121.223 E8.54658
G1 X99.17 Y118.596 E8.63465
G1 X98.785 Y116.108 E8.71838
G1 X98.328 Y113.632 E8.80213
G1 X97.832 Y111.294 E8.88162
G1 X97.579 Y110.177 E8.91971
G1 X97.415 Y109.271 E8.95034
G1 X97.337 Y108.473 E8.977
G1 X97.331 Y108.373 E8.98034
G1 X97.312 Y107.776 E9.0002
G1 X97.311 Y107.497 E9.00948
G1 X97.357 Y106.472 E9.04361
G1 X97.538 Y104.544 E9.10802
G1 X97.615 Y103.767 E9.13399
G1 X97.698 Y103.038 E9.15839
G1 X97.842 Y102.129 E9.189
G1 X98.05 Y101.282 E9.21801
G1 X98.232 Y100.655 E9.23972
G1 X98.311 Y100.395 E9.24876
G1 X98.516 Y99.751 E9.27124
G1 X98.809 Y98.955 E9.29945
G1 X99.794 Y96.482 E9.38799
G1 X100.268 Y95.193 E9.43367
G1 X100.75 Y93.894 E9.47975
G1 X101.108 Y93.046 E9.51036
G1 X101.537 Y92.232 E9.54097
G1 X102.036 Y91.458 E9.5716
G1 X102.6 Y90.73 E9.60223
G0 F6000 X102.95 Y90.937
G1 F1200 X103.868 Y89.998 E9.6459
G1 X104.689 Y89.261 E9.6826
G1 X109.311 Y85.253 E9.88608
G1 X109.878 Y84.774 E9.91076
G1 X110.593 Y84.223 E9.94079
G1 X111.354 Y83.736 E9.97084
G1 X112.155 Y83.319 E10.00087
G1 X112.989 Y82.975 E10.03088
G1 X113.851 Y82.705 E10.06092
G1 X114.734 Y82.513 E10.09098
G1 X115.63 Y82.4 E10.12101
G1 X116.28 Y82.368 E10.14266
G1 X116.734 Y82.36 E10.15776
G1 X117.059 Y82.359 E10.16857
G1 X117.2 Y82.361 E10.17326
G1 X118.101 Y82.414 E10.20328
G1 X118.995 Y82.546 E10.23334
G1 X119.873 Y82.757 E10.26337
G1 X120.729 Y83.045 E10.29341
G1 X121.556 Y83.407 E10.32344
G1 X122.348 Y83.841 E10.35347
G1 X123.099 Y84.343 E10.38352
G1 X123.802 Y84.91 E10.41356
G1 X124.452 Y85.537 E10.4436
G1 X125.044 Y86.219 E10.47363
G1 X125.574 Y86.95 E10.50366
G1 X126.037 Y87.726 E10.53372
G1 X126.429 Y88.539 E10.56374
G1 X126.748 Y89.384 E10.59378
G1 X126.991 Y90.254 E10.62382
G1 X127.156 Y91.142 E10.65386
G1 X127.238 Y91.973 E10.68164
G1 X127.301 Y93.088 E10.71878
G1 X127.331 Y93.771 E10.74152
G1 X127.515 Y96.329 E10.82682
G1 X127.77 Y98.867 E10.91166
G1 X128.095 Y101.387 E10.99617
G1 X128.375 Y103.182 E11.05659
G1 X128.423 Y103.526 E11.06814
G1 X128.46 Y103.821 E11.07803
G1 X128.492 Y104.112 E11.08777
G1 X128.516 Y104.361 E11.09609
G1 X128.546 Y104.713 E11.10784
G1 X128.583 Y105.615 E11.13787
G1 X128.567 Y106.156 E11.15587
G1 X128.48 Y107.666 E11.20617
G1 X128.468 Y107.847 E11.21221
G1 X128.362 Y110.395 E11.29703
G1 X128.329 Y112.929 E11.38132
G1 X128.368 Y115.498 E11.46677
G1 X128.478 Y118.024 E11.55087
G1 X128.508 Y118.456 E11.56527
G1 X128.567 Y119.507 E11.60028
G1 X128.578 Y120.41 E11.63032
G1 X128.552 Y120.87 E11.64564
G1 X128.53 Y121.153 E11.65508
G1 X128.495 Y121.518 E11.66728
G1 X128.448 Y121.93 E11.68107
G1 X128.252 Y123.071 E11.71957
G1 X127.963 Y124.321 E11.76225
G1 X127.834 Y124.85 E11.78036
G1 X127.082 Y128.482 E11.90372
G1 X127.041 Y128.7 E11.9111
G1 X126.833 Y129.578 E11.94111
G1 X126.548 Y130.435 E11.97115
G1 X126.188 Y131.264 E12.00121
G1 X125.757 Y132.057 E12.03123
G1 X125.256 Y132.809 E12.06128
G1 X124.692 Y133.514 E12.09131
G1 X124.067 Y134.166 E12.12135
G1 X123.387 Y134.76 E12.15138
G1 X122.657 Y135.292 E12.18142
G1 X121.883 Y135.758 E12.21147
G1 X121.071 Y136.152 E12.24149
G1 X120.227 Y136.474 E12.27154
G1 X119.358 Y136.72 E12.30157
G1 X118.471 Y136.887 E12.33159
G1 X117.303 Y136.987 E12.37058
G1 X116.978 Y136.996 E12.3814
G1 X116.705 Y137 E12.39048
G1 X115.444 Y137 E12.43242
G1 X114.77 Y136.99 E12.45484
G1 X113.868 Y136.937 E12.48489
G1 X112.975 Y136.804 E12.51492
G1 X112.097 Y136.592 E12.54496
G1 X111.241 Y136.304 E12.575
G1 X110.414 Y135.941 E12.60504
G1 X109.622 Y135.507 E12.63508
G1 X108.872 Y135.004 E12.66511
G1 X108.169 Y134.437 E12.69515
G1 X107.76 Y134.054 E12.71379
G1 X107.396 Y133.695 E12.73079
G1 X105.502 Y131.883 E12.81798
G1 X104.735 Y131.182 E12.85254
G1 X104.472 Y130.934 E12.86456
G1 X103.669 Y130.084 E12.90345
G1 X103.402 Y129.767 E12.91724
G1 X103.221 Y129.547 E12.92671
G1 X102.89 Y129.131 E12.94439
G1 X102.36 Y128.4 E12.97442
G1 X101.951 Y127.726 E13.00065
G1 X101.727 Y127.322 E13.01601
G1 X101.588 Y127.061 E13.02585
G1 X101.376 Y126.651 E13.0412
G1 X100.931 Y125.668 E13.07709
G1 X100.894 Y125.573 E13.08048
G1 X100.67 Y124.936 E13.10294
G1 X100.555 Y124.571 E13.11566
G1 X100.482 Y124.327 E13.12413
G1 X100.343 Y123.844 E13.14085
G1 X100.132 Y122.966 E13.17088
G1 X100.008 Y122.159 E13.19804
G1 X99.892 Y121.126 E13.23261
G1 X99.568 Y118.556 E13.31877
G1 X99.18 Y116.046 E13.40324
G1 X98.719 Y113.548 E13.48773
G1 X98.221 Y111.201 E13.56753
G1 X97.969 Y110.089 E13.60545
G1 X97.809 Y109.2 E13.6355
G1 X97.736 Y108.449 E13.66059
G1 X97.73 Y108.349 E13.66392
G1 X97.712 Y107.775 E13.68303
G1 X97.711 Y107.496 E13.69231
G1 X97.755 Y106.509 E13.72517
G1 X97.936 Y104.583 E13.78951
G1 X98.012 Y103.812 E13.81527
G1 X98.095 Y103.083 E13.83968
G1 X98.237 Y102.191 E13.86972
G1 X98.434 Y101.394 E13.89703
G1 X98.616 Y100.767 E13.91874
G1 X98.693 Y100.516 E13.92747
G1 X98.898 Y99.872 E13.94995
G1 X99.181 Y99.103 E13.97721
G1 X100.182 Y96.589 E14.06721
G1 X100.643 Y95.333 E14.11171
G1 X101.125 Y94.034 E14.15779
G1 X101.476 Y93.202 E14.18782
G1 X101.9 Y92.404 E14.21788
G1 X102.392 Y91.647 E14.24791
G1 X102.95 Y90.937 E14.27794
G1 F2700 E9.27794
;MESH:loader.STL
G0 F6000 X107.246 Y107.981
G0 X107.453 Y108.46
G0 X110.449 Y111.923
G0 X110.45 Y112.902
G0 X110.736 Y117.524
;TYPE:WALL-INNER
G1 F2700 E14.27794
G1 F1200 X110.736 Y117.348 E14.2838
G1 X110.736 Y117.093 E14.29228
G1 X110.736 Y117.013 E14.29494
G1 X110.736 Y113.188 E14.42216
G1 X110.87 Y113.187 E14.42661
G1 X110.87 Y117.013 E14.46936
G1 X110.966 Y117.058 E14.47111
G1 X111.04 Y117.093 E14.47276
G1 X111.011 Y117.128
G1 X110.83 Y117.348 E14.4777
G1 X110.736 Y117.524 E14.47898
G1 F2700 E9.47898
G0 F6000 X110.438 Y119.012
G0 X110.668 Y119.275
G0 X110.564 Y120.079
G0 X110.647 Y120.925
G0 X110.897 Y121.745
G0 X111.295 Y122.493
G0 X111.84 Y123.156
G0 X112.503 Y123.701
G0 X114.6 Y124.892
G0 X115.246 Y124.958
G0 X115.517 Y126.201
G1 F2700 E14.47898
G1 F1200 X115.517 Y126.002 E14.4856
G1 X115.517 Y124.992 E14.5192
G1 X116.431 Y124.992 E14.54959
G1 X116.431 Y126.2 E14.58977
G1 X115.716 Y126.201 E14.61355
G1 X115.517 Y126.201 E14.61784
G0 F6000 X115.117 Y126.601
;TYPE:WALL-OUTER
G1 F1200 X115.117 Y124.772 E14.67867
G1 X114.004 Y124.663 E14.71586
G1 X113.128 Y124.397 E14.74631
G1 X112.324 Y123.967 E14.77664
G1 X111.612 Y123.384 E14.80725
G1 X111.029 Y122.672 E14.83785
G1 X110.599 Y121.868 E14.86818
G1 X110.333 Y120.992 E14.89863
G1 X110.244 Y120.079 E14.92914
G1 X110.336 Y119.138 E14.96059
G1 X110.336 Y112.788 E15.17179
G1 X111.27 Y112.787 E15.20285
G1 X111.27 Y116.759 E15.33496
G1 X111.499 Y116.867 E15.34338
G1 X112.324 Y116.191 E15.37886
G1 X113.128 Y115.761 E15.40918
G1 X114.004 Y115.495 E15.43963
G1 X114.926 Y115.405 E15.47045
G1 X116.831 Y115.405 E15.53381
G1 X116.831 Y115.567 E15.53919
G1 X114.907 Y115.567 E15.60319
G1 X114.037 Y115.652 E15.63226
G1 X113.19 Y115.909 E15.6617
G1 X112.409 Y116.326 E15.69115
G1 X111.726 Y116.888 E15.72057
G1 X111.164 Y117.571 E15.74998
G1 X110.747 Y118.352 E15.77943
G1 X110.49 Y119.199 E15.80887
G1 X110.403 Y120.079 E15.83828
G1 X110.49 Y120.959 E15.86769
G1 X110.747 Y121.806 E15.89713
G1 X111.164 Y122.587 E15.92658
