;FLAVOR:Marlin
;TIME:1960
;Filament used: 0.603235m
;Layer height: 0.2
;MINX:83.605
;MINY:93.131
;MINZ:0.2
;MAXX:136.396
;MAXY:124.25
;MAXZ:37.8
;Generated with Cura_SteamEngine 4.8.0
M140 S60
M105
M190 S60
M104 S200
M105
M109 S200
M82 ;absolute extrusion mode
; Ender 3 Custom Start G-code
G92 E0 ; Reset Extruder
G28 ; Home all axes
G1 Z2.0 F3000 ; Move Z Axis up little to prevent scratching of Heat Bed
G1 X0.1 Y20 Z0.3 F5000.0 ; Move to start position
G1 X0.1 Y200.0 Z0.3 F1500.0 E15 ; Draw the first line
G1 X0.4 Y200.0 Z0.3 F5000.0 ; Move to side a little
G1 X0.4 Y20 Z0.3 F1500.0 E30 ; Draw the second line
G92 E0 ; Reset Extruder
G1 Z2.0 F3000 ; Move Z Axis up little to prevent scratching of Heat Bed
G1 X5 Y20 Z0.3 F5000.0 ; Move over to prevent blob squish
G92 E0
G92 E0
G1 F2700 E-5
;LAYER_COUNT:190
;LAYER:0
M107
G0 F6000 X87.507 Y101.826 Z0.2
;TYPE:SKIRT
G1 F2700 E0
G1 F1200 X88.248 Y101.251 E0.0312
G1 X89.035 Y100.742 E0.06237
G1 X89.516 Y100.474 E0.08068
G1 X89.958 Y100.243 E0.09727
G1 X92.205 Y99.03 E0.1822
G1 X94.405 Y97.758 E0.26672
G1 X96.546 Y96.439 E0.35036
G1 X97.144 Y96.05 E0.37409
G1 X98.305 Y95.305 E0.41997
G1 X98.697 Y95.065 E0.43526
G1 X99.525 Y94.623 E0.46648
G1 X100.387 Y94.254 E0.49766
G1 X101.148 Y93.997 E0.52438
G1 X101.427 Y93.914 E0.53406
G1 X101.707 Y93.835 E0.54374
G1 X102.458 Y93.634 E0.56959
G1 X103.133 Y93.464 E0.59274
G1 X104.051 Y93.274 E0.62392
G1 X104.982 Y93.163 E0.65511
G1 X106.202 Y93.138 E0.69569
G1 X106.7 Y93.155 E0.71227
G1 X109.361 Y93.212 E0.80079
G1 X111.889 Y93.193 E0.88488
G1 X113.094 Y93.151 E0.92498
G1 X113.952 Y93.133 E0.95352
G1 X114.192 Y93.131 E0.96151
G1 X115.129 Y93.171 E0.9927
G1 X116.059 Y93.291 E1.02389
G1 X116.818 Y93.449 E1.04967
G1 X117.399 Y93.594 E1.06959
G1 X118.061 Y93.773 E1.0924
G1 X118.721 Y93.96 E1.11522
G1 X119.611 Y94.254 E1.14639
G1 X120.474 Y94.622 E1.17759
G1 X121.69 Y95.303 E1.22395
G1 X123.876 Y96.715 E1.3105
G1 X126.013 Y98.01 E1.39361
G1 X128.207 Y99.258 E1.47757
G1 X129.436 Y99.905 E1.52376
G1 X130.621 Y100.546 E1.56857
G1 X131.426 Y101.027 E1.59976
G1 X132.187 Y101.575 E1.63095
G1 X132.899 Y102.185 E1.66213
G1 X133.556 Y102.854 E1.69332
G1 X134.154 Y103.577 E1.72453
G1 X134.688 Y104.348 E1.75572
G1 X135.154 Y105.162 E1.78692
G1 X135.55 Y106.012 E1.81811
G1 X135.871 Y106.893 E1.84929
G1 X136.117 Y107.798 E1.88049
G1 X136.284 Y108.721 E1.91168
G1 X136.382 Y109.901 E1.95107
G1 X136.391 Y110.21 E1.96135
G1 X136.396 Y110.53 E1.97199
G1 X136.395 Y111.214 E1.99474
G1 X136.386 Y111.94 E2.01889
G1 X136.335 Y112.877 E2.0501
G1 X136.203 Y113.805 E2.08128
G1 X135.994 Y114.72 E2.11249
G1 X135.707 Y115.612 E2.14366
G1 X135.345 Y116.478 E2.17488
G1 X134.91 Y117.309 E2.20608
G1 X134.407 Y118.1 E2.23725
G1 X133.838 Y118.846 E2.26846
G1 X133.207 Y119.54 E2.29966
G1 X132.52 Y120.178 E2.33084
G1 X131.781 Y120.755 E2.36202
G1 X130.995 Y121.267 E2.39322
G1 X130.168 Y121.71 E2.42443
G1 X129.307 Y122.082 E2.45562
G1 X128.417 Y122.378 E2.48682
G1 X127.506 Y122.598 E2.51799
G1 X126.334 Y122.763 E2.55735
G1 X125.085 Y122.871 E2.59905
G1 X122.452 Y123.136 E2.68707
G1 X121.107 Y123.309 E2.73217
G1 X119.316 Y123.514 E2.79213
G1 X118.798 Y123.566 E2.80944
G1 X115.051 Y124.071 E2.9352
G1 X114.63 Y124.131 E2.94934
G1 X114.341 Y124.167 E2.95903
G1 X113.406 Y124.243 E2.99023
G1 X112.796 Y124.249 E3.01052
G1 X111.483 Y124.227 E3.05419
G1 X108.825 Y124.218 E3.1426
G1 X107.471 Y124.248 E3.18765
G1 X107.17 Y124.25 E3.19766
G1 X105.847 Y124.179 E3.24172
G1 X105.305 Y124.117 E3.25987
G1 X104.941 Y124.069 E3.27208
G1 X104.138 Y123.95 E3.29908
G1 X101.528 Y123.601 E3.38666
G1 X99.625 Y123.393 E3.45033
G1 X98.584 Y123.261 E3.48523
G1 X95.997 Y122.966 E3.57183
G1 X93.771 Y122.776 E3.64614
G1 X93.481 Y122.746 E3.65584
G1 X92.553 Y122.609 E3.68704
G1 X91.64 Y122.395 E3.71823
G1 X90.749 Y122.103 E3.74941
G1 X89.886 Y121.736 E3.7806
G1 X89.057 Y121.298 E3.81179
G1 X88.268 Y120.79 E3.843
G1 X87.526 Y120.217 E3.87418
G1 X86.835 Y119.582 E3.90539
G1 X86.201 Y118.892 E3.93656
G1 X85.628 Y118.149 E3.96777
G1 X85.12 Y117.361 E3.99895
G1 X84.681 Y116.532 E4.03015
G1 X84.314 Y115.669 E4.06134
G1 X84.022 Y114.777 E4.09256
G1 X83.808 Y113.864 E4.12375
G1 X83.671 Y112.936 E4.15495
G1 X83.617 Y112.096 E4.18295
G1 X83.609 Y111.795 E4.19296
G1 X83.605 Y111.503 E4.20267
G1 X83.606 Y110.706 E4.22918
G1 X83.616 Y110.053 E4.2509
G1 X83.671 Y109.116 E4.28212
G1 X83.804 Y108.188 E4.3133
G1 X84.017 Y107.275 E4.34448
G1 X84.306 Y106.382 E4.3757
G1 X84.671 Y105.518 E4.4069
G1 X85.108 Y104.688 E4.4381
G1 X85.614 Y103.899 E4.46927
G1 X86.185 Y103.155 E4.50046
G1 X86.817 Y102.462 E4.53166
G1 X87.507 Y101.826 E4.56287
G0 F6000 X87.895 Y102.023
G1 F1200 X88.632 Y101.471 E4.5935
G1 X89.702 Y100.828 E4.63502
G1 X90.153 Y100.592 E4.65195
G1 X92.415 Y99.371 E4.73744
G1 X94.567 Y98.127 E4.82012
G1 X96.78 Y96.764 E4.90656
G1 X97.36 Y96.387 E4.92957
G1 X98.521 Y95.642 E4.97545
G1 X98.9 Y95.41 E4.99023
G1 X99.713 Y94.977 E5.02087
G1 X100.56 Y94.616 E5.05149
G1 X101.263 Y94.38 E5.07615
G1 X101.542 Y94.297 E5.08584
G1 X101.811 Y94.221 E5.09513
G1 X102.555 Y94.022 E5.12075
G1 X103.23 Y93.852 E5.1439
G1 X104.132 Y93.666 E5.17453
G1 X105.046 Y93.559 E5.20514
G1 X106.188 Y93.537 E5.24313
G1 X106.75 Y93.557 E5.26183
G1 X109.355 Y93.612 E5.3485
G1 X111.906 Y93.593 E5.43335
G1 X113.103 Y93.551 E5.47318
G1 X113.961 Y93.533 E5.50173
G1 X114.192 Y93.531 E5.50941
G1 X115.112 Y93.571 E5.54004
G1 X116.025 Y93.691 E5.57066
G1 X116.723 Y93.838 E5.59439
G1 X117.085 Y93.927 E5.60679
G1 X117.295 Y93.981 E5.614
G1 X117.952 Y94.157 E5.63662
G1 X118.612 Y94.344 E5.65944
G1 X119.486 Y94.634 E5.69007
G1 X120.331 Y94.998 E5.72067
G1 X121.473 Y95.639 E5.76422
G1 X123.657 Y97.05 E5.85071
G1 X125.829 Y98.366 E5.93517
G1 X128.001 Y99.602 E6.01829
G1 X129.245 Y100.257 E6.06505
G1 X130.43 Y100.898 E6.10986
G1 X131.22 Y101.37 E6.14047
G1 X131.966 Y101.91 E6.1711
G1 X132.663 Y102.512 E6.20173
G1 X133.304 Y103.173 E6.23236
G1 X133.886 Y103.886 E6.26297
G1 X134.403 Y104.648 E6.2936
G1 X134.853 Y105.451 E6.32421
G1 X135.231 Y106.29 E6.35482
G1 X135.535 Y107.159 E6.38544
G1 X135.763 Y108.051 E6.41606
G1 X135.912 Y108.96 E6.4467
G1 X135.983 Y109.912 E6.47845
G1 X135.992 Y110.221 E6.48873
G1 X135.996 Y110.53 E6.49901
G1 X135.995 Y111.209 E6.52159
G1 X135.986 Y111.935 E6.54574
G1 X135.935 Y112.855 E6.57639
G1 X135.804 Y113.766 E6.607
G1 X135.594 Y114.662 E6.63761
G1 X135.308 Y115.537 E6.66823
G1 X134.946 Y116.384 E6.69886
G1 X134.513 Y117.196 E6.72947
G1 X134.011 Y117.968 E6.7601
G1 X133.443 Y118.693 E6.79073
G1 X132.815 Y119.366 E6.82135
G1 X132.131 Y119.982 E6.85196
G1 X131.396 Y120.536 E6.88258
G1 X130.615 Y121.025 E6.91322
G1 X129.796 Y121.444 E6.94382
G1 X128.943 Y121.79 E6.97444
G1 X128.063 Y122.061 E7.00506
G1 X127.163 Y122.254 E7.03568
G1 X126.3 Y122.365 E7.06462
G1 X125.008 Y122.477 E7.10775
G1 X122.428 Y122.736 E7.19399
G1 X121.213 Y122.893 E7.23474
G1 X119.27 Y123.116 E7.29979
G1 X118.729 Y123.171 E7.31787
G1 X114.993 Y123.674 E7.44326
G1 X114.58 Y123.734 E7.45714
G1 X114.291 Y123.77 E7.46682
G1 X113.374 Y123.844 E7.49742
G1 X112.802 Y123.849 E7.51645
G1 X111.491 Y123.827 E7.56006
G1 X108.818 Y123.818 E7.64896
G1 X107.468 Y123.848 E7.69387
G1 X107.167 Y123.85 E7.70389
G1 X105.892 Y123.781 E7.74635
G1 X105.35 Y123.719 E7.7645
G1 X105 Y123.673 E7.77624
G1 X104.183 Y123.552 E7.80371
G1 X101.58 Y123.204 E7.89106
G1 X99.469 Y122.972 E7.96169
G1 X98.605 Y122.861 E7.99066
G1 X96.044 Y122.569 E8.0764
G1 X94.005 Y122.396 E8.14446
G1 X93.522 Y122.348 E8.1606
G1 X92.611 Y122.213 E8.19123
G1 X91.716 Y122 E8.22183
G1 X90.842 Y121.711 E8.25245
G1 X89.997 Y121.346 E8.28306
G1 X89.186 Y120.909 E8.3137
G1 X88.416 Y120.404 E8.34433
G1 X87.694 Y119.834 E8.37493
G1 X87.023 Y119.203 E8.40556
G1 X86.409 Y118.517 E8.43618
G1 X85.858 Y117.78 E8.46679
G1 X85.372 Y116.997 E8.49744
G1 X84.957 Y116.176 E8.52804
G1 X84.614 Y115.322 E8.55865
G1 X84.346 Y114.441 E8.58927
G1 X84.156 Y113.54 E8.6199
G1 X84.045 Y112.626 E8.65052
G1 X84.017 Y112.086 E8.66851
G1 X84.009 Y111.785 E8.67852
G1 X84.005 Y111.503 E8.6879
G1 X84.006 Y110.712 E8.71421
G1 X84.016 Y110.059 E8.73593
G1 X84.07 Y109.14 E8.76655
G1 X84.204 Y108.229 E8.79718
G1 X84.416 Y107.333 E8.8278
G1 X84.705 Y106.459 E8.85842
G1 X85.069 Y105.613 E8.88905
G1 X85.505 Y104.802 E8.91968
G1 X86.009 Y104.032 E8.95028
G1 X86.579 Y103.309 E8.98091
G1 X87.209 Y102.637 E9.01154
G1 X87.895 Y102.023 E9.04216
G0 F6000 X88.283 Y102.225
G1 F1200 X89.015 Y101.696 E9.0722
G1 X89.887 Y101.183 E9.10585
G1 X90.32 Y100.956 E9.12211
G1 X92.599 Y99.726 E9.20825
G1 X94.797 Y98.456 E9.29268
G1 X96.996 Y97.101 E9.37859
G1 X97.576 Y96.723 E9.40162
G1 X98.737 Y95.978 E9.4475
G1 X99.104 Y95.754 E9.4618
G1 X99.901 Y95.33 E9.49182
G1 X100.733 Y94.979 E9.52186
G1 X101.377 Y94.763 E9.54445
G1 X101.656 Y94.68 E9.55413
G1 X101.915 Y94.607 E9.56308
G1 X102.653 Y94.41 E9.58849
G1 X103.328 Y94.24 E9.61164
G1 X104.213 Y94.058 E9.64169
G1 X105.11 Y93.956 E9.67172
G1 X106.174 Y93.937 E9.70711
G1 X106.729 Y93.956 E9.72558
G1 X109.349 Y94.012 E9.81274
G1 X111.887 Y93.993 E9.89716
G1 X113.111 Y93.951 E9.93789
G1 X113.969 Y93.933 E9.96644
G1 X114.192 Y93.931 E9.97385
G1 X115.094 Y93.971 E10.00388
G1 X115.989 Y94.091 E10.03392
G1 X116.627 Y94.226 E10.05561
G1 X117.192 Y94.367 E10.07498
G1 X117.843 Y94.542 E10.0974
G1 X118.503 Y94.729 E10.12021
G1 X119.36 Y95.014 E10.15025
G1 X120.188 Y95.373 E10.18027
G1 X121.256 Y95.975 E10.22104
G1 X123.439 Y97.385 E10.30748
G1 X125.631 Y98.713 E10.39272
G1 X127.809 Y99.953 E10.47608
G1 X129.055 Y100.608 E10.5229
G1 X130.24 Y101.249 E10.56771
G1 X131.015 Y101.714 E10.59777
G1 X131.745 Y102.245 E10.62779
G1 X132.426 Y102.839 E10.65785
G1 X133.051 Y103.49 E10.68787
G1 X133.616 Y104.194 E10.71789
G1 X134.117 Y104.946 E10.74794
G1 X134.549 Y105.739 E10.77798
G1 X134.91 Y106.567 E10.80802
G1 X135.196 Y107.423 E10.83804
G1 X135.405 Y108.302 E10.86809
G1 X135.535 Y109.196 E10.89814
G1 X135.583 Y109.924 E10.9224
G1 X135.592 Y110.233 E10.93268
G1 X135.596 Y110.53 E10.94256
G1 X135.595 Y111.204 E10.96498
G1 X135.586 Y111.93 E10.98913
G1 X135.535 Y112.832 E11.01918
G1 X135.404 Y113.726 E11.04923
G1 X135.195 Y114.604 E11.07925
G1 X134.909 Y115.461 E11.1093
G1 X134.548 Y116.289 E11.13934
G1 X134.116 Y117.081 E11.16935
G1 X133.615 Y117.833 E11.1994
G1 X133.049 Y118.537 E11.22945
G1 X132.423 Y119.188 E11.25948
G1 X131.743 Y119.782 E11.28952
G1 X131.012 Y120.313 E11.31957
G1 X130.237 Y120.777 E11.34961
G1 X129.425 Y121.171 E11.37963
G1 X128.58 Y121.491 E11.40968
G1 X127.711 Y121.736 E11.43971
G1 X126.823 Y121.902 E11.46976
G1 X126.265 Y121.966 E11.48844
G1 X125.009 Y122.075 E11.53037
G1 X122.373 Y122.34 E11.61849
G1 X121.016 Y122.514 E11.66399
G1 X119.082 Y122.734 E11.72873
G1 X118.696 Y122.773 E11.74163
G1 X114.928 Y123.28 E11.86809
G1 X114.531 Y123.337 E11.88143
G1 X114.242 Y123.373 E11.89111
G1 X113.342 Y123.445 E11.92114
G1 X112.809 Y123.45 E11.93887
G1 X111.426 Y123.427 E11.98488
G1 X108.81 Y123.418 E12.07188
G1 X107.466 Y123.448 E12.1166
G1 X107.165 Y123.45 E12.12661
G1 X105.938 Y123.384 E12.16748
G1 X105.396 Y123.322 E12.18562
G1 X105.059 Y123.278 E12.19693
G1 X104.229 Y123.155 E12.22483
G1 X101.637 Y122.808 E12.31181
G1 X99.712 Y122.598 E12.37622
G1 X98.635 Y122.461 E12.41233
G1 X96.086 Y122.171 E12.49766
G1 X93.853 Y121.98 E12.5722
G1 X93.563 Y121.95 E12.58189
G1 X92.67 Y121.817 E12.61192
G1 X91.792 Y121.606 E12.64196
G1 X90.936 Y121.318 E12.672
G1 X90.109 Y120.956 E12.70202
G1 X89.317 Y120.521 E12.73207
G1 X88.567 Y120.019 E12.76209
G1 X87.864 Y119.452 E12.79213
G1 X87.214 Y118.825 E12.82217
G1 X86.622 Y118.143 E12.85221
G1 X86.092 Y117.411 E12.88226
G1 X85.63 Y116.635 E12.9123
G1 X85.238 Y115.822 E12.94232
G1 X84.919 Y114.977 E12.97236
G1 X84.676 Y114.107 E13.00241
G1 X84.512 Y113.219 E13.03244
G1 X84.417 Y112.075 E13.07062
G1 X84.409 Y111.774 E13.08064
G1 X84.405 Y111.503 E13.08965
G1 X84.406 Y110.718 E13.11576
G1 X84.416 Y110.065 E13.13748
G1 X84.47 Y109.163 E13.16754
G1 X84.603 Y108.27 E13.19756
G1 X84.815 Y107.392 E13.22761
G1 X85.104 Y106.536 E13.25766
G1 X85.467 Y105.71 E13.28766
G1 X85.902 Y104.918 E13.31772
G1 X86.405 Y104.168 E13.34775
G1 X86.973 Y103.466 E13.37779
G1 X87.6 Y102.816 E13.40783
G1 X88.283 Y102.225 E13.43787
G1 F2700 E8.43787
;MESH:jet_fighter.STL
G0 F6000 X105.003 Y109.78
G0 X107.014 Y109.412
G0 X107.598 Y109.491
G0 X108.039 Y109.672
G0 X110.743 Y111.541
G0 X111.719 Y111.67
G0 X111.969 Y112.269
G0 X112.159 Y112.512
G0 X112.405 Y112.697
G0 X112.977 Y112.857
G0 X112.995 Y112.71
;TYPE:WALL-OUTER
G1 F2700 E13.43787
G1 F1200 X113.263 Y112.672 E13.44687
G1 X113.512 Y112.567 E13.45586
G1 X113.725 Y112.4 E13.46486
G1 X113.886 Y112.191 E13.47363
G1 X113.99 Y111.939 E13.4827
G1 X114.024 Y111.663 E13.49195
G1 X113.986 Y111.394 E13.50099
G1 X113.881 Y111.145 E13.50998
G1 X113.713 Y110.931 E13.51902
G1 X113.496 Y110.767 E13.52807
G1 X113.245 Y110.667 E13.53706
G1 X112.977 Y110.633 E13.54604
G1 X112.708 Y110.672 E13.55508
G1 X112.459 Y110.776 E13.56406
G1 X112.245 Y110.944 E13.57311
G1 X112.081 Y111.161 E13.58215
G1 X111.981 Y111.412 E13.59114
G1 X111.947 Y111.681 E13.60016
G1 X111.986 Y111.949 E13.60917
G1 X112.09 Y112.198 E13.61814
G1 X112.258 Y112.412 E13.62719
G1 X112.474 Y112.575 E13.63619
G1 X112.726 Y112.677 E13.64523
G1 X112.995 Y112.71 E13.65425
G0 F6000 X112.985 Y113.059
G1 F1200 X112.633 Y113.012 E13.66606
G1 X112.299 Y112.877 E13.67804
G1 X112.011 Y112.658 E13.69007
G1 X111.786 Y112.368 E13.70228
G1 X111.648 Y112.035 E13.71427
G1 X111.598 Y111.671 E13.72649
G1 X111.645 Y111.319 E13.7383
G1 X111.78 Y110.985 E13.75028
G1 X111.999 Y110.697 E13.76232
G1 X112.289 Y110.472 E13.77453
G1 X112.629 Y110.331 E13.78677
G1 X112.986 Y110.284 E13.79875
G1 X113.338 Y110.331 E13.81056
G1 X113.674 Y110.467 E13.82261
G1 X113.964 Y110.69 E13.83478
G1 X114.183 Y110.972 E13.84666
G1 X114.325 Y111.316 E13.85903
G1 X114.373 Y111.672 E13.87098
G1 X114.326 Y112.027 E13.88289
G1 X114.187 Y112.364 E13.89502
G1 X113.97 Y112.647 E13.90688
G1 X113.682 Y112.871 E13.91901
G1 X113.349 Y113.009 E13.931
G1 X112.985 Y113.059 E13.94322
G1 F2700 E8.94322
G0 F6000 X112.977 Y112.909
G0 X113.583 Y112.688
G0 X113.925 Y112.343
G0 X114.252 Y111.671
G0 X116.7 Y111.668
G0 X116.9 Y111.871
;TYPE:WALL-INNER
G1 F2700 E13.94322
G1 F1200 X116.899 Y111.67 E13.94991
G1 X116.899 Y111.471 E13.95653
G1 X117.098 Y111.471 E13.96081
G1 X118.549 Y111.471 E14.00907
G1 X118.55 Y111.672 E14.01575
G1 X118.55 Y111.871 E14.02237
G1 X118.351 Y111.871 E14.02666
G1 X116.9 Y111.871 E14.07492
G0 F6000 X116.5 Y112.271
;TYPE:WALL-OUTER
G1 F1200 X116.499 Y111.071 E14.11483
G1 X118.949 Y111.071 E14.19632
G1 X118.95 Y112.271 E14.23623
G1 X116.5 Y112.271 E14.31772
G0 F6000 X117.1 Y111.789
G1 F2700 E9.31772
G0 F6000 X116.713 Y111.285
G0 X116.713 Y110.206
G0 X115.283 Y108.753
G0 X114.242 Y108.475
G0 X114.11 Y108.248
;TYPE:WALL-INNER
G1 F2700 E14.31772
G1 F1200 X113.918 Y108.197 E14.32432
G1 X113.723 Y108.144 E14.33104
G1 X114.554 Y105.046 E14.43773
G1 X114.605 Y104.854 E14.44433
G1 X114.797 Y104.905 E14.4486
G1 X114.992 Y104.958 E14.45533
G1 X114.161 Y108.056 E14.56201
G1 X114.11 Y108.248 E14.56628
G0 F6000 X114.393 Y108.737
;TYPE:WALL-OUTER
G1 F1200 X113.233 Y108.427 E14.60622
G1 X114.322 Y104.365 E14.74609
G1 X115.481 Y104.675 E14.78599
G1 X114.393 Y108.737 E14.92586
G0 F6000 X114.083 Y108.033
G1 F2700 E9.92586
G0 F6000 X114.242 Y108.475
G0 X115.283 Y108.753
G0 X119.35 Y110.071
G0 X120.729 Y110.628
G0 X121.808 Y110.628
G0 X121.994 Y111.214
;TYPE:WALL-INNER
G1 F2700 E14.92586
G1 F1200 X121.994 Y110.814 E14.93916
G1 X124.796 Y110.814 E15.03236
