;FLAVOR:Marlin
;TIME:3505
;Filament used: 1.7001m
;Layer height: 0.2
;MINX:77.285
;MINY:91.254
;MINZ:0.2
;MAXX:144.992
;MAXY:128.738
;MAXZ:19.6
;Generated with Cura_SteamEngine 4.8.0
M140 S60
M105
M190 S60
M104 S200
M105
M109 S200
M82 ;absolute extrusion mode
; Ender 3 Custom Start G-code
G92 E0 ; Reset Extruder
G28 ; Home all axes
G1 Z2.0 F3000 ; Move Z Axis up little to prevent scratching of Heat Bed
G1 X0.1 Y20 Z0.3 F5000.0 ; Move to start position
G1 X0.1 Y200.0 Z0.3 F1500.0 E15 ; Draw the first line
G1 X0.4 Y200.0 Z0.3 F5000.0 ; Move to side a little
G1 X0.4 Y20 Z0.3 F1500.0 E30 ; Draw the second line
G92 E0 ; Reset Extruder
G1 Z2.0 F3000 ; Move Z Axis up little to prevent scratching of Heat Bed
G1 X5 Y20 Z0.3 F5000.0 ; Move over to prevent blob squish
G92 E0
G92 E0
G1 F2700 E-5
;LAYER_COUNT:98
;LAYER:0
M107
G0 F6000 X84.264 Y103.283 Z0.2
;TYPE:SKIRT
G1 F2700 E0
G1 F1200 X84.554 Y103.057 E0.01223
G1 X84.811 Y102.863 E0.02294
G1 X85.057 Y102.683 E0.03308
G1 X85.622 Y102.278 E0.0562
G1 X86.425 Y101.754 E0.08809
G1 X87.026 Y101.398 E0.11132
G1 X87.303 Y101.239 E0.12195
G1 X87.787 Y100.971 E0.14035
G1 X88.656 Y100.539 E0.17262
G1 X89.364 Y100.225 E0.19838
G1 X89.656 Y100.1 E0.20895
G1 X90.208 Y99.874 E0.22879
G1 X90.818 Y99.645 E0.25046
G1 X91.179 Y99.522 E0.26314
G1 X94.271 Y98.4 E0.37254
G1 X94.867 Y98.192 E0.39354
G1 X95.299 Y98.055 E0.40861
G1 X95.584 Y97.969 E0.41852
G1 X96.036 Y97.839 E0.43416
G1 X96.947 Y97.618 E0.46534
G1 X97.48 Y97.526 E0.48333
G1 X97.949 Y97.465 E0.49906
G1 X98.313 Y97.425 E0.51124
G1 X98.594 Y97.398 E0.52063
G1 X99.094 Y97.356 E0.53731
G1 X99.709 Y97.321 E0.5578
G1 X100.507 Y97.299 E0.58435
G1 X103.027 Y97.194 E0.66824
G1 X105.561 Y97.015 E0.75273
G1 X108.06 Y96.768 E0.83626
G1 X110.572 Y96.447 E0.92048
G1 X113.06 Y96.058 E1.00424
G1 X115.514 Y95.604 E1.08725
G1 X118.002 Y95.07 E1.17188
G1 X120.395 Y94.484 E1.25383
G1 X122.879 Y93.802 E1.3395
G1 X125.254 Y93.076 E1.4221
G1 X127.684 Y92.258 E1.50738
G1 X128.711 Y91.897 E1.54359
G1 X129.608 Y91.624 E1.57477
G1 X130.525 Y91.428 E1.60596
G1 X131.456 Y91.311 E1.63717
G1 X132.129 Y91.276 E1.65958
G1 X133.125 Y91.255 E1.69272
G1 X133.515 Y91.254 E1.70569
G1 X134.141 Y91.263 E1.72651
G1 X135.077 Y91.317 E1.7577
G1 X136.006 Y91.45 E1.78891
G1 X136.92 Y91.661 E1.82011
G1 X137.812 Y91.95 E1.8513
G1 X138.676 Y92.314 E1.88248
G1 X139.507 Y92.749 E1.91368
G1 X140.297 Y93.255 E1.94488
G1 X141.041 Y93.825 E1.97605
G1 X141.734 Y94.457 E2.00725
G1 X142.371 Y95.146 E2.03846
G1 X142.947 Y95.886 E2.06965
G1 X143.457 Y96.673 E2.10084
G1 X143.899 Y97.5 E2.13203
G1 X144.269 Y98.362 E2.16323
G1 X144.563 Y99.253 E2.19443
G1 X144.781 Y100.165 E2.22562
G1 X144.921 Y101.092 E2.2568
G1 X144.979 Y101.953 E2.2855
G1 X144.988 Y102.273 E2.29615
G1 X144.992 Y102.582 E2.30643
G1 X144.991 Y113.668 E2.67515
G1 X144.981 Y114.394 E2.6993
G1 X144.928 Y115.33 E2.73048
G1 X144.796 Y116.258 E2.76166
G1 X144.585 Y117.172 E2.79286
G1 X144.296 Y118.065 E2.82408
G1 X143.933 Y118.929 E2.85525
G1 X143.498 Y119.76 E2.88644
G1 X142.993 Y120.551 E2.91766
G1 X142.423 Y121.295 E2.94883
G1 X141.792 Y121.989 E2.98003
G1 X141.103 Y122.626 E3.01124
G1 X140.363 Y123.202 E3.04242
G1 X139.577 Y123.713 E3.07361
G1 X138.791 Y124.135 E3.10328
G1 X137.909 Y124.562 E3.13587
G1 X133.992 Y126.387 E3.2796
G1 X133.335 Y126.681 E3.30354
G1 X132.463 Y127.027 E3.33474
G1 X131.565 Y127.298 E3.36594
G1 X130.519 Y127.511 E3.40144
G1 X127.815 Y127.928 E3.49244
G1 X125.284 Y128.392 E3.57803
G1 X125.051 Y128.438 E3.58592
G1 X124.453 Y128.539 E3.6061
G1 X124.029 Y128.593 E3.62031
G1 X123.719 Y128.627 E3.63068
G1 X123.458 Y128.653 E3.63941
G1 X122.932 Y128.698 E3.65697
G1 X121.995 Y128.738 E3.68816
G1 X121.06 Y128.698 E3.71929
G1 X119.767 Y128.587 E3.76245
G1 X118.67 Y128.476 E3.79912
G1 X116.144 Y128.294 E3.88336
G1 X113.624 Y128.185 E3.96725
G1 X111.097 Y128.145 E4.05131
G1 X108.606 Y128.178 E4.13417
G1 X106.086 Y128.281 E4.21805
G1 X103.563 Y128.457 E4.30217
G1 X102.133 Y128.595 E4.34995
G1 X100.935 Y128.698 E4.38995
G1 X99.998 Y128.738 E4.42114
G1 X99.074 Y128.699 E4.4519
G1 X98.622 Y128.661 E4.46699
G1 X98.306 Y128.63 E4.47755
G1 X97.838 Y128.577 E4.49321
G1 X97.532 Y128.538 E4.50347
G1 X96.997 Y128.462 E4.52145
G1 X94.382 Y128.13 E4.60912
G1 X91.914 Y127.887 E4.6916
G1 X88.067 Y127.642 E4.81981
G1 X87.809 Y127.631 E4.8284
G1 X86.874 Y127.55 E4.85962
G1 X85.95 Y127.389 E4.89081
G1 X85.043 Y127.151 E4.922
G1 X84.16 Y126.836 E4.95318
G1 X83.307 Y126.446 E4.98438
G1 X82.49 Y125.986 E5.01556
G1 X81.715 Y125.458 E5.04675
G1 X80.988 Y124.865 E5.07796
G1 X80.314 Y124.213 E5.10915
G1 X79.698 Y123.506 E5.14033
G1 X79.145 Y122.748 E5.17154
G1 X78.658 Y121.947 E5.20272
G1 X78.241 Y121.107 E5.23391
G1 X77.897 Y120.234 E5.26512
G1 X77.629 Y119.335 E5.29632
G1 X77.438 Y118.417 E5.32751
G1 X77.326 Y117.486 E5.3587
G1 X77.298 Y116.94 E5.37688
G1 X77.289 Y116.608 E5.38793
G1 X77.285 Y116.31 E5.39784
G1 X77.286 Y115.584 E5.42199
G1 X77.296 Y114.895 E5.44491
G1 X77.35 Y113.959 E5.47609
G1 X77.483 Y113.031 E5.50727
G1 X77.695 Y112.117 E5.53848
G1 X77.983 Y111.225 E5.56965
G1 X78.347 Y110.36 E5.60087
G1 X78.932 Y109.282 E5.64166
G1 X79.125 Y108.969 E5.65389
G1 X79.298 Y108.698 E5.66458
G1 X79.557 Y108.305 E5.68024
G1 X79.954 Y107.72 E5.70375
G1 X80.513 Y106.967 E5.73494
G1 X80.909 Y106.506 E5.75516
G1 X81.408 Y105.956 E5.77986
G1 X81.634 Y105.714 E5.79087
G1 X82.084 Y105.247 E5.81244
G1 X82.51 Y104.829 E5.83229
G1 X83.017 Y104.357 E5.85533
G1 X83.275 Y104.124 E5.86689
G1 X83.789 Y103.675 E5.88959
G1 X84.264 Y103.283 E5.91008
G0 F6000 X84.51 Y103.598
G1 F1200 X84.8 Y103.372 E5.92231
G1 X85.048 Y103.185 E5.93264
G1 X85.29 Y103.008 E5.94261
G1 X85.855 Y102.603 E5.96573
G1 X86.629 Y102.098 E5.99647
G1 X87.23 Y101.742 E6.0197
G1 X87.497 Y101.589 E6.02994
G1 X87.981 Y101.321 E6.04834
G1 X88.819 Y100.904 E6.07947
G1 X89.527 Y100.59 E6.10523
G1 X89.808 Y100.47 E6.11539
G1 X90.36 Y100.244 E6.13523
G1 X90.948 Y100.024 E6.15611
G1 X91.269 Y99.914 E6.1674
G1 X94.319 Y98.809 E6.27529
G1 X94.414 Y98.773 E6.27867
G1 X94.988 Y98.573 E6.29889
G1 X95.42 Y98.436 E6.31396
G1 X95.694 Y98.353 E6.32349
G1 X96.146 Y98.223 E6.33913
G1 X97.041 Y98.007 E6.36975
G1 X97.538 Y97.922 E6.38652
G1 X97.993 Y97.862 E6.40179
G1 X98.357 Y97.822 E6.41396
G1 X98.628 Y97.796 E6.42302
G1 X99.128 Y97.754 E6.43971
G1 X99.72 Y97.721 E6.45943
G1 X100.464 Y97.7 E6.48418
G1 X103.071 Y97.591 E6.57097
G1 X105.592 Y97.414 E6.65502
G1 X108.113 Y97.165 E6.73928
G1 X110.618 Y96.845 E6.82327
G1 X113.123 Y96.453 E6.90761
G1 X115.6 Y95.995 E6.99139
G1 X118.109 Y95.456 E7.07674
G1 X120.491 Y94.873 E7.15831
G1 X122.964 Y94.193 E7.24361
G1 X125.394 Y93.451 E7.32812
G1 X127.861 Y92.621 E7.41469
G1 X128.844 Y92.275 E7.44935
G1 X129.725 Y92.007 E7.47998
G1 X130.625 Y91.817 E7.51057
G1 X131.539 Y91.706 E7.54119
G1 X132.138 Y91.676 E7.56114
G1 X133.134 Y91.655 E7.59428
G1 X133.509 Y91.654 E7.60675
G1 X134.135 Y91.663 E7.62757
G1 X135.054 Y91.716 E7.65819
G1 X135.966 Y91.849 E7.68884
G1 X136.862 Y92.06 E7.71946
G1 X137.736 Y92.349 E7.75008
G1 X138.582 Y92.712 E7.7807
G1 X139.393 Y93.147 E7.8113
G1 X140.164 Y93.651 E7.84194
G1 X140.888 Y94.219 E7.87255
G1 X141.56 Y94.849 E7.90318
G1 X142.174 Y95.534 E7.93378
G1 X142.727 Y96.27 E7.9644
G1 X143.214 Y97.052 E7.99504
G1 X143.631 Y97.872 E8.02564
G1 X143.976 Y98.726 E8.05627
G1 X144.245 Y99.607 E8.08691
G1 X144.437 Y100.507 E8.11752
G1 X144.55 Y101.421 E8.14815
G1 X144.579 Y101.964 E8.16624
G1 X144.588 Y102.284 E8.17688
G1 X144.592 Y102.582 E8.1868
G1 X144.591 Y113.662 E8.55532
G1 X144.581 Y114.388 E8.57947
G1 X144.528 Y115.307 E8.61008
G1 X144.396 Y116.218 E8.6407
G1 X144.185 Y117.114 E8.67132
G1 X143.898 Y117.989 E8.70194
G1 X143.535 Y118.835 E8.73256
G1 X143.101 Y119.647 E8.76319
G1 X142.597 Y120.418 E8.79382
G1 X142.029 Y121.142 E8.82443
G1 X141.4 Y121.814 E8.85504
G1 X140.715 Y122.429 E8.88566
G1 X139.979 Y122.983 E8.9163
G1 X139.198 Y123.47 E8.94691
G1 X138.616 Y123.775 E8.96877
G1 X137.74 Y124.2 E9.00115
G1 X133.977 Y125.954 E9.13924
G1 X133.172 Y126.315 E9.16858
G1 X132.316 Y126.655 E9.19922
G1 X131.434 Y126.918 E9.22983
G1 X130.458 Y127.116 E9.26295
G1 X127.719 Y127.538 E9.35513
G1 X125.212 Y127.998 E9.4399
G1 X124.974 Y128.045 E9.44797
G1 X124.397 Y128.143 E9.46744
G1 X123.986 Y128.196 E9.48122
G1 X123.676 Y128.23 E9.49159
G1 X123.424 Y128.254 E9.50001
G1 X122.898 Y128.299 E9.51757
G1 X121.978 Y128.338 E9.5482
G1 X121.094 Y128.3 E9.57762
G1 X119.807 Y128.189 E9.62059
G1 X118.702 Y128.077 E9.65753
G1 X116.156 Y127.894 E9.74243
G1 X113.647 Y127.785 E9.82596
G1 X111.098 Y127.745 E9.91075
G1 X108.584 Y127.778 E9.99437
G1 X106.04 Y127.882 E10.07906
G1 X103.567 Y128.054 E10.16151
G1 X102.099 Y128.197 E10.21056
G1 X100.901 Y128.299 E10.25055
G1 X99.981 Y128.338 E10.28118
G1 X99.108 Y128.301 E10.31024
G1 X98.656 Y128.263 E10.32533
G1 X98.351 Y128.233 E10.33552
G1 X97.883 Y128.18 E10.35119
G1 X97.588 Y128.142 E10.36108
G1 X97.037 Y128.064 E10.37959
G1 X94.435 Y127.734 E10.46683
G1 X91.948 Y127.488 E10.54995
G1 X88.113 Y127.245 E10.67776
G1 X87.826 Y127.232 E10.68731
G1 X86.909 Y127.151 E10.71793
G1 X86.003 Y126.991 E10.74853
G1 X85.113 Y126.754 E10.77916
G1 X84.248 Y126.439 E10.80978
G1 X83.413 Y126.051 E10.8404
G1 X82.615 Y125.592 E10.87102
G1 X81.86 Y125.066 E10.90163
G1 X81.153 Y124.476 E10.93226
G1 X80.5 Y123.826 E10.9629
G1 X79.906 Y123.123 E10.99351
G1 X79.375 Y122.371 E11.02413
G1 X78.912 Y121.575 E11.05476
G1 X78.519 Y120.743 E11.08536
G1 X78.2 Y119.879 E11.11599
G1 X77.958 Y118.991 E11.14661
G1 X77.793 Y118.085 E11.17724
G1 X77.698 Y116.929 E11.21581
G1 X77.689 Y116.597 E11.22686
G1 X77.685 Y116.31 E11.23641
G1 X77.686 Y115.59 E11.26036
G1 X77.696 Y114.901 E11.28327
G1 X77.749 Y113.982 E11.31389
G1 X77.882 Y113.071 E11.34451
G1 X78.094 Y112.175 E11.37514
G1 X78.382 Y111.301 E11.40574
G1 X78.745 Y110.455 E11.43636
G1 X79.272 Y109.492 E11.47287
G1 X79.465 Y109.179 E11.4851
G1 X79.632 Y108.917 E11.49544
G1 X79.888 Y108.53 E11.51087
G1 X80.285 Y107.945 E11.53439
G1 X80.835 Y107.206 E11.56502
G1 X81.206 Y106.774 E11.58396
G1 X81.705 Y106.224 E11.60866
G1 X81.922 Y105.992 E11.61923
G1 X82.372 Y105.525 E11.6408
G1 X82.782 Y105.122 E11.65992
G1 X83.289 Y104.65 E11.68296
G1 X83.538 Y104.425 E11.69412
G1 X84.052 Y103.976 E11.71682
G1 X84.51 Y103.598 E11.73657
G0 F6000 X84.756 Y103.914
G1 F1200 X85.046 Y103.688 E11.7488
G1 X85.284 Y103.508 E11.75873
G1 X85.523 Y103.333 E11.76858
G1 X86.088 Y102.928 E11.7917
G1 X86.833 Y102.442 E11.82129
G1 X87.434 Y102.086 E11.84452
G1 X87.691 Y101.939 E11.85437
G1 X88.175 Y101.671 E11.87277
G1 X88.981 Y101.27 E11.90271
G1 X89.689 Y100.956 E11.92847
G1 X89.959 Y100.841 E11.93823
G1 X90.511 Y100.615 E11.95807
G1 X91.077 Y100.402 E11.97818
G1 X91.424 Y100.283 E11.99038
G1 X94.47 Y99.18 E12.09813
G1 X94.556 Y99.147 E12.1012
G1 X95.109 Y98.954 E12.12068
G1 X95.541 Y98.817 E12.13575
G1 X95.805 Y98.737 E12.14493
G1 X96.257 Y98.607 E12.16057
G1 X97.135 Y98.396 E12.1906
G1 X97.596 Y98.318 E12.20615
G1 X98.037 Y98.26 E12.22095
G1 X98.401 Y98.22 E12.23313
G1 X98.661 Y98.195 E12.24181
G1 X99.161 Y98.153 E12.2585
G1 X99.731 Y98.121 E12.27749
G1 X100.49 Y98.1 E12.30275
G1 X103.081 Y97.992 E12.389
G1 X105.627 Y97.812 E12.47389
G1 X108.167 Y97.561 E12.55878
G1 X110.694 Y97.239 E12.64351
G1 X113.187 Y96.849 E12.72744
G1 X115.651 Y96.393 E12.81078
G1 X118.183 Y95.849 E12.89692
G1 X120.619 Y95.253 E12.98033
G1 X123.082 Y94.576 E13.06529
G1 X125.49 Y93.84 E13.14903
G1 X127.972 Y93.005 E13.23613
G1 X128.976 Y92.652 E13.27153
G1 X129.841 Y92.39 E13.30159
G1 X130.725 Y92.206 E13.33162
G1 X131.622 Y92.101 E13.36166
G1 X132.146 Y92.076 E13.37911
G1 X133.142 Y92.055 E13.41224
G1 X133.504 Y92.054 E13.42428
G1 X134.13 Y92.063 E13.44511
G1 X135.031 Y92.116 E13.47512
G1 X135.925 Y92.248 E13.50518
G1 X136.803 Y92.459 E13.53522
G1 X137.659 Y92.747 E13.56525
G1 X138.486 Y93.11 E13.59529
G1 X139.278 Y93.544 E13.62533
G1 X140.028 Y94.046 E13.65535
G1 X140.731 Y94.613 E13.68539
G1 X141.381 Y95.24 E13.71543
G1 X141.973 Y95.922 E13.74546
G1 X142.503 Y96.654 E13.77552
G1 X142.965 Y97.429 E13.80553
G1 X143.358 Y98.243 E13.83559
G1 X143.677 Y99.088 E13.86563
G1 X143.919 Y99.958 E13.89567
G1 X144.084 Y100.846 E13.92571
G1 X144.179 Y101.975 E13.96339
G1 X144.188 Y102.295 E13.97404
G1 X144.192 Y102.582 E13.98359
G1 X144.191 Y113.656 E14.35191
G1 X144.181 Y114.382 E14.37606
G1 X144.129 Y115.284 E14.40611
G1 X143.997 Y116.177 E14.43613
G1 X143.786 Y117.056 E14.4662
G1 X143.499 Y117.912 E14.49623
G1 X143.137 Y118.739 E14.52625
G1 X142.703 Y119.531 E14.55629
G1 X142.201 Y120.282 E14.58634
G1 X141.635 Y120.986 E14.61638
G1 X141.008 Y121.636 E14.64642
G1 X140.327 Y122.229 E14.67645
G1 X139.595 Y122.758 E14.70649
G1 X138.441 Y123.416 E14.75068
G1 X137.721 Y123.766 E14.7773
G1 X133.808 Y125.591 E14.92091
G1 X133.008 Y125.95 E14.95007
G1 X132.168 Y126.282 E14.98011
G1 X131.302 Y126.539 E15.01016
G1 X130.397 Y126.721 E15.04086
G1 X127.657 Y127.144 E15.13307
G1 X125.128 Y127.607 E15.21859
G1 X124.896 Y127.653 E15.22645
G1 X124.341 Y127.747 E15.24518
G1 X123.942 Y127.798 E15.25855
G1 X123.632 Y127.832 E15.26893
G1 X123.389 Y127.856 E15.27705
G1 X122.863 Y127.901 E15.29461
G1 X121.961 Y127.938 E15.32463
G1 X121.128 Y127.901 E15.35237
G1 X119.847 Y127.791 E15.39513
G1 X118.735 Y127.679 E15.4323
G1 X116.166 Y127.494 E15.51797
G1 X113.672 Y127.385 E15.601
G1 X111.098 Y127.345 E15.68662
G1 X108.562 Y127.378 E15.77098
G1 X106.032 Y127.482 E15.85519
G1 X103.501 Y127.658 E15.93958
G1 X102.065 Y127.798 E15.98757
G1 X100.867 Y127.901 E16.02756
G1 X99.964 Y127.938 E16.05762
G1 X99.141 Y127.902 E16.08502
G1 X98.689 Y127.864 E16.1001
G1 X98.396 Y127.835 E16.1099
G1 X97.928 Y127.782 E16.12556
G1 X97.644 Y127.746 E16.13508
G1 X97.077 Y127.666 E16.15413
G1 X94.488 Y127.337 E16.24093
G1 X91.984 Y127.09 E16.32462
G1 X88.103 Y126.843 E16.45396
G1 X87.844 Y126.832 E16.46259
G1 X86.944 Y126.752 E16.49264
G1 X86.055 Y126.593 E16.52268
G1 X85.184 Y126.356 E16.5527
G1 X84.337 Y126.043 E16.58273
G1 X83.521 Y125.656 E16.61277
G1 X82.742 Y125.199 E16.64281
G1 X82.007 Y124.674 E16.67285
G1 X81.321 Y124.087 E16.70288
G1 X80.69 Y123.441 E16.73292
G1 X80.119 Y122.741 E16.76296
G1 X79.611 Y121.994 E16.79301
G1 X79.172 Y121.205 E16.82304
G1 X78.804 Y120.381 E16.85305
G1 X78.51 Y119.527 E16.88309
G1 X78.294 Y118.65 E16.91313
G1 X78.155 Y117.757 E16.94319
G1 X78.098 Y116.918 E16.97116
G1 X78.089 Y116.586 E16.98221
G1 X78.085 Y116.31 E16.99139
G1 X78.086 Y115.596 E17.01514
G1 X78.096 Y114.907 E17.03806
G1 X78.149 Y114.005 E17.06811
G1 X78.282 Y113.112 E17.09814
G1 X78.493 Y112.234 E17.12817
G1 X78.781 Y111.378 E17.15821
G1 X79.143 Y110.551 E17.18824
G1 X79.613 Y109.701 E17.22054
G1 X79.806 Y109.388 E17.23277
G1 X79.966 Y109.137 E17.24267
G1 X80.219 Y108.754 E17.25794
G1 X80.616 Y108.169 E17.28145
G1 X81.156 Y107.445 E17.31149
G1 X81.502 Y107.043 E17.32914
G1 X82.001 Y106.493 E17.35384
G1 X82.21 Y106.269 E17.36402
G1 X82.66 Y105.802 E17.38559
G1 X83.055 Y105.414 E17.40401
G1 X83.562 Y104.942 E17.42705
G1 X83.802 Y104.726 E17.43779
G1 X84.316 Y104.277 E17.46049
G1 X84.756 Y103.914 E17.47946
G1 F2700 E12.47946
;MESH:racecar.STL
G0 F6000 X95.024 Y109.066
G0 X95.035 Y110.314
G0 X99.106 Y112.85
G0 X97.672 Y112.565
G0 X98.133 Y113.8
G0 X98.319 Y114.15
G0 X98.875 Y114.706
G0 X99.997 Y115.208
;TYPE:WALL-INNER
G1 F2700 E17.47946
G1 F1200 X100.422 Y115.165 E17.49367
G1 X100.832 Y115.043 E17.5079
G1 X101.209 Y114.84 E17.52214
G1 X101.538 Y114.569 E17.53631
G1 X101.809 Y114.24 E17.55049
G1 X102.011 Y113.862 E17.56475
G1 X102.135 Y113.453 E17.57896
