;FLAVOR:Marlin
;TIME:3118
;Filament used: 1.30858m
;Layer height: 0.2
;MINX:67.252
;MINY:86.288
;MINZ:0.2
;MAXX:119.052
;MAXY:128.406
;MAXZ:31
;Generated with Cura_SteamEngine 4.8.0
M140 S60
M105
M190 S60
M104 S200
M105
M109 S200
M82 ;absolute extrusion mode
; Ender 3 Custom Start G-code
G92 E0 ; Reset Extruder
G28 ; Home all axes
G1 Z2.0 F3000 ; Move Z Axis up little to prevent scratching of Heat Bed
G1 X0.1 Y20 Z0.3 F5000.0 ; Move to start position
G1 X0.1 Y200.0 Z0.3 F1500.0 E15 ; Draw the first line
G1 X0.4 Y200.0 Z0.3 F5000.0 ; Move to side a little
G1 X0.4 Y20 Z0.3 F1500.0 E30 ; Draw the second line
G92 E0 ; Reset Extruder
G1 Z2.0 F3000 ; Move Z Axis up little to prevent scratching of Heat Bed
G1 X5 Y20 Z0.3 F5000.0 ; Move over to prevent blob squish
G92 E0
G92 E0
G1 F2700 E-5
;LAYER_COUNT:155
;LAYER:0
M107
G0 F6000 X71.151 Y89.577 Z0.2
;TYPE:SKIRT
G1 F2700 E0
G1 F1200 X71.892 Y89.002 E0.0312
G1 X72.679 Y88.492 E0.06239
G1 X73.507 Y88.051 E0.09359
G1 X74.369 Y87.682 E0.12478
G1 X75.26 Y87.388 E0.15598
G1 X76.172 Y87.17 E0.18717
G1 X77.317 Y87.011 E0.22562
G1 X78.296 Y86.927 E0.2583
G1 X79.313 Y86.854 E0.29221
G1 X81.797 Y86.605 E0.37524
G1 X82.764 Y86.483 E0.40766
G1 X83.661 Y86.382 E0.43768
G1 X83.946 Y86.354 E0.44721
G1 X84.282 Y86.325 E0.45843
G1 X85.557 Y86.289 E0.50085
G1 X86.295 Y86.312 E0.52541
G1 X87.81 Y86.376 E0.57584
G1 X90.337 Y86.412 E0.6599
G1 X92.862 Y86.376 E0.74389
G1 X94.653 Y86.301 E0.80351
G1 X95.121 Y86.288 E0.81908
G1 X95.744 Y86.289 E0.8398
G1 X96.561 Y86.313 E0.86699
G1 X99.197 Y86.351 E0.95467
G1 X101.778 Y86.315 E1.04052
G1 X102.752 Y86.288 E1.07293
G1 X103.891 Y86.315 E1.11083
G1 X104.142 Y86.334 E1.1192
G1 X104.552 Y86.373 E1.1329
G1 X104.887 Y86.411 E1.14411
G1 X105.205 Y86.452 E1.15477
G1 X105.919 Y86.555 E1.17877
G1 X107.442 Y86.794 E1.23004
G1 X108.746 Y86.97 E1.27381
G1 X109.448 Y87.06 E1.29735
G1 X110.372 Y87.219 E1.32853
G1 X111.279 Y87.457 E1.35972
G1 X112.163 Y87.771 E1.39092
G1 X113.017 Y88.159 E1.42212
G1 X113.835 Y88.618 E1.45332
G1 X114.61 Y89.146 E1.48451
G1 X115.338 Y89.737 E1.51569
G1 X116.013 Y90.388 E1.54688
G1 X116.63 Y91.095 E1.5781
G1 X117.184 Y91.851 E1.60927
G1 X117.672 Y92.652 E1.64046
G1 X118.09 Y93.492 E1.67167
G1 X118.435 Y94.364 E1.70286
G1 X118.705 Y95.262 E1.73405
G1 X118.896 Y96.18 E1.76524
G1 X119.009 Y97.111 E1.79643
G1 X119.039 Y97.663 E1.81482
G1 X119.048 Y97.985 E1.82553
G1 X119.052 Y98.284 E1.83548
G1 X119.052 Y99.771 E1.88493
G1 X119.043 Y100.485 E1.90868
G1 X118.952 Y104.754 E2.0507
G1 X118.951 Y105.715 E2.08267
G1 X118.941 Y106.42 E2.10612
G1 X118.888 Y107.356 E2.1373
G1 X118.694 Y108.587 E2.17875
G1 X118.519 Y109.398 E2.20634
G1 X118.017 Y111.902 E2.29128
G1 X117.59 Y114.39 E2.37524
G1 X117.233 Y116.902 E2.45963
G1 X117.12 Y117.888 E2.49264
G1 X117.004 Y118.794 E2.52302
G1 X116.845 Y119.718 E2.5542
G1 X116.608 Y120.626 E2.58542
G1 X116.295 Y121.51 E2.61661
G1 X115.908 Y122.364 E2.64779
G1 X115.449 Y123.182 E2.67899
G1 X114.922 Y123.958 E2.71019
G1 X114.331 Y124.686 E2.74138
G1 X113.68 Y125.361 E2.77257
G1 X112.974 Y125.979 E2.80377
G1 X112.218 Y126.534 E2.83497
G1 X111.418 Y127.022 E2.86613
G1 X110.578 Y127.441 E2.89736
G1 X109.707 Y127.787 E2.92853
G1 X108.808 Y128.057 E2.95975
G1 X107.891 Y128.249 E2.99091
G1 X106.96 Y128.363 E3.02211
G1 X106.401 Y128.393 E3.04072
G1 X106.08 Y128.402 E3.0514
G1 X105.772 Y128.406 E3.06165
G1 X105.056 Y128.405 E3.08546
G1 X103.131 Y128.377 E3.1495
G1 X102.529 Y128.36 E3.16953
G1 X99.967 Y128.362 E3.25474
G1 X98.687 Y128.39 E3.29732
G1 X98.305 Y128.401 E3.31003
G1 X97.983 Y128.406 E3.32074
G1 X97.254 Y128.405 E3.34499
G1 X96.55 Y128.395 E3.36841
G1 X95.613 Y128.342 E3.39962
G1 X94.685 Y128.209 E3.4308
G1 X93.771 Y127.997 E3.46201
G1 X92.879 Y127.709 E3.49319
G1 X91.768 Y127.225 E3.53349
G1 X91.186 Y126.931 E3.55518
G1 X89.685 Y126.147 E3.6115
G1 X87.394 Y125.033 E3.69623
G1 X85.092 Y123.993 E3.78025
G1 X82.8 Y123.035 E3.86287
G1 X80.396 Y122.109 E3.94856
G1 X78.005 Y121.264 E4.0329
G1 X77.826 Y121.204 E4.03918
G1 X76.951 Y120.866 E4.07038
G1 X76.108 Y120.456 E4.10156
G1 X75.303 Y119.974 E4.13276
G1 X74.542 Y119.426 E4.16396
G1 X73.831 Y118.815 E4.19514
G1 X73.174 Y118.146 E4.22632
G1 X72.576 Y117.423 E4.25753
G1 X72.042 Y116.652 E4.28872
G1 X71.576 Y115.838 E4.31992
G1 X71.181 Y114.988 E4.35109
G1 X70.88 Y114.172 E4.38002
G1 X70.662 Y113.499 E4.40355
G1 X69.049 Y108.26 E4.58587
G1 X68.802 Y107.419 E4.61503
G1 X68.719 Y107.121 E4.62531
G1 X68.533 Y106.411 E4.64973
G1 X67.878 Y104.045 E4.73138
G1 X67.703 Y103.446 E4.75213
G1 X67.479 Y102.535 E4.78334
G1 X67.333 Y101.609 E4.81452
G1 X67.267 Y100.692 E4.8451
G1 X67.257 Y100.36 E4.85614
G1 X67.252 Y100.029 E4.86715
G1 X67.253 Y98.47 E4.91901
G1 X67.263 Y97.805 E4.94113
G1 X67.317 Y96.868 E4.97234
G1 X67.451 Y95.94 E5.00353
G1 X67.663 Y95.026 E5.03473
G1 X67.952 Y94.134 E5.06592
G1 X68.317 Y93.27 E5.09712
G1 X68.753 Y92.44 E5.1283
G1 X69.259 Y91.65 E5.1595
G1 X69.83 Y90.906 E5.1907
G1 X70.462 Y90.213 E5.22189
G1 X71.151 Y89.577 E5.25308
G0 F6000 X71.54 Y89.774
G1 F1200 X72.276 Y89.222 E5.28368
G1 X73.058 Y88.735 E5.31432
G1 X73.879 Y88.319 E5.34493
G1 X74.733 Y87.975 E5.37555
G1 X75.613 Y87.706 E5.40616
G1 X76.514 Y87.515 E5.43679
G1 X77.351 Y87.409 E5.46485
G1 X78.325 Y87.326 E5.49737
G1 X79.346 Y87.253 E5.53141
G1 X81.852 Y87.001 E5.61518
G1 X82.809 Y86.881 E5.64726
G1 X83.706 Y86.78 E5.67728
G1 X83.981 Y86.752 E5.68648
G1 X84.317 Y86.723 E5.69769
G1 X85.545 Y86.689 E5.73855
G1 X86.278 Y86.711 E5.76294
G1 X87.823 Y86.776 E5.81438
G1 X90.337 Y86.812 E5.898
G1 X92.849 Y86.776 E5.98156
G1 X94.664 Y86.701 E6.04198
G1 X95.132 Y86.688 E6.05755
G1 X95.732 Y86.688 E6.0775
G1 X96.612 Y86.713 E6.10679
G1 X99.197 Y86.751 E6.19277
G1 X101.795 Y86.715 E6.27919
G1 X102.763 Y86.688 E6.3114
G1 X103.861 Y86.714 E6.34793
G1 X104.112 Y86.733 E6.3563
G1 X104.507 Y86.771 E6.3695
G1 X104.842 Y86.809 E6.38071
G1 X105.149 Y86.848 E6.39101
G1 X105.857 Y86.95 E6.4148
G1 X107.416 Y87.195 E6.46729
G1 X108.649 Y87.361 E6.50867
G1 X109.397 Y87.457 E6.53375
G1 X110.304 Y87.614 E6.56436
G1 X111.194 Y87.849 E6.59498
G1 X112.06 Y88.161 E6.6256
G1 X112.896 Y88.546 E6.65621
G1 X113.696 Y89.003 E6.68685
G1 X114.453 Y89.527 E6.71747
G1 X115.161 Y90.115 E6.74808
G1 X115.816 Y90.763 E6.77873
G1 X116.412 Y91.464 E6.80933
G1 X116.945 Y92.215 E6.83996
G1 X117.411 Y93.009 E6.87058
G1 X117.806 Y93.841 E6.90121
G1 X118.127 Y94.703 E6.93181
G1 X118.373 Y95.591 E6.96246
G1 X118.54 Y96.496 E6.99306
G1 X118.639 Y97.674 E7.03238
G1 X118.648 Y97.996 E7.0431
G1 X118.652 Y98.284 E7.05268
G1 X118.652 Y99.766 E7.10197
G1 X118.643 Y100.48 E7.12572
G1 X118.552 Y104.745 E7.2676
G1 X118.551 Y105.709 E7.29967
G1 X118.541 Y106.414 E7.32312
G1 X118.488 Y107.333 E7.35374
G1 X118.303 Y108.503 E7.39313
G1 X118.128 Y109.314 E7.42073
G1 X117.624 Y111.827 E7.50597
G1 X117.194 Y114.332 E7.59051
G1 X116.833 Y116.872 E7.67584
G1 X116.723 Y117.837 E7.70814
G1 X116.607 Y118.743 E7.73852
G1 X116.451 Y119.65 E7.76913
G1 X116.216 Y120.541 E7.79978
G1 X115.905 Y121.407 E7.83039
G1 X115.52 Y122.244 E7.86103
G1 X115.064 Y123.043 E7.89163
G1 X114.54 Y123.8 E7.92225
G1 X113.953 Y124.509 E7.95286
G1 X113.306 Y125.164 E7.98348
G1 X112.605 Y125.761 E8.01411
G1 X111.854 Y126.295 E8.04476
G1 X111.061 Y126.761 E8.07535
G1 X110.229 Y127.157 E8.106
G1 X109.367 Y127.479 E8.1366
G1 X108.48 Y127.725 E8.16722
G1 X107.575 Y127.893 E8.19783
G1 X106.39 Y127.993 E8.23739
G1 X106.069 Y128.002 E8.24807
G1 X105.772 Y128.006 E8.25795
G1 X105.061 Y128.005 E8.28159
G1 X103.142 Y127.977 E8.34543
G1 X102.54 Y127.96 E8.36546
G1 X99.957 Y127.962 E8.45137
G1 X98.666 Y127.99 E8.49432
G1 X98.293 Y128.001 E8.50673
G1 X97.983 Y128.006 E8.51704
G1 X97.259 Y128.005 E8.54112
G1 X96.555 Y127.995 E8.56454
G1 X95.636 Y127.942 E8.59516
G1 X94.725 Y127.809 E8.62578
G1 X93.829 Y127.598 E8.65639
G1 X92.955 Y127.31 E8.687
G1 X91.948 Y126.868 E8.72358
G1 X91.371 Y126.577 E8.74507
G1 X89.839 Y125.777 E8.80255
G1 X87.555 Y124.666 E8.88703
G1 X85.262 Y123.631 E8.97071
G1 X82.932 Y122.656 E9.05471
G1 X80.568 Y121.745 E9.13898
G1 X78.118 Y120.88 E9.22539
G1 X77.954 Y120.825 E9.23115
G1 X77.096 Y120.493 E9.26175
G1 X76.269 Y120.088 E9.29237
G1 X75.481 Y119.612 E9.32299
G1 X74.737 Y119.07 E9.35361
G1 X74.042 Y118.465 E9.38426
G1 X73.403 Y117.803 E9.41486
G1 X72.824 Y117.087 E9.44548
G1 X72.309 Y116.324 E9.4761
G1 X71.862 Y115.519 E9.50673
G1 X71.487 Y114.678 E9.53735
G1 X71.261 Y114.048 E9.55961
G1 X70.996 Y113.227 E9.58831
G1 X69.388 Y107.998 E9.77026
G1 X69.186 Y107.307 E9.79421
G1 X69.106 Y107.019 E9.80415
G1 X68.938 Y106.378 E9.82619
G1 X68.251 Y103.894 E9.91191
G1 X68.087 Y103.334 E9.93132
G1 X67.868 Y102.439 E9.96196
G1 X67.727 Y101.53 E9.99256
G1 X67.667 Y100.68 E10.0209
G1 X67.657 Y100.348 E10.03195
G1 X67.652 Y100.029 E10.04256
G1 X67.653 Y98.476 E10.09421
G1 X67.663 Y97.811 E10.11633
G1 X67.717 Y96.892 E10.14695
G1 X67.85 Y95.981 E10.17757
G1 X68.062 Y95.085 E10.2082
G1 X68.351 Y94.21 E10.23884
G1 X68.715 Y93.365 E10.26945
G1 X69.15 Y92.554 E10.30006
G1 X69.655 Y91.783 E10.33071
G1 X70.224 Y91.06 E10.36131
G1 X70.854 Y90.388 E10.39195
G1 X71.54 Y89.774 E10.42257
G0 F6000 X71.927 Y89.975
G1 F1200 X72.659 Y89.446 E10.45261
G1 X73.435 Y88.984 E10.48264
G1 X74.249 Y88.593 E10.51268
G1 X75.094 Y88.274 E10.54272
G1 X75.964 Y88.032 E10.57276
G1 X76.852 Y87.868 E10.60279
G1 X77.385 Y87.808 E10.62063
G1 X78.353 Y87.725 E10.65294
G1 X79.381 Y87.651 E10.68722
G1 X81.902 Y87.398 E10.77149
G1 X82.854 Y87.278 E10.80341
G1 X83.751 Y87.177 E10.83343
G1 X84.015 Y87.151 E10.84225
G1 X84.351 Y87.122 E10.85347
G1 X85.533 Y87.089 E10.8928
G1 X86.261 Y87.111 E10.91702
G1 X87.8 Y87.176 E10.96826
G1 X90.337 Y87.212 E11.05265
G1 X92.871 Y87.176 E11.13694
G1 X94.675 Y87.101 E11.19699
G1 X95.143 Y87.088 E11.21256
G1 X95.72 Y87.088 E11.23175
G1 X96.594 Y87.113 E11.26083
G1 X99.197 Y87.151 E11.34742
G1 X101.81 Y87.115 E11.43434
G1 X102.774 Y87.088 E11.46641
G1 X103.831 Y87.113 E11.50158
G1 X104.082 Y87.132 E11.50995
G1 X104.462 Y87.168 E11.52264
G1 X104.797 Y87.206 E11.53386
G1 X105.092 Y87.244 E11.54375
G1 X105.795 Y87.345 E11.56737
G1 X107.344 Y87.588 E11.61952
G1 X108.643 Y87.763 E11.66312
G1 X109.346 Y87.854 E11.6867
G1 X110.236 Y88.008 E11.71674
G1 X111.108 Y88.241 E11.74676
G1 X111.957 Y88.551 E11.77682
G1 X112.774 Y88.934 E11.80683
G1 X113.555 Y89.388 E11.83688
G1 X114.293 Y89.909 E11.86692
G1 X114.981 Y90.493 E11.89694
G1 X115.615 Y91.136 E11.92697
G1 X116.19 Y91.833 E11.95702
G1 X116.701 Y92.578 E11.98707
G1 X117.144 Y93.365 E12.01711
G1 X117.516 Y94.188 E12.04715
G1 X117.813 Y95.04 E12.07716
G1 X118.034 Y95.916 E12.10721
G1 X118.177 Y96.808 E12.13725
G1 X118.239 Y97.685 E12.1665
G1 X118.248 Y98.007 E12.17721
G1 X118.252 Y98.284 E12.18642
G1 X118.252 Y99.761 E12.23555
G1 X118.243 Y100.475 E12.2593
G1 X118.152 Y104.737 E12.40109
G1 X118.151 Y105.704 E12.43325
G1 X118.141 Y106.409 E12.4567
G1 X118.088 Y107.31 E12.48672
G1 X117.912 Y108.418 E12.52403
G1 X117.74 Y109.216 E12.55118
G1 X117.225 Y111.78 E12.63817
G1 X116.796 Y114.285 E12.7227
G1 X116.445 Y116.752 E12.80557
G1 X116.326 Y117.786 E12.84019
G1 X116.21 Y118.692 E12.87057
G1 X116.056 Y119.582 E12.90061
G1 X115.824 Y120.455 E12.93066
G1 X115.515 Y121.304 E12.96071
G1 X115.133 Y122.122 E12.99074
G1 X114.679 Y122.903 E13.02078
G1 X114.159 Y123.641 E13.05081
G1 X113.575 Y124.33 E13.08085
G1 X112.932 Y124.964 E13.11088
G1 X112.236 Y125.54 E13.14093
G1 X111.492 Y126.051 E13.17095
G1 X110.705 Y126.495 E13.20101
G1 X109.882 Y126.867 E13.23104
G1 X109.03 Y127.165 E13.26107
G1 X108.154 Y127.387 E13.29112
G1 X107.263 Y127.53 E13.32114
G1 X106.379 Y127.593 E13.35061
G1 X106.058 Y127.602 E13.36129
G1 X105.772 Y127.606 E13.37081
G1 X105.067 Y127.605 E13.39426
G1 X103.153 Y127.577 E13.45792
G1 X102.55 Y127.56 E13.47799
G1 X99.995 Y127.562 E13.56297
G1 X98.645 Y127.591 E13.60788
G1 X98.281 Y127.602 E13.61999
G1 X97.983 Y127.606 E13.6299
G1 X97.265 Y127.605 E13.65378
G1 X96.561 Y127.595 E13.6772
G1 X95.66 Y127.542 E13.70722
G1 X94.766 Y127.41 E13.73728
G1 X93.888 Y127.199 E13.76731
G1 X93.032 Y126.911 E13.79735
G1 X92.127 Y126.511 E13.83026
G1 X91.699 Y126.296 E13.84619
G1 X90.02 Y125.42 E13.90918
G1 X87.758 Y124.32 E13.99284
G1 X85.402 Y123.256 E14.07882
G1 X83.093 Y122.29 E14.16206
G1 X80.696 Y121.367 E14.2475
G1 X78.231 Y120.496 E14.33445
G1 X78.082 Y120.446 E14.33968
G1 X77.24 Y120.12 E14.36971
G1 X76.43 Y119.72 E14.39975
G1 X75.659 Y119.25 E14.42979
G1 X74.932 Y118.714 E14.45983
G1 X74.256 Y118.116 E14.48985
G1 X73.635 Y117.46 E14.51989
G1 X73.075 Y116.752 E14.54992
G1 X72.579 Y115.997 E14.57996
G1 X72.152 Y115.201 E14.61
G1 X71.797 Y114.371 E14.64003
G1 X71.641 Y113.925 E14.65574
G1 X71.378 Y113.109 E14.68426
G1 X69.772 Y107.886 E14.866
G1 X69.57 Y107.195 E14.88995
G1 X69.493 Y106.918 E14.89951
G1 X69.318 Y106.251 E14.92245
G1 X68.636 Y103.786 E15.00751
G1 X68.471 Y103.221 E15.02709
G1 X68.257 Y102.344 E15.05711
G1 X68.12 Y101.451 E15.08716
G1 X68.067 Y100.668 E15.11327
G1 X68.057 Y100.336 E15.12431
G1 X68.052 Y100.029 E15.13453
G1 X68.053 Y98.482 E15.18598
G1 X68.063 Y97.817 E15.2081
G1 X68.117 Y96.915 E15.23815
G1 X68.25 Y96.022 E15.26818
G1 X68.461 Y95.144 E15.29822
G1 X68.75 Y94.288 E15.32827
G1 X69.113 Y93.461 E15.35831
G1 X69.547 Y92.67 E15.38831
G1 X70.05 Y91.919 E15.41838
G1 X70.618 Y91.217 E15.44841
G1 X71.245 Y90.567 E15.47845
G1 X71.927 Y89.975 E15.50849
G1 F2700 E10.50849
;MESH:fire_truck.STL
G0 F6000 X80.852 Y111.447
G0 X97.686 Y111.801
G0 X97.687 Y113.22
G0 X105.132 Y113.576
G0 X105.432 Y116.736
G0 X105.502 Y116.806
;TYPE:WALL-INNER
G1 F2700 E15.50849
G1 F1200 X105.104 Y116.806 E15.52172
G1 X105.104 Y113.604 E15.62822
G1 X97.701 Y113.604 E15.87445
G1 X97.701 Y116.806 E15.98095
G1 X97.303 Y116.806 E15.99418
G1 X97.303 Y113.604 E16.10042
G1 X97.303 Y113.206 E16.11365
G1 X97.303 Y113.066 E16.11831
G1 X97.701 Y113.065 E16.13155
G1 X97.701 Y113.206 E16.13623
G1 X105.104 Y113.206 E16.38183
G1 X105.104 Y113.066 E16.38649
G1 X105.502 Y113.066 E16.39973
G1 X105.502 Y113.206 E16.40437
G1 X105.502 Y113.604 E16.41761
G1 X105.502 Y116.806 E16.52384
G0 F6000 X105.902 Y117.206
;TYPE:WALL-OUTER
G1 F1200 X104.704 Y117.206 E16.56369
G1 X104.704 Y114.004 E16.67019
G1 X98.101 Y114.004 E16.8898
G1 X98.101 Y117.206 E16.9963
G1 X96.903 Y117.206 E17.03615
G1 X96.903 Y112.666 E17.18715
G1 X98.101 Y112.665 E17.22699
G1 X98.101 Y112.806 E17.23168
G1 X104.704 Y112.806 E17.4513
G1 X104.704 Y112.666 E17.45596
G1 X105.902 Y112.666 E17.4958
G1 X105.902 Y117.206 E17.6468
G1 F2700 E12.6468
G0 F6000 X105.432 Y116.736
G0 X105.118 Y113.08
G0 X105.118 Y111.801
G0 X104.991 Y108.779
G0 X104.991 Y107.5
G0 X105.005 Y107.514
;TYPE:WALL-INNER
G1 F2700 E17.6468
G1 F1200 X97.801 Y107.514 E17.88641
G1 X97.8 Y107.116 E17.89965
G1 X105.005 Y107.116 E18.13869
G1 X105.005 Y107.514 E18.15192
G0 F6000 X105.405 Y107.914
;TYPE:WALL-OUTER
G1 F1200 X97.401 Y107.914 E18.41814
G1 X97.4 Y106.716 E18.45798
G1 X105.405 Y106.716 E18.72423
G1 X105.405 Y107.914 E18.76408
G1 F2700 E13.76408
G0 F6000 X104.935 Y107.444
G0 X103.075 Y107.136
G0 X103.075 Y108.779
G0 X103.075 Y100.936
G0 X103.074 Y102.551
G0 X103.075 Y102.207
;TYPE:WALL-INNER
G1 F2700 E18.76408
G1 F1200 X103.461 Y102.168 E18.77698
G1 X103.834 Y102.056 E18.78993
G1 X104.177 Y101.872 E18.80288
G1 X104.476 Y101.627 E18.81574
G1 X104.723 Y101.326 E18.82869
G1 X104.906 Y100.983 E18.84162
G1 X105.019 Y100.61 E18.85458
G1 X105.057 Y100.224 E18.86748
G1 X105.019 Y99.838 E18.88038
G1 X104.906 Y99.466 E18.89331
G1 X104.723 Y99.123 E18.90624
G1 X104.476 Y98.823 E18.91917
G1 X104.177 Y98.576 E18.93207
G1 X103.833 Y98.392 E18.94504
G1 X103.461 Y98.281 E18.95795
G1 X103.121 Y98.247 E18.96932
G1 X103.102 Y98.248 E18.96995
G1 X102.741 Y98.274 E18.98199
G1 X102.715 Y98.281 E18.98289
G1 X102.323 Y98.389 E18.99641
G1 X101.973 Y98.576 E19.00961
G1 X101.674 Y98.823 E19.02251
G1 X101.427 Y99.123 E19.03543
G1 X101.244 Y99.466 E19.04836
G1 X101.131 Y99.838 E19.06129
G1 X101.093 Y100.224 E19.07419
G1 X101.131 Y100.61 E19.08709
G1 X101.244 Y100.983 E19.10006
G1 X101.427 Y101.326 E19.11299
G1 X101.674 Y101.627 E19.12594
G1 X101.973 Y101.872 E19.13879
