;FLAVOR:Marlin
;TIME:2731
;Filament used: 0.957899m
;Layer height: 0.2
;MINX:81.152
;MINY:92.717
;MINZ:0.2
;MAXX:138.85
;MAXY:127.872
;MAXZ:25
;Generated with Cura_SteamEngine 4.8.0
M140 S60
M105
M190 S60
M104 S200
M105
M109 S200
M82 ;absolute extrusion mode
; Ender 3 Custom Start G-code
G92 E0 ; Reset Extruder
G28 ; Home all axes
G1 Z2.0 F3000 ; Move Z Axis up little to prevent scratching of Heat Bed
G1 X0.1 Y20 Z0.3 F5000.0 ; Move to start position
G1 X0.1 Y200.0 Z0.3 F1500.0 E15 ; Draw the first line
G1 X0.4 Y200.0 Z0.3 F5000.0 ; Move to side a little
G1 X0.4 Y20 Z0.3 F1500.0 E30 ; Draw the second line
G92 E0 ; Reset Extruder
G1 Z2.0 F3000 ; Move Z Axis up little to prevent scratching of Heat Bed
G1 X5 Y20 Z0.3 F5000.0 ; Move over to prevent blob squish
G92 E0
G92 E0
G1 F2700 E-5
;LAYER_COUNT:125
;LAYER:0
M107
G0 F6000 X86.7 Y96.508 Z0.2
;TYPE:SKIRT
G1 F2700 E0
G1 F1200 X87.396 Y95.879 E0.0312
G1 X88.142 Y95.311 E0.06239
G1 X88.934 Y94.809 E0.09358
G1 X89.767 Y94.377 E0.12478
G1 X90.633 Y94.017 E0.15598
G1 X91.526 Y93.731 E0.18717
G1 X92.441 Y93.524 E0.21837
G1 X93.37 Y93.394 E0.24957
G1 X94.26 Y93.345 E0.27921
G1 X95.601 Y93.326 E0.32382
G1 X95.713 Y93.318 E0.32755
G1 X97.197 Y93.297 E0.37692
G1 X99.719 Y93.19 E0.46087
G1 X102.19 Y93.015 E0.54327
G1 X104.215 Y92.813 E0.61095
G1 X104.745 Y92.767 E0.62865
G1 X105.38 Y92.73 E0.6498
G1 X105.7 Y92.721 E0.66045
G1 X106.009 Y92.717 E0.67073
G1 X114.072 Y92.717 E0.9389
G1 X114.952 Y92.729 E0.96818
G1 X115.889 Y92.784 E0.99939
G1 X116.49 Y92.861 E1.01955
G1 X117.709 Y93.054 E1.0606
G1 X118.349 Y93.163 E1.08219
G1 X120.88 Y93.52 E1.1672
G1 X123.379 Y93.801 E1.25085
G1 X125.505 Y93.985 E1.32182
G1 X126.271 Y94.042 E1.34737
G1 X126.703 Y94.082 E1.3618
G1 X127.631 Y94.219 E1.393
G1 X128.607 Y94.451 E1.42636
G1 X129.011 Y94.567 E1.44034
G1 X129.786 Y94.821 E1.46747
G1 X130.008 Y94.903 E1.47534
G1 X131.26 Y95.457 E1.52088
G1 X131.663 Y95.671 E1.53605
G1 X131.975 Y95.845 E1.54794
G1 X132.774 Y96.336 E1.57913
G1 X133.473 Y96.85 E1.60799
G1 X133.68 Y97.015 E1.61679
G1 X133.896 Y97.191 E1.62606
G1 X134.064 Y97.332 E1.63335
G1 X134.756 Y97.965 E1.66454
G1 X135.182 Y98.415 E1.68515
G1 X135.364 Y98.618 E1.69422
G1 X135.74 Y99.06 E1.71352
G1 X135.943 Y99.312 E1.72429
G1 X136.5 Y100.067 E1.75549
G1 X136.998 Y100.881 E1.78723
G1 X137.131 Y101.121 E1.79636
G1 X137.3 Y101.437 E1.80828
G1 X137.424 Y101.679 E1.81732
G1 X137.825 Y102.555 E1.84936
G1 X138.131 Y103.396 E1.87913
G1 X138.192 Y103.588 E1.88583
G1 X138.283 Y103.893 E1.89642
G1 X138.372 Y104.204 E1.90717
G1 X138.592 Y105.115 E1.93835
G1 X138.726 Y105.983 E1.96756
G1 X138.756 Y106.246 E1.97636
G1 X138.789 Y106.576 E1.98739
G1 X138.812 Y106.851 E1.99657
G1 X138.85 Y107.788 E2.02776
G1 X138.808 Y108.725 E2.05896
G1 X138.687 Y109.655 E2.09015
G1 X138.487 Y110.571 E2.12133
G1 X138.209 Y111.467 E2.15254
G1 X137.857 Y112.336 E2.18372
G1 X137.462 Y113.117 E2.21283
G1 X137.307 Y113.395 E2.22342
G1 X136.056 Y115.709 E2.31091
G1 X134.927 Y117.947 E2.39428
G1 X134.229 Y119.438 E2.44904
G1 X133.867 Y120.188 E2.47673
G1 X133.751 Y120.422 E2.48542
G1 X133.646 Y120.627 E2.49308
G1 X133.476 Y120.946 E2.5051
G1 X133.364 Y121.148 E2.51279
G1 X132.875 Y121.948 E2.54397
G1 X132.388 Y122.617 E2.57149
G1 X132.266 Y122.772 E2.57805
G1 X132.004 Y123.092 E2.59181
G1 X131.823 Y123.305 E2.60111
G1 X131.186 Y123.993 E2.63229
G1 X130.535 Y124.589 E2.66165
G1 X130.153 Y124.907 E2.67818
G1 X129.963 Y125.059 E2.68627
G1 X129.206 Y125.613 E2.71747
G1 X128.511 Y126.041 E2.74462
G1 X128.345 Y126.135 E2.75096
G1 X127.939 Y126.354 E2.76631
G1 X127.691 Y126.481 E2.77557
G1 X126.839 Y126.872 E2.80675
G1 X126.106 Y127.142 E2.83273
G1 X125.914 Y127.205 E2.83946
G1 X125.518 Y127.327 E2.85324
G1 X125.26 Y127.401 E2.86216
G1 X124.348 Y127.621 E2.89337
G1 X123.549 Y127.747 E2.92027
G1 X123.359 Y127.77 E2.92664
G1 X122.917 Y127.815 E2.94141
G1 X122.643 Y127.837 E2.95056
G1 X121.706 Y127.872 E2.98174
G1 X121.139 Y127.854 E3.00061
G1 X120.714 Y127.83 E3.01477
G1 X118.097 Y127.718 E3.10189
G1 X115.566 Y127.68 E3.18608
G1 X113.044 Y127.714 E3.26997
G1 X110.538 Y127.819 E3.35339
G1 X109.876 Y127.856 E3.37545
G1 X108.939 Y127.868 E3.40661
G1 X108.358 Y127.836 E3.42597
G1 X108.054 Y127.811 E3.43611
G1 X107.709 Y127.777 E3.44764
G1 X107.297 Y127.73 E3.46143
G1 X106.371 Y127.584 E3.49261
G1 X105.455 Y127.358 E3.52399
G1 X105.144 Y127.267 E3.53477
G1 X104.876 Y127.185 E3.54409
G1 X104.514 Y127.069 E3.55674
G1 X104.239 Y126.977 E3.56638
G1 X103.571 Y126.743 E3.58992
G1 X102.066 Y126.249 E3.64261
G1 X101.855 Y126.17 E3.6501
G1 X100.624 Y125.754 E3.69332
G1 X100.338 Y125.653 E3.70341
G1 X99.581 Y125.374 E3.73024
G1 X97.138 Y124.512 E3.8164
G1 X94.749 Y123.745 E3.89986
G1 X92.171 Y122.996 E3.98915
G1 X91.503 Y122.812 E4.01219
G1 X90.61 Y122.525 E4.04339
G1 X89.745 Y122.163 E4.07458
G1 X88.914 Y121.728 E4.10578
G1 X88.123 Y121.224 E4.13697
G1 X87.378 Y120.655 E4.16815
G1 X86.684 Y120.024 E4.19935
G1 X86.046 Y119.336 E4.23055
G1 X85.469 Y118.597 E4.26174
G1 X84.974 Y117.839 E4.29185
G1 X84.499 Y117.039 E4.32279
G1 X82.869 Y114.213 E4.4313
G1 X82.545 Y113.632 E4.45343
G1 X82.123 Y112.794 E4.48463
G1 X81.775 Y111.923 E4.51583
G1 X81.502 Y111.026 E4.54702
G1 X81.306 Y110.109 E4.5782
G1 X81.189 Y109.178 E4.60941
G1 X81.152 Y108.241 E4.6406
G1 X81.195 Y107.304 E4.6718
G1 X81.317 Y106.374 E4.703
G1 X81.519 Y105.458 E4.7342
G1 X81.797 Y104.563 E4.76537
G1 X82.151 Y103.694 E4.79658
G1 X82.544 Y102.918 E4.82551
G1 X82.976 Y102.146 E4.85493
G1 X84.609 Y99.32 E4.96349
G1 X84.968 Y98.717 E4.98683
G1 X85.482 Y97.932 E5.01804
G1 X86.061 Y97.194 E5.04924
G1 X86.7 Y96.508 E5.08042
G0 F6000 X87.017 Y96.757
G1 F1200 X87.703 Y96.144 E5.11102
G1 X88.44 Y95.592 E5.14164
G1 X89.222 Y95.106 E5.17226
G1 X90.043 Y94.69 E5.20288
G1 X90.898 Y94.346 E5.23353
G1 X91.778 Y94.078 E5.26413
G1 X92.679 Y93.888 E5.29475
G1 X93.593 Y93.776 E5.32538
G1 X94.266 Y93.745 E5.34779
G1 X95.571 Y93.726 E5.3912
G1 X95.719 Y93.718 E5.39613
G1 X97.22 Y93.697 E5.44605
G1 X99.728 Y93.59 E5.52955
G1 X102.225 Y93.413 E5.61281
G1 X104.396 Y93.198 E5.68537
G1 X104.779 Y93.165 E5.69815
G1 X105.391 Y93.13 E5.71854
G1 X105.711 Y93.121 E5.72919
G1 X106.009 Y93.117 E5.7391
G1 X114.072 Y93.117 E6.00728
G1 X114.946 Y93.129 E6.03635
G1 X115.865 Y93.183 E6.06697
G1 X116.428 Y93.257 E6.08585
G1 X117.642 Y93.448 E6.12673
G1 X118.298 Y93.559 E6.14886
G1 X120.815 Y93.915 E6.23341
G1 X123.336 Y94.199 E6.31779
G1 X125.529 Y94.388 E6.391
G1 X126.241 Y94.441 E6.41474
G1 X126.662 Y94.48 E6.4288
G1 X127.573 Y94.615 E6.45944
G1 X128.496 Y94.836 E6.491
G1 X128.9 Y94.952 E6.50498
G1 X129.648 Y95.197 E6.53116
G1 X129.87 Y95.279 E6.53903
G1 X131.076 Y95.812 E6.58289
G1 X131.468 Y96.02 E6.59765
G1 X131.78 Y96.194 E6.60953
G1 X132.564 Y96.677 E6.64016
G1 X133.224 Y97.163 E6.66742
G1 X133.431 Y97.328 E6.67622
G1 X133.806 Y97.639 E6.69243
G1 X134.485 Y98.261 E6.72305
G1 X134.884 Y98.682 E6.74234
G1 X135.066 Y98.885 E6.75141
G1 X135.429 Y99.311 E6.77003
G1 X135.632 Y99.563 E6.78079
G1 X136.178 Y100.305 E6.81143
G1 X136.649 Y101.075 E6.84145
G1 X136.782 Y101.315 E6.85058
G1 X136.944 Y101.619 E6.86204
G1 X137.068 Y101.861 E6.87108
G1 X137.455 Y102.705 E6.90196
G1 X137.749 Y103.517 E6.93068
G1 X137.81 Y103.709 E6.93739
G1 X137.899 Y104.003 E6.9476
G1 X137.988 Y104.314 E6.95836
G1 X138.203 Y105.209 E6.98898
G1 X138.329 Y106.029 E7.01657
G1 X138.359 Y106.292 E7.02537
G1 X138.39 Y106.61 E7.036
G1 X138.413 Y106.885 E7.04518
G1 X138.45 Y107.804 E7.07577
G1 X138.407 Y108.724 E7.1064
G1 X138.284 Y109.637 E7.13704
G1 X138.083 Y110.535 E7.16765
G1 X137.804 Y111.412 E7.19826
G1 X137.45 Y112.262 E7.22888
G1 X137.112 Y112.922 E7.25355
G1 X136.978 Y113.163 E7.26272
G1 X135.705 Y115.518 E7.35176
G1 X134.566 Y117.775 E7.43584
G1 X133.813 Y119.38 E7.49481
G1 X133.507 Y120.014 E7.51822
G1 X133.29 Y120.444 E7.53424
G1 X133.126 Y120.752 E7.54585
G1 X133.014 Y120.954 E7.55353
G1 X132.533 Y121.739 E7.58415
G1 X132.073 Y122.37 E7.61012
G1 X131.951 Y122.525 E7.61668
G1 X131.699 Y122.833 E7.62992
G1 X131.518 Y123.046 E7.63922
G1 X130.892 Y123.721 E7.66984
G1 X130.277 Y124.283 E7.69755
G1 X130.117 Y124.418 E7.70451
G1 X129.903 Y124.594 E7.71372
G1 X129.713 Y124.746 E7.72182
G1 X128.97 Y125.29 E7.75244
G1 X128.314 Y125.693 E7.77805
G1 X128.148 Y125.787 E7.7844
G1 X127.757 Y125.998 E7.79917
G1 X127.509 Y126.125 E7.80844
G1 X126.672 Y126.508 E7.83906
G1 X125.982 Y126.762 E7.86351
G1 X125.79 Y126.825 E7.87023
G1 X125.407 Y126.942 E7.88355
G1 X125.149 Y127.016 E7.89248
G1 X124.254 Y127.231 E7.92309
G1 X123.501 Y127.35 E7.94845
G1 X123.311 Y127.373 E7.95481
G1 X122.885 Y127.416 E7.96906
G1 X122.611 Y127.438 E7.9782
G1 X121.691 Y127.472 E8.00882
G1 X121.162 Y127.455 E8.02642
G1 X120.684 Y127.428 E8.04235
G1 X118.12 Y127.318 E8.1277
G1 X115.566 Y127.28 E8.21266
G1 X113.057 Y127.314 E8.29612
G1 X110.431 Y127.424 E8.38353
G1 X109.854 Y127.456 E8.40275
G1 X108.933 Y127.468 E8.43339
G1 X108.391 Y127.437 E8.45145
G1 X108.087 Y127.412 E8.46159
G1 X107.755 Y127.38 E8.47269
G1 X107.343 Y127.333 E8.48648
G1 X106.433 Y127.189 E8.51712
G1 X105.567 Y126.974 E8.5468
G1 X105.256 Y126.883 E8.55758
G1 X104.998 Y126.804 E8.56655
G1 X104.636 Y126.688 E8.57919
G1 X104.372 Y126.6 E8.58845
G1 X103.686 Y126.36 E8.61262
G1 X102.191 Y125.869 E8.66496
G1 X101.982 Y125.79 E8.67239
G1 X100.752 Y125.375 E8.71557
G1 X100.476 Y125.278 E8.7253
G1 X99.704 Y124.993 E8.75267
G1 X97.256 Y124.13 E8.839
G1 X94.835 Y123.352 E8.92358
G1 X92.392 Y122.643 E9.00818
G1 X91.609 Y122.427 E9.0352
G1 X90.733 Y122.144 E9.06582
G1 X89.885 Y121.786 E9.09643
G1 X89.07 Y121.356 E9.12708
G1 X88.297 Y120.857 E9.15768
G1 X87.569 Y120.293 E9.18831
G1 X86.893 Y119.668 E9.21893
G1 X86.274 Y118.986 E9.24957
G1 X85.717 Y118.254 E9.28016
G1 X85.318 Y117.634 E9.30468
G1 X84.845 Y116.839 E9.33545
G1 X83.218 Y114.018 E9.44376
G1 X82.894 Y113.437 E9.46589
G1 X82.481 Y112.614 E9.49652
G1 X82.141 Y111.758 E9.52715
G1 X81.876 Y110.877 E9.55775
G1 X81.689 Y109.975 E9.58839
G1 X81.581 Y109.061 E9.619
G1 X81.553 Y108.141 E9.64961
G1 X81.604 Y107.221 E9.68026
G1 X81.736 Y106.31 E9.71088
G1 X81.945 Y105.414 E9.74148
G1 X82.232 Y104.539 E9.77211
G1 X82.593 Y103.692 E9.80273
G1 X82.894 Y103.112 E9.82446
G1 X83.322 Y102.347 E9.85362
G1 X84.953 Y99.524 E9.96206
G1 X85.312 Y98.921 E9.9854
G1 X85.817 Y98.152 E10.016
G1 X86.387 Y97.428 E10.04664
G1 X87.017 Y96.757 E10.07726
G0 F6000 X87.333 Y97.008
G1 F1200 X88.01 Y96.41 E10.1073
G1 X88.737 Y95.874 E10.13734
G1 X89.509 Y95.404 E10.1674
G1 X90.319 Y95.005 E10.19743
G1 X91.161 Y94.679 E10.22747
G1 X92.028 Y94.428 E10.25749
G1 X92.915 Y94.256 E10.28754
G1 X93.813 Y94.162 E10.31757
G1 X94.272 Y94.145 E10.33285
G1 X95.494 Y94.127 E10.37349
G1 X95.724 Y94.118 E10.38115
G1 X97.208 Y94.097 E10.43051
G1 X99.775 Y93.988 E10.51597
G1 X102.254 Y93.812 E10.59863
G1 X104.294 Y93.609 E10.66681
G1 X104.813 Y93.564 E10.68414
G1 X105.402 Y93.53 E10.70376
G1 X105.722 Y93.521 E10.71441
G1 X106.009 Y93.517 E10.72396
G1 X114.072 Y93.517 E10.99213
G1 X114.94 Y93.529 E11.02101
G1 X115.842 Y93.583 E11.05106
G1 X116.366 Y93.652 E11.06864
G1 X117.575 Y93.843 E11.10935
G1 X118.211 Y93.951 E11.13081
G1 X120.786 Y94.315 E11.2173
G1 X123.297 Y94.597 E11.30134
G1 X125.457 Y94.784 E11.37345
G1 X126.212 Y94.84 E11.39863
G1 X126.621 Y94.878 E11.4123
G1 X127.514 Y95.011 E11.44232
G1 X128.386 Y95.22 E11.47215
G1 X128.79 Y95.336 E11.48613
G1 X129.509 Y95.572 E11.5113
G1 X129.731 Y95.654 E11.51917
G1 X130.892 Y96.167 E11.56139
G1 X131.273 Y96.37 E11.57575
G1 X131.585 Y96.544 E11.58763
G1 X132.354 Y97.018 E11.61767
G1 X132.975 Y97.476 E11.64334
G1 X133.182 Y97.641 E11.65214
G1 X133.381 Y97.804 E11.6607
G1 X133.549 Y97.945 E11.66799
G1 X134.215 Y98.556 E11.69805
G1 X134.587 Y98.949 E11.71605
G1 X134.769 Y99.152 E11.72512
G1 X135.117 Y99.562 E11.74301
G1 X135.32 Y99.814 E11.75377
G1 X135.855 Y100.542 E11.78382
G1 X136.299 Y101.269 E11.81215
G1 X136.432 Y101.509 E11.82128
G1 X136.588 Y101.802 E11.83232
G1 X136.712 Y102.044 E11.84136
G1 X137.084 Y102.856 E11.87107
G1 X137.368 Y103.639 E11.89877
G1 X137.429 Y103.831 E11.90547
G1 X137.514 Y104.113 E11.91527
G1 X137.603 Y104.424 E11.92603
G1 X137.813 Y105.302 E11.95605
G1 X137.931 Y106.074 E11.98203
G1 X137.961 Y106.337 E11.99083
G1 X137.992 Y106.643 E12.00106
G1 X138.015 Y106.918 E12.01024
G1 X138.05 Y107.82 E12.04026
G1 X138.005 Y108.722 E12.0703
G1 X137.881 Y109.617 E12.10035
G1 X137.678 Y110.497 E12.13039
G1 X137.398 Y111.355 E12.16041
G1 X137.044 Y112.186 E12.19045
G1 X136.763 Y112.728 E12.21076
G1 X136.604 Y113.014 E12.22164
G1 X135.354 Y115.327 E12.30909
G1 X134.191 Y117.632 E12.39496
G1 X133.453 Y119.207 E12.45281
G1 X133.147 Y119.841 E12.47622
G1 X132.934 Y120.262 E12.49191
G1 X132.777 Y120.558 E12.50306
G1 X132.665 Y120.76 E12.51074
G1 X132.192 Y121.53 E12.5408
G1 X131.759 Y122.123 E12.56522
G1 X131.637 Y122.278 E12.57178
G1 X131.395 Y122.574 E12.5845
G1 X131.214 Y122.787 E12.59379
G1 X130.599 Y123.449 E12.62385
G1 X130.019 Y123.978 E12.64996
G1 X129.859 Y124.113 E12.65692
G1 X129.653 Y124.282 E12.66578
G1 X129.463 Y124.434 E12.67387
G1 X128.733 Y124.966 E12.70392
G1 X128.117 Y125.345 E12.72797
G1 X127.951 Y125.439 E12.73432
G1 X127.574 Y125.642 E12.74856
G1 X127.326 Y125.769 E12.75783
G1 X126.505 Y126.144 E12.78785
G1 X125.857 Y126.382 E12.81081
G1 X125.665 Y126.445 E12.81753
G1 X125.297 Y126.558 E12.83033
G1 X125.039 Y126.632 E12.83926
G1 X124.161 Y126.842 E12.86928
G1 X123.453 Y126.953 E12.89312
G1 X123.263 Y126.976 E12.89949
G1 X122.853 Y127.017 E12.91319
G1 X122.579 Y127.039 E12.92233
G1 X121.677 Y127.072 E12.95235
G1 X121.184 Y127.056 E12.96876
G1 X120.719 Y127.03 E12.98425
G1 X118.109 Y126.918 E13.07114
G1 X115.567 Y126.88 E13.1557
G1 X113.034 Y126.914 E13.23995
G1 X110.46 Y127.022 E13.32564
G1 X109.831 Y127.057 E13.34659
G1 X108.928 Y127.068 E13.37663
G1 X108.424 Y127.039 E13.39342
G1 X108.12 Y127.014 E13.40356
G1 X107.8 Y126.982 E13.41426
G1 X107.388 Y126.935 E13.42805
G1 X106.496 Y126.793 E13.45809
G1 X105.68 Y126.591 E13.48605
G1 X105.369 Y126.5 E13.49683
G1 X105.12 Y126.423 E13.5055
G1 X104.758 Y126.307 E13.51814
G1 X104.504 Y126.222 E13.52705
G1 X103.832 Y125.987 E13.55073
G1 X102.316 Y125.489 E13.6038
G1 X102.113 Y125.412 E13.61102
G1 X100.88 Y124.996 E13.6543
G1 X100.615 Y124.903 E13.66364
G1 X99.85 Y124.621 E13.69076
G1 X97.364 Y123.744 E13.77844
G1 X94.974 Y122.976 E13.86194
G1 X92.462 Y122.247 E13.94893
G1 X91.715 Y122.041 E13.97471
G1 X90.856 Y121.763 E14.00474
G1 X90.025 Y121.41 E14.03476
G1 X89.228 Y120.985 E14.06481
G1 X88.472 Y120.491 E14.09484
G1 X87.762 Y119.932 E14.1249
G1 X87.105 Y119.313 E14.15492
G1 X86.505 Y118.638 E14.18496
G1 X85.968 Y117.912 E14.21499
G1 X85.662 Y117.43 E14.23398
G1 X85.191 Y116.639 E14.2646
G1 X83.641 Y113.953 E14.36775
G1 X83.244 Y113.242 E14.39483
G1 X82.839 Y112.434 E14.42489
G1 X82.508 Y111.594 E14.45492
G1 X82.252 Y110.728 E14.48496
G1 X82.073 Y109.843 E14.51499
G1 X81.974 Y108.945 E14.54504
G1 X81.955 Y108.042 E14.57508
G1 X82.015 Y107.141 E14.60511
G1 X82.155 Y106.249 E14.63514
G1 X82.373 Y105.373 E14.66517
G1 X82.668 Y104.519 E14.69522
G1 X83.243 Y103.307 E14.73984
G1 X83.668 Y102.547 E14.7688
G1 X85.297 Y99.729 E14.87706
G1 X85.656 Y99.126 E14.9004
G1 X86.152 Y98.371 E14.93045
G1 X86.712 Y97.663 E14.96047
G1 X87.333 Y97.008 E14.99049
G1 F2700 E9.99049
;MESH:harvester.STL
G0 F6000 X91.378 Y108.274
G0 X94.034 Y112.874
G0 X103.5 Y116
G0 X105.606 Y116
G0 X105.622 Y115.531
G0 X106.593 Y115.009
G0 X109.538 Y115.877
;TYPE:WALL-INNER
G1 F2700 E14.99049
G1 F1200 X110.048 Y115.773 E15.0078
G1 X110.528 Y115.573 E15.0251
