;FLAVOR:Marlin
;TIME:6663
;Filament used: 3.4507m
;Layer height: 0.2
;MINX:78.097
;MINY:74.494
;MINZ:0.2
;MAXX:135.882
;MAXY:146.166
;MAXZ:22
;Generated with Cura_SteamEngine 4.8.0
M140 S60
M105
M190 S60
M104 S200
M105
M109 S200
M82 ;absolute extrusion mode
; Ender 3 Custom Start G-code
G92 E0 ; Reset Extruder
G28 ; Home all axes
G1 Z2.0 F3000 ; Move Z Axis up little to prevent scratching of Heat Bed
G1 X0.1 Y20 Z0.3 F5000.0 ; Move to start position
G1 X0.1 Y200.0 Z0.3 F1500.0 E15 ; Draw the first line
G1 X0.4 Y200.0 Z0.3 F5000.0 ; Move to side a little
G1 X0.4 Y20 Z0.3 F1500.0 E30 ; Draw the second line
G92 E0 ; Reset Extruder
G1 Z2.0 F3000 ; Move Z Axis up little to prevent scratching of Heat Bed
G1 X5 Y20 Z0.3 F5000.0 ; Move over to prevent blob squish
G92 E0
G92 E0
G1 F2700 E-5
;LAYER_COUNT:110
;LAYER:0
M107
G0 F6000 X82.003 Y91.668 Z0.2
;TYPE:SKIRT
G1 F2700 E0
G1 F1200 X82.743 Y91.093 E0.03117
G1 X83.53 Y90.582 E0.06238
G1 X84.357 Y90.141 E0.09355
G1 X85.219 Y89.771 E0.12475
G1 X86.284 Y89.428 E0.16196
G1 X86.494 Y89.372 E0.16919
G1 X88.963 Y88.689 E0.2544
G1 X91.392 Y87.942 E0.33892
G1 X93.737 Y87.149 E0.42125
G1 X96.152 Y86.254 E0.50692
G1 X98.454 Y85.327 E0.58946
G1 X100.766 Y84.318 E0.67336
G1 X103.041 Y83.248 E0.75698
G1 X105.291 Y82.111 E0.84082
G1 X107.505 Y80.913 E0.92455
G1 X109.667 Y79.663 E1.00761
G1 X111.831 Y78.328 E1.09218
G1 X113.983 Y76.915 E1.17781
G1 X114.767 Y76.386 E1.20926
G1 X115.566 Y75.895 E1.24046
G1 X116.404 Y75.474 E1.27165
G1 X117.275 Y75.126 E1.30284
G1 X118.258 Y74.831 E1.33698
G1 X119.177 Y74.643 E1.36818
G1 X120.108 Y74.533 E1.39936
G1 X120.615 Y74.507 E1.41624
G1 X120.933 Y74.498 E1.42682
G1 X121.244 Y74.494 E1.43717
G1 X122.812 Y74.494 E1.48932
G1 X123.668 Y74.505 E1.51779
G1 X124.604 Y74.559 E1.54898
G1 X125.532 Y74.691 E1.58015
G1 X126.446 Y74.903 E1.61136
G1 X127.338 Y75.192 E1.64255
G1 X128.203 Y75.555 E1.67375
G1 X129.033 Y75.991 E1.70493
G1 X129.824 Y76.496 E1.73614
G1 X130.568 Y77.067 E1.76734
G1 X131.261 Y77.699 E1.79853
G1 X131.898 Y78.387 E1.82972
G1 X132.473 Y79.128 E1.86091
G1 X132.984 Y79.914 E1.89209
G1 X133.426 Y80.742 E1.92331
G1 X133.795 Y81.604 E1.9545
G1 X134.09 Y82.494 E1.98568
G1 X134.308 Y83.406 E2.01687
G1 X134.448 Y84.334 E2.04809
G1 X134.506 Y85.195 E2.07679
G1 X134.515 Y85.515 E2.08743
G1 X134.519 Y85.824 E2.09771
G1 X134.519 Y91.266 E2.27871
G1 X134.556 Y93.874 E2.36547
G1 X134.663 Y96.395 E2.44939
G1 X134.84 Y98.89 E2.53258
G1 X135.088 Y101.39 E2.61614
G1 X135.411 Y103.916 E2.70084
G1 X135.577 Y104.998 E2.73725
G1 X135.671 Y105.675 E2.75998
G1 X135.706 Y105.946 E2.76907
G1 X135.762 Y106.439 E2.78557
G1 X135.793 Y106.758 E2.79623
G1 X135.843 Y107.352 E2.81606
G1 X135.882 Y108.289 E2.84725
G1 X135.843 Y109.205 E2.87774
G1 X135.563 Y112.509 E2.98803
G1 X135.423 Y114.969 E3.06998
G1 X135.351 Y117.526 E3.15506
G1 X135.351 Y120.015 E3.23785
G1 X135.423 Y122.546 E3.32206
G1 X135.564 Y125.061 E3.40584
G1 X135.843 Y128.345 E3.51546
G1 X135.882 Y129.282 E3.54665
G1 X135.844 Y130.193 E3.57698
G1 X135.796 Y130.766 E3.59611
G1 X135.765 Y131.082 E3.60667
G1 X135.701 Y131.649 E3.62564
G1 X135.556 Y132.575 E3.65682
G1 X135.435 Y133.109 E3.67503
G1 X135.321 Y133.535 E3.6897
G1 X135.188 Y133.995 E3.70562
G1 X135.105 Y134.269 E3.71515
G1 X134.918 Y134.858 E3.7357
G1 X134.597 Y135.739 E3.76689
G1 X134.204 Y136.583 E3.79785
G1 X133.949 Y137.076 E3.81631
G1 X133.808 Y137.339 E3.82624
G1 X133.517 Y137.866 E3.84626
G1 X133.03 Y138.667 E3.87744
G1 X132.638 Y139.215 E3.89985
G1 X132.43 Y139.484 E3.91116
G1 X132.154 Y139.829 E3.92585
G1 X131.982 Y140.038 E3.93486
G1 X131.569 Y140.529 E3.9562
G1 X130.935 Y141.22 E3.98739
G1 X130.234 Y141.864 E4.01905
G1 X129.83 Y142.204 E4.03661
G1 X129.599 Y142.393 E4.04654
G1 X129.113 Y142.78 E4.0672
G1 X128.355 Y143.332 E4.09839
G1 X127.61 Y143.787 E4.12742
G1 X127.159 Y144.038 E4.14459
G1 X126.866 Y144.195 E4.15565
G1 X126.298 Y144.489 E4.17692
G1 X125.448 Y144.884 E4.20809
G1 X124.55 Y145.211 E4.23988
G1 X124.014 Y145.38 E4.25857
G1 X123.75 Y145.459 E4.26774
G1 X123.184 Y145.622 E4.28733
G1 X122.273 Y145.843 E4.31851
G1 X121.402 Y145.979 E4.34783
G1 X120.848 Y146.043 E4.36638
G1 X120.507 Y146.077 E4.37777
G1 X119.912 Y146.127 E4.39763
G1 X118.975 Y146.166 E4.42882
G1 X118.07 Y146.127 E4.45895
G1 X117.499 Y146.079 E4.47801
G1 X117.178 Y146.048 E4.48874
G1 X116.606 Y145.983 E4.50789
G1 X115.688 Y145.839 E4.53879
G1 X115.134 Y145.728 E4.55758
G1 X112.559 Y145.249 E4.6447
G1 X110.065 Y144.858 E4.72866
G1 X107.53 Y144.533 E4.81367
G1 X106.294 Y144.402 E4.85501
G1 X105.737 Y144.347 E4.87362
G1 X104.813 Y144.216 E4.90466
G1 X104.217 Y144.104 E4.92483
G1 X102.454 Y143.75 E4.98464
G1 X99.952 Y143.321 E5.06907
G1 X97.462 Y142.967 E5.15272
G1 X94.996 Y142.686 E5.23527
G1 X92.439 Y142.469 E5.32062
G1 X89.883 Y142.324 E5.40577
G1 X88.647 Y142.271 E5.44692
G1 X87.712 Y142.191 E5.47813
G1 X86.788 Y142.032 E5.50932
G1 X85.881 Y141.794 E5.5405
G1 X84.997 Y141.48 E5.57171
G1 X84.143 Y141.092 E5.6029
G1 X83.325 Y140.633 E5.6341
G1 X82.55 Y140.105 E5.66529
G1 X81.822 Y139.514 E5.69648
G1 X81.147 Y138.863 E5.72767
G1 X80.53 Y138.156 E5.75888
G1 X79.976 Y137.4 E5.79005
G1 X79.488 Y136.599 E5.82125
G1 X79.07 Y135.759 E5.85246
G1 X78.725 Y134.887 E5.88365
G1 X78.455 Y133.989 E5.91484
G1 X78.264 Y133.071 E5.94602
G1 X78.151 Y132.14 E5.97721
G1 X78.121 Y131.579 E5.9959
G1 X78.112 Y131.247 E6.00695
G1 X78.108 Y130.949 E6.01686
G1 X78.109 Y108.718 E6.75627
G1 X78.112 Y108.482 E6.76412
G1 X78.097 Y106.32 E6.83603
G1 X78.113 Y105.866 E6.85113
G1 X78.108 Y105.16 E6.87462
G1 X78.109 Y100.588 E7.02668
G1 X78.119 Y99.898 E7.04963
G1 X78.173 Y98.961 E7.08085
G1 X78.306 Y98.033 E7.11203
G1 X78.518 Y97.119 E7.14324
G1 X78.806 Y96.227 E7.17441
G1 X79.17 Y95.362 E7.20563
G1 X79.606 Y94.532 E7.23681
G1 X80.111 Y93.742 E7.268
G1 X80.682 Y92.998 E7.29919
G1 X81.314 Y92.305 E7.33038
G1 X82.003 Y91.668 E7.36159
G0 F6000 X82.391 Y91.865
G1 F1200 X83.127 Y91.312 E7.39221
G1 X83.909 Y90.825 E7.42285
G1 X84.73 Y90.408 E7.45348
G1 X85.583 Y90.064 E7.48407
G1 X86.387 Y89.815 E7.51207
G1 X89.081 Y89.072 E7.60501
G1 X91.5 Y88.328 E7.68919
G1 X93.899 Y87.516 E7.77343
G1 X96.261 Y86.642 E7.85719
G1 X98.597 Y85.701 E7.94096
G1 X100.947 Y84.674 E8.02626
G1 X103.227 Y83.602 E8.11005
G1 X105.441 Y82.484 E8.19255
G1 X107.716 Y81.252 E8.2786
G1 X109.871 Y80.006 E8.36139
G1 X112.038 Y78.669 E8.44608
G1 X114.185 Y77.26 E8.53149
G1 X114.99 Y76.717 E8.56379
G1 X115.775 Y76.236 E8.59441
G1 X116.599 Y75.825 E8.62504
G1 X117.455 Y75.487 E8.65565
G1 X118.355 Y75.219 E8.68688
G1 X119.257 Y75.035 E8.7175
G1 X120.626 Y74.907 E8.76323
G1 X120.944 Y74.898 E8.77381
G1 X121.244 Y74.894 E8.78379
G1 X122.812 Y74.894 E8.83594
G1 X123.662 Y74.905 E8.86422
G1 X124.581 Y74.958 E8.89483
G1 X125.492 Y75.091 E8.92545
G1 X126.388 Y75.302 E8.95607
G1 X127.262 Y75.59 E8.98668
G1 X128.109 Y75.953 E9.01733
G1 X128.92 Y76.388 E9.04793
G1 X129.69 Y76.892 E9.07854
G1 X130.414 Y77.461 E9.10917
G1 X131.086 Y78.091 E9.13981
G1 X131.701 Y78.776 E9.17043
G1 X132.254 Y79.512 E9.20105
G1 X132.741 Y80.293 E9.23166
G1 X133.158 Y81.114 E9.26228
G1 X133.503 Y81.968 E9.29292
G1 X133.772 Y82.848 E9.32352
G1 X133.964 Y83.749 E9.35417
G1 X134.077 Y84.662 E9.38476
G1 X134.106 Y85.206 E9.40288
G1 X134.115 Y85.526 E9.41353
G1 X134.119 Y85.824 E9.42344
G1 X134.119 Y91.272 E9.60464
G1 X134.156 Y93.897 E9.69196
G1 X134.263 Y96.405 E9.77545
G1 X134.441 Y98.925 E9.85948
G1 X134.69 Y101.44 E9.94354
G1 X135.012 Y103.955 E10.02787
G1 X135.181 Y105.053 E10.06482
G1 X135.275 Y105.73 E10.08755
G1 X135.308 Y105.992 E10.09633
G1 X135.364 Y106.485 E10.11284
G1 X135.395 Y106.792 E10.1231
G1 X135.445 Y107.386 E10.14292
G1 X135.482 Y108.306 E10.17355
G1 X135.444 Y109.171 E10.20235
G1 X135.166 Y112.453 E10.3119
G1 X135.023 Y114.969 E10.39571
G1 X134.951 Y117.515 E10.48043
G1 X134.951 Y120.026 E10.56395
G1 X135.023 Y122.581 E10.64896
G1 X135.164 Y125.082 E10.73227
G1 X135.444 Y128.379 E10.84233
G1 X135.482 Y129.299 E10.87295
G1 X135.445 Y130.16 E10.90162
G1 X135.397 Y130.733 E10.92074
G1 X135.367 Y131.037 E10.9309
G1 X135.303 Y131.604 E10.94988
G1 X135.063 Y132.949 E10.99532
G1 X134.937 Y133.424 E11.01167
G1 X134.804 Y133.884 E11.02759
G1 X134.724 Y134.148 E11.03677
G1 X134.537 Y134.737 E11.05732
G1 X134.221 Y135.601 E11.08792
G1 X133.849 Y136.399 E11.1172
G1 X133.594 Y136.892 E11.13566
G1 X133.458 Y137.146 E11.14525
G1 X133.167 Y137.673 E11.16527
G1 X132.688 Y138.459 E11.19588
G1 X132.32 Y138.973 E11.21691
G1 X132.117 Y139.234 E11.22791
G1 X131.841 Y139.579 E11.2426
G1 X131.676 Y139.78 E11.25125
G1 X131.263 Y140.271 E11.27259
G1 X130.64 Y140.949 E11.30322
G1 X129.976 Y141.558 E11.33318
G1 X129.572 Y141.898 E11.35075
G1 X129.35 Y142.08 E11.36029
G1 X128.864 Y142.467 E11.38096
G1 X128.12 Y143.009 E11.41157
G1 X127.416 Y143.437 E11.43898
G1 X126.965 Y143.688 E11.45614
G1 X126.683 Y143.84 E11.4668
G1 X126.115 Y144.134 E11.48807
G1 X125.279 Y144.521 E11.51871
G1 X124.429 Y144.829 E11.54878
G1 X123.893 Y144.998 E11.56747
G1 X123.639 Y145.075 E11.5763
G1 X123.073 Y145.238 E11.59589
G1 X122.179 Y145.454 E11.62648
G1 X121.356 Y145.582 E11.65418
G1 X120.802 Y145.646 E11.67273
G1 X120.474 Y145.679 E11.6837
G1 X119.879 Y145.729 E11.70356
G1 X118.959 Y145.766 E11.73418
G1 X118.103 Y145.729 E11.76268
G1 X117.532 Y145.681 E11.78174
G1 X117.223 Y145.65 E11.79206
G1 X116.651 Y145.585 E11.81121
G1 X115.766 Y145.447 E11.841
G1 X115.122 Y145.318 E11.86285
G1 X112.664 Y144.861 E11.946
G1 X110.111 Y144.46 E12.03196
G1 X107.619 Y144.141 E12.11552
G1 X106.28 Y143.999 E12.1603
G1 X105.776 Y143.949 E12.17715
G1 X104.886 Y143.822 E12.20705
G1 X104.296 Y143.712 E12.22701
G1 X102.529 Y143.358 E12.28695
G1 X100.01 Y142.926 E12.37195
G1 X97.527 Y142.572 E12.45537
G1 X95.004 Y142.285 E12.53983
G1 X92.495 Y142.072 E12.62358
G1 X89.853 Y141.922 E12.71159
G1 X88.664 Y141.871 E12.75118
G1 X87.746 Y141.792 E12.78182
G1 X86.84 Y141.633 E12.81242
G1 X85.95 Y141.397 E12.84304
G1 X85.084 Y141.084 E12.87367
G1 X84.249 Y140.697 E12.90428
G1 X83.45 Y140.239 E12.93491
G1 X82.694 Y139.713 E12.96554
G1 X81.987 Y139.124 E12.99615
G1 X81.333 Y138.476 E13.02677
G1 X80.738 Y137.773 E13.0574
G1 X80.206 Y137.022 E13.08801
G1 X79.742 Y136.227 E13.11863
G1 X79.348 Y135.395 E13.14925
G1 X79.028 Y134.532 E13.17986
G1 X78.784 Y133.644 E13.21049
G1 X78.618 Y132.738 E13.24113
G1 X78.521 Y131.568 E13.28017
G1 X78.512 Y131.236 E13.29122
G1 X78.508 Y130.949 E13.30077
G1 X78.509 Y108.723 E14.04001
G1 X78.512 Y108.485 E14.04792
G1 X78.497 Y106.317 E14.12003
G1 X78.514 Y105.87 E14.13491
G1 X78.508 Y105.157 E14.15863
G1 X78.509 Y100.593 E14.31042
G1 X78.519 Y99.903 E14.33338
G1 X78.572 Y98.984 E14.36399
G1 X78.705 Y98.073 E14.39461
G1 X78.917 Y97.177 E14.42524
G1 X79.205 Y96.303 E14.45585
G1 X79.568 Y95.457 E14.48646
G1 X80.003 Y94.646 E14.51707
G1 X80.507 Y93.875 E14.54771
G1 X81.076 Y93.151 E14.57834
G1 X81.706 Y92.479 E14.60897
G1 X82.391 Y91.865 E14.63957
G0 F6000 X82.779 Y92.066
G1 F1200 X83.511 Y91.537 E14.66961
G1 X84.286 Y91.074 E14.69964
G1 X85.1 Y90.682 E14.72968
G1 X85.945 Y90.363 E14.75973
G1 X86.49 Y90.201 E14.77864
G1 X86.683 Y90.15 E14.78528
G1 X89.201 Y89.453 E14.87217
G1 X91.631 Y88.706 E14.95673
G1 X94.029 Y87.894 E15.04094
G1 X96.413 Y87.012 E15.12548
G1 X98.758 Y86.067 E15.20957
G1 X101.098 Y85.045 E15.2945
G1 X103.399 Y83.963 E15.37907
G1 X105.647 Y82.828 E15.46283
G1 X107.885 Y81.616 E15.54748
G1 X110.101 Y80.335 E15.63261
G1 X112.237 Y79.017 E15.71609
G1 X114.444 Y77.568 E15.8039
G1 X115.214 Y77.049 E15.83479
G1 X115.984 Y76.578 E15.86481
G1 X116.793 Y76.176 E15.89485
G1 X117.635 Y75.848 E15.92491
G1 X118.452 Y75.608 E15.95323
G1 X119.337 Y75.428 E15.98327
G1 X120.637 Y75.307 E16.02669
G1 X120.955 Y75.298 E16.03728
G1 X121.244 Y75.294 E16.04689
G1 X122.812 Y75.294 E16.09904
G1 X123.656 Y75.305 E16.12711
G1 X124.558 Y75.358 E16.15717
G1 X125.451 Y75.49 E16.18719
G1 X126.329 Y75.701 E16.21722
G1 X127.185 Y75.989 E16.24726
G1 X128.012 Y76.351 E16.27729
G1 X128.804 Y76.786 E16.30734
G1 X129.555 Y77.288 E16.33739
G1 X130.258 Y77.855 E16.36743
G1 X130.908 Y78.482 E16.39747
G1 X131.5 Y79.164 E16.4275
G1 X132.03 Y79.895 E16.45753
G1 X132.492 Y80.671 E16.48757
G1 X132.885 Y81.484 E16.51761
G1 X133.203 Y82.329 E16.54763
G1 X133.446 Y83.199 E16.57768
G1 X133.611 Y84.087 E16.60772
G1 X133.706 Y85.217 E16.64544
G1 X133.715 Y85.537 E16.65608
G1 X133.719 Y85.824 E16.66563
G1 X133.719 Y91.278 E16.84703
G1 X133.756 Y93.884 E16.93371
G1 X133.865 Y96.449 E17.0191
G1 X134.043 Y98.956 E17.1027
G1 X134.294 Y101.497 E17.18762
G1 X134.613 Y103.989 E17.27118
G1 X134.762 Y104.949 E17.3035
G1 X134.879 Y105.785 E17.33157
G1 X134.911 Y106.037 E17.34002
G1 X134.967 Y106.53 E17.35652
G1 X134.996 Y106.825 E17.36638
G1 X135.046 Y107.419 E17.38621
G1 X135.082 Y108.322 E17.41627
G1 X135.045 Y109.137 E17.4434
G1 X134.769 Y112.395 E17.55215
G1 X134.623 Y114.971 E17.63797
G1 X134.551 Y117.504 E17.72225
G1 X134.551 Y120.037 E17.8065
G1 X134.623 Y122.578 E17.89104
G1 X134.767 Y125.139 E17.97636
G1 X135.045 Y128.413 E18.08564
G1 X135.082 Y129.315 E18.11567
G1 X135.046 Y130.126 E18.14267
G1 X134.998 Y130.699 E18.16179
G1 X134.97 Y130.992 E18.17158
G1 X134.906 Y131.559 E18.19056
G1 X134.674 Y132.853 E18.23429
G1 X134.553 Y133.313 E18.25011
G1 X134.42 Y133.773 E18.26603
G1 X134.343 Y134.027 E18.27486
G1 X134.156 Y134.616 E18.29542
G1 X133.845 Y135.463 E18.32543
G1 X133.494 Y136.215 E18.35303
G1 X133.239 Y136.708 E18.37149
G1 X133.108 Y136.953 E18.38073
G1 X132.817 Y137.48 E18.40075
G1 X132.346 Y138.25 E18.43077
G1 X132.001 Y138.731 E18.45046
G1 X131.805 Y138.984 E18.46111
G1 X131.529 Y139.329 E18.4758
G1 X131.37 Y139.523 E18.48414
G1 X130.957 Y140.014 E18.50548
G1 X130.345 Y140.678 E18.53552
G1 X129.719 Y141.252 E18.56377
G1 X129.315 Y141.592 E18.58133
G1 X129.101 Y141.767 E18.59052
G1 X128.615 Y142.154 E18.61119
G1 X127.884 Y142.685 E18.64124
G1 X127.221 Y143.088 E18.66704
G1 X126.77 Y143.339 E18.68421
G1 X126.499 Y143.484 E18.69443
G1 X125.931 Y143.778 E18.7157
G1 X125.111 Y144.158 E18.74576
G1 X124.309 Y144.448 E18.77413
G1 X123.773 Y144.617 E18.79282
G1 X123.529 Y144.691 E18.8013
G1 X122.963 Y144.854 E18.82089
G1 X122.085 Y145.065 E18.85093
G1 X121.311 Y145.185 E18.87698
G1 X120.757 Y145.249 E18.89553
G1 X120.44 Y145.28 E18.90612
G1 X119.845 Y145.33 E18.92598
G1 X118.943 Y145.366 E18.956
G1 X118.137 Y145.33 E18.98284
G1 X117.566 Y145.282 E19.0019
G1 X117.268 Y145.253 E19.01186
G1 X116.696 Y145.188 E19.031
G1 X115.845 Y145.054 E19.05966
G1 X115.281 Y144.941 E19.07879
G1 X112.693 Y144.46 E19.16634
G1 X110.187 Y144.066 E19.25071
G1 X107.668 Y143.744 E19.33518
G1 X106.348 Y143.604 E19.37933
G1 X105.816 Y143.551 E19.39711
G1 X104.959 Y143.429 E19.4259
G1 X104.375 Y143.32 E19.44566
G1 X102.576 Y142.959 E19.50669
G1 X100.092 Y142.533 E19.59051
G1 X97.562 Y142.173 E19.67551
G1 X95.081 Y141.89 E19.75856
G1 X92.518 Y141.673 E19.84411
G1 X89.89 Y141.524 E19.93166
G1 X88.681 Y141.472 E19.97191
G1 X87.781 Y141.393 E20.00196
G1 X86.892 Y141.235 E20.03199
G1 X86.02 Y141 E20.06203
G1 X85.173 Y140.687 E20.09206
G1 X84.356 Y140.302 E20.1221
G1 X83.577 Y139.845 E20.15214
G1 X82.841 Y139.322 E20.18217
G1 X82.154 Y138.735 E20.21222
G1 X81.522 Y138.09 E20.24226
G1 X80.95 Y137.391 E20.2723
G1 X80.441 Y136.645 E20.30234
G1 X80.001 Y135.857 E20.33235
G1 X79.632 Y135.032 E20.36241
G1 X79.337 Y134.179 E20.39243
G1 X79.119 Y133.302 E20.42249
G1 X78.98 Y132.41 E20.45252
G1 X78.921 Y131.557 E20.48095
G1 X78.912 Y131.225 E20.492
G1 X78.908 Y130.949 E20.50118
G1 X78.909 Y108.729 E21.24022
G1 X78.912 Y108.488 E21.24824
