;FLAVOR:Marlin
;TIME:2162
;Filament used: 1.08645m
;Layer height: 0.2
;MINX:62.499
;MINY:90.269
;MINZ:0.2
;MAXX:157.501
;MAXY:129.731
;MAXZ:12.6
;Generated with Cura_SteamEngine 4.8.0
M140 S60
M105
M190 S60
M104 S200
M105
M109 S200
M82 ;absolute extrusion mode
; Ender 3 Custom Start G-code
G92 E0 ; Reset Extruder
G28 ; Home all axes
G1 Z2.0 F3000 ; Move Z Axis up little to prevent scratching of Heat Bed
G1 X0.1 Y20 Z0.3 F5000.0 ; Move to start position
G1 X0.1 Y200.0 Z0.3 F1500.0 E15 ; Draw the first line
G1 X0.4 Y200.0 Z0.3 F5000.0 ; Move to side a little
G1 X0.4 Y20 Z0.3 F1500.0 E30 ; Draw the second line
G92 E0 ; Reset Extruder
G1 Z2.0 F3000 ; Move Z Axis up little to prevent scratching of Heat Bed
G1 X5 Y20 Z0.3 F5000.0 ; Move over to prevent blob squish
G92 E0
G92 E0
G1 F2700 E-5
;LAYER_COUNT:63
;LAYER:0
M107
G0 F6000 X70.138 Y94.432 Z0.2
;TYPE:SKIRT
G1 F2700 E0
G1 F1200 X70.857 Y93.911 E0.02953
G1 X71.142 Y93.711 E0.04111
G1 X71.669 Y93.354 E0.06228
G1 X72.467 Y92.861 E0.09348
G1 X73.033 Y92.566 E0.11471
G1 X73.832 Y92.178 E0.14425
G1 X74.129 Y92.039 E0.15516
G1 X74.701 Y91.782 E0.17602
G1 X75.572 Y91.435 E0.2072
G1 X76.182 Y91.241 E0.22849
G1 X76.982 Y91.012 E0.25617
G1 X77.311 Y90.923 E0.2675
G1 X77.983 Y90.753 E0.29056
G1 X78.901 Y90.562 E0.32174
G1 X79.545 Y90.476 E0.34335
G1 X80.412 Y90.386 E0.37235
G1 X80.763 Y90.355 E0.38407
G1 X81.406 Y90.309 E0.40551
G1 X82.017 Y90.282 E0.42585
G1 X82.774 Y90.27 E0.45103
G1 X137.074 Y90.269 E2.25706
G1 X137.913 Y90.28 E2.28496
G1 X138.545 Y90.308 E2.306
G1 X139.388 Y90.369 E2.33412
G1 X139.69 Y90.395 E2.3442
G1 X140.369 Y90.463 E2.36689
G1 X141.298 Y90.596 E2.39811
G1 X141.961 Y90.742 E2.42069
G1 X142.814 Y90.957 E2.44995
G1 X143.111 Y91.036 E2.46017
G1 X143.721 Y91.208 E2.48125
G1 X144.612 Y91.501 E2.51244
G1 X145.225 Y91.752 E2.53447
G1 X145.979 Y92.089 E2.56194
G1 X146.272 Y92.226 E2.5727
G1 X146.879 Y92.519 E2.59512
G1 X147.303 Y92.735 E2.61095
G1 X148.295 Y93.333 E2.64947
G1 X149.02 Y93.824 E2.67859
G1 X149.272 Y94 E2.68882
G1 X149.784 Y94.368 E2.70979
G1 X150.522 Y94.947 E2.74099
G1 X151.027 Y95.409 E2.76375
G1 X151.65 Y96.014 E2.79264
G1 X151.874 Y96.237 E2.80315
G1 X152.329 Y96.705 E2.82486
G1 X152.953 Y97.405 E2.85605
G1 X153.343 Y97.909 E2.87724
G1 X153.839 Y98.592 E2.90532
G1 X154.035 Y98.872 E2.91669
G1 X154.415 Y99.431 E2.93917
G1 X154.909 Y100.228 E2.97036
G1 X155.206 Y100.795 E2.99165
G1 X155.575 Y101.552 E3.01966
G1 X155.724 Y101.872 E3.0314
G1 X156.006 Y102.501 E3.05432
G1 X156.353 Y103.372 E3.08551
G1 X156.549 Y103.99 E3.10707
G1 X156.773 Y104.777 E3.13429
G1 X156.856 Y105.087 E3.14496
G1 X157.027 Y105.762 E3.16812
G1 X157.219 Y106.68 E3.19931
G1 X157.304 Y107.315 E3.22062
G1 X157.391 Y108.144 E3.24835
G1 X157.421 Y108.476 E3.25943
G1 X157.472 Y109.162 E3.28231
G1 X157.501 Y110.1 E3.31352
G1 X157.475 Y110.748 E3.33509
G1 X157.419 Y111.546 E3.3617
G1 X157.39 Y111.888 E3.37312
G1 X157.315 Y112.626 E3.39779
G1 X157.18 Y113.554 E3.42898
G1 X157.078 Y114.036 E3.44537
G1 X156.973 Y114.472 E3.46028
G1 X156.884 Y114.816 E3.4721
G1 X156.745 Y115.333 E3.48991
G1 X156.568 Y115.957 E3.51148
G1 X156.273 Y116.847 E3.54267
G1 X156.031 Y117.435 E3.56381
G1 X155.693 Y118.193 E3.59142
G1 X155.555 Y118.491 E3.60234
G1 X155.256 Y119.111 E3.62523
G1 X154.813 Y119.938 E3.65644
G1 X154.464 Y120.489 E3.67813
G1 X153.996 Y121.182 E3.70594
G1 X153.805 Y121.455 E3.71703
G1 X153.398 Y122.02 E3.74019
G1 X152.818 Y122.757 E3.77138
G1 X152.37 Y123.249 E3.79351
G1 X151.792 Y123.845 E3.82112
G1 X151.567 Y124.07 E3.83171
G1 X151.08 Y124.544 E3.85431
G1 X150.381 Y125.169 E3.8855
G1 X149.862 Y125.568 E3.90727
G1 X149.143 Y126.089 E3.9368
G1 X148.858 Y126.289 E3.94838
G1 X148.331 Y126.646 E3.96956
G1 X147.533 Y127.139 E4.00075
G1 X146.967 Y127.434 E4.02198
G1 X146.168 Y127.822 E4.05153
G1 X145.878 Y127.958 E4.06218
G1 X145.307 Y128.215 E4.08301
G1 X144.436 Y128.563 E4.1142
G1 X143.816 Y128.76 E4.13584
G1 X143.015 Y128.989 E4.16355
G1 X142.689 Y129.077 E4.17478
G1 X142.017 Y129.247 E4.19783
G1 X141.099 Y129.438 E4.22902
G1 X140.455 Y129.524 E4.25063
G1 X139.588 Y129.614 E4.27962
G1 X139.237 Y129.645 E4.29134
G1 X138.594 Y129.691 E4.31278
G1 X137.983 Y129.718 E4.33312
G1 X137.226 Y129.73 E4.3583
G1 X82.926 Y129.731 E6.16433
G1 X82.087 Y129.72 E6.19224
G1 X81.455 Y129.692 E6.21328
G1 X80.612 Y129.631 E6.24139
G1 X80.31 Y129.605 E6.25147
G1 X79.631 Y129.537 E6.27417
G1 X78.702 Y129.404 E6.30538
G1 X78.039 Y129.258 E6.32796
G1 X77.186 Y129.043 E6.35722
G1 X76.889 Y128.964 E6.36744
G1 X76.279 Y128.792 E6.38852
G1 X75.388 Y128.499 E6.41972
G1 X74.775 Y128.248 E6.44175
G1 X74.021 Y127.911 E6.46922
G1 X73.728 Y127.774 E6.47998
G1 X73.121 Y127.481 E6.50239
G1 X72.697 Y127.265 E6.51822
G1 X71.705 Y126.667 E6.55675
G1 X70.98 Y126.176 E6.58587
G1 X70.728 Y126 E6.59609
G1 X70.216 Y125.632 E6.61706
G1 X69.478 Y125.053 E6.64826
G1 X68.973 Y124.591 E6.67103
G1 X68.35 Y123.986 E6.69991
G1 X68.118 Y123.755 E6.7108
G1 X67.661 Y123.284 E6.73263
G1 X67.038 Y122.584 E6.7638
G1 X66.657 Y122.089 E6.78457
G1 X66.163 Y121.409 E6.81253
G1 X65.965 Y121.128 E6.82396
G1 X65.585 Y120.569 E6.84644
G1 X65.091 Y119.772 E6.87763
G1 X64.794 Y119.205 E6.89892
G1 X64.425 Y118.448 E6.92693
G1 X64.276 Y118.128 E6.93867
G1 X63.994 Y117.499 E6.9616
G1 X63.647 Y116.628 E6.99278
G1 X63.451 Y116.01 E7.01434
G1 X63.227 Y115.223 E7.04156
G1 X63.144 Y114.913 E7.05223
G1 X62.973 Y114.238 E7.07539
G1 X62.781 Y113.32 E7.10659
G1 X62.696 Y112.68 E7.12806
G1 X62.608 Y111.838 E7.15622
G1 X62.578 Y111.51 E7.16717
G1 X62.528 Y110.837 E7.18962
G1 X62.499 Y109.9 E7.2208
G1 X62.525 Y109.252 E7.24237
G1 X62.581 Y108.454 E7.26897
G1 X62.611 Y108.103 E7.28069
G1 X62.687 Y107.361 E7.3055
G1 X62.822 Y106.433 E7.33669
G1 X62.93 Y105.932 E7.35374
G1 X63.055 Y105.418 E7.37133
G1 X63.201 Y104.865 E7.39035
G1 X63.435 Y104.037 E7.41897
G1 X63.729 Y103.146 E7.45018
G1 X63.971 Y102.561 E7.47123
G1 X64.311 Y101.799 E7.49899
G1 X64.448 Y101.503 E7.50983
G1 X64.746 Y100.885 E7.53265
G1 X65.189 Y100.059 E7.56383
G1 X65.542 Y99.5 E7.58582
G1 X66.008 Y98.811 E7.61348
G1 X66.199 Y98.539 E7.62454
G1 X66.608 Y97.972 E7.64779
G1 X67.188 Y97.235 E7.67898
G1 X67.632 Y96.749 E7.70088
G1 X68.208 Y96.155 E7.7284
G1 X68.433 Y95.93 E7.73898
G1 X68.92 Y95.456 E7.76158
G1 X69.619 Y94.831 E7.79277
G1 X70.138 Y94.432 E7.81454
G0 F6000 X70.372 Y94.756
G1 F1200 X71.091 Y94.235 E7.84408
G1 X71.366 Y94.042 E7.85525
G1 X71.893 Y93.685 E7.87642
G1 X72.677 Y93.202 E7.90705
G1 X73.208 Y92.926 E7.92695
G1 X74.007 Y92.538 E7.9565
G1 X74.293 Y92.404 E7.967
G1 X74.865 Y92.147 E7.98786
G1 X75.72 Y91.807 E8.01846
G1 X76.292 Y91.625 E8.03843
G1 X77.092 Y91.396 E8.0661
G1 X77.409 Y91.311 E8.07702
G1 X78.081 Y91.141 E8.10007
G1 X78.983 Y90.954 E8.13071
G1 X79.587 Y90.874 E8.15098
G1 X80.454 Y90.784 E8.17997
G1 X80.792 Y90.754 E8.19125
G1 X81.435 Y90.708 E8.2127
G1 X82.023 Y90.682 E8.23227
G1 X82.948 Y90.669 E8.26304
G1 X137.074 Y90.669 E10.06328
G1 X137.908 Y90.68 E10.09102
G1 X138.516 Y90.707 E10.11126
G1 X139.359 Y90.768 E10.13937
G1 X139.65 Y90.793 E10.14909
G1 X140.329 Y90.861 E10.17178
G1 X141.24 Y90.992 E10.2024
G1 X141.864 Y91.129 E10.22364
G1 X142.717 Y91.344 E10.2529
G1 X143.003 Y91.421 E10.26275
G1 X143.613 Y91.593 E10.28383
G1 X144.487 Y91.881 E10.31444
G1 X145.061 Y92.118 E10.3351
G1 X145.815 Y92.455 E10.36256
G1 X146.098 Y92.586 E10.37294
G1 X146.705 Y92.879 E10.39535
G1 X147.115 Y93.088 E10.41066
G1 X148.071 Y93.664 E10.44778
G1 X148.796 Y94.155 E10.47691
G1 X149.039 Y94.325 E10.48677
G1 X149.551 Y94.693 E10.50774
G1 X150.274 Y95.262 E10.53834
G1 X150.749 Y95.696 E10.55974
G1 X151.372 Y96.301 E10.58863
G1 X151.587 Y96.516 E10.59874
G1 X152.042 Y96.984 E10.62045
G1 X152.655 Y97.671 E10.65107
G1 X153.019 Y98.144 E10.67092
G1 X153.515 Y98.827 E10.699
G1 X153.704 Y99.097 E10.70996
G1 X154.084 Y99.656 E10.73244
G1 X154.568 Y100.439 E10.76306
G1 X154.846 Y100.97 E10.78299
G1 X155.215 Y101.727 E10.811
G1 X155.359 Y102.036 E10.82234
G1 X155.641 Y102.665 E10.84527
G1 X155.981 Y103.52 E10.87587
G1 X156.164 Y104.099 E10.89607
G1 X156.388 Y104.886 E10.92328
G1 X156.468 Y105.185 E10.93358
G1 X156.639 Y105.86 E10.95674
G1 X156.827 Y106.761 E10.98735
G1 X156.906 Y107.357 E11.00735
G1 X156.993 Y108.186 E11.03507
G1 X157.022 Y108.506 E11.04576
G1 X157.073 Y109.192 E11.06864
G1 X157.101 Y110.112 E11.09925
G1 X157.076 Y110.72 E11.11949
G1 X157.02 Y111.518 E11.1461
G1 X156.992 Y111.848 E11.15711
G1 X156.917 Y112.586 E11.18179
G1 X156.689 Y113.944 E11.22758
G1 X156.586 Y114.373 E11.24226
G1 X156.498 Y114.713 E11.25394
G1 X156.36 Y115.224 E11.27154
G1 X156.183 Y115.848 E11.29312
G1 X155.893 Y116.722 E11.32375
G1 X155.666 Y117.272 E11.34354
G1 X155.328 Y118.03 E11.37114
G1 X155.195 Y118.317 E11.38166
G1 X154.896 Y118.937 E11.40455
G1 X154.46 Y119.749 E11.43521
G1 X154.132 Y120.265 E11.45554
G1 X153.664 Y120.958 E11.48336
G1 X153.481 Y121.222 E11.49404
G1 X153.074 Y121.787 E11.5172
G1 X152.504 Y122.51 E11.54782
G1 X152.082 Y122.971 E11.56861
G1 X151.504 Y123.567 E11.59622
G1 X151.288 Y123.783 E11.60638
G1 X150.801 Y124.257 E11.62899
G1 X150.114 Y124.87 E11.65961
G1 X149.628 Y125.244 E11.68001
G1 X148.909 Y125.765 E11.70954
G1 X148.634 Y125.958 E11.72071
G1 X148.107 Y126.315 E11.74189
G1 X147.323 Y126.798 E11.77251
G1 X146.792 Y127.074 E11.79242
G1 X145.993 Y127.462 E11.82196
G1 X145.714 Y127.593 E11.83221
G1 X145.143 Y127.85 E11.85304
G1 X144.287 Y128.191 E11.88368
G1 X143.706 Y128.376 E11.90396
G1 X142.905 Y128.605 E11.93167
G1 X142.591 Y128.689 E11.94248
G1 X141.919 Y128.859 E11.96554
G1 X141.017 Y129.046 E11.99618
G1 X140.413 Y129.126 E12.01644
G1 X139.546 Y129.216 E12.04543
G1 X139.208 Y129.246 E12.05672
G1 X138.565 Y129.292 E12.07816
G1 X137.977 Y129.318 E12.09774
G1 X137.052 Y129.331 E12.12851
G1 X82.769 Y129.33 E13.93397
G1 X82.092 Y129.32 E13.95648
G1 X81.484 Y129.293 E13.97673
G1 X80.641 Y129.232 E14.00484
G1 X80.35 Y129.207 E14.01455
G1 X79.671 Y129.139 E14.03725
G1 X78.76 Y129.008 E14.06786
G1 X78.136 Y128.871 E14.08911
G1 X77.283 Y128.656 E14.11837
G1 X76.997 Y128.579 E14.12822
G1 X76.387 Y128.407 E14.1493
G1 X75.513 Y128.119 E14.17991
G1 X74.939 Y127.882 E14.20056
G1 X74.185 Y127.545 E14.22803
G1 X73.902 Y127.414 E14.2384
G1 X73.295 Y127.121 E14.26082
G1 X72.885 Y126.912 E14.27613
G1 X71.929 Y126.336 E14.31325
G1 X71.204 Y125.845 E14.34237
G1 X70.961 Y125.675 E14.35223
G1 X70.449 Y125.307 E14.37321
G1 X69.726 Y124.738 E14.40381
G1 X69.251 Y124.304 E14.42521
G1 X68.628 Y123.699 E14.45409
G1 X68.405 Y123.476 E14.46458
G1 X67.948 Y123.005 E14.48641
G1 X67.337 Y122.317 E14.51701
G1 X66.98 Y121.854 E14.53646
G1 X66.486 Y121.174 E14.56441
G1 X66.296 Y120.903 E14.57542
G1 X65.916 Y120.344 E14.5979
G1 X65.432 Y119.561 E14.62852
G1 X65.154 Y119.03 E14.64845
G1 X64.785 Y118.273 E14.67646
G1 X64.641 Y117.964 E14.6878
G1 X64.359 Y117.335 E14.71073
G1 X64.019 Y116.48 E14.74133
G1 X63.836 Y115.901 E14.76153
G1 X63.612 Y115.114 E14.78874
G1 X63.532 Y114.815 E14.79904
G1 X63.361 Y114.14 E14.8222
G1 X63.173 Y113.239 E14.85281
G1 X63.093 Y112.639 E14.87294
G1 X63.005 Y111.797 E14.9011
G1 X62.977 Y111.48 E14.91169
G1 X62.927 Y110.807 E14.93413
G1 X62.899 Y109.887 E14.96475
G1 X62.924 Y109.28 E14.98495
G1 X62.98 Y108.482 E15.01156
G1 X63.009 Y108.144 E15.02284
G1 X63.085 Y107.402 E15.04765
G1 X63.219 Y106.491 E15.07828
G1 X63.319 Y106.025 E15.09413
G1 X63.442 Y105.52 E15.11142
G1 X63.588 Y104.967 E15.13044
G1 X63.82 Y104.146 E15.15881
G1 X64.109 Y103.272 E15.18943
G1 X64.336 Y102.724 E15.20916
G1 X64.676 Y101.962 E15.23691
G1 X64.808 Y101.677 E15.24736
G1 X65.106 Y101.059 E15.27018
G1 X65.542 Y100.248 E15.3008
G1 X65.874 Y99.724 E15.32144
G1 X66.34 Y99.035 E15.3491
G1 X66.523 Y98.773 E15.35973
G1 X66.932 Y98.206 E15.38298
G1 X67.503 Y97.483 E15.41363
G1 X67.919 Y97.028 E15.43413
G1 X68.495 Y96.434 E15.46165
G1 X68.712 Y96.217 E15.47186
G1 X69.199 Y95.743 E15.49446
G1 X69.886 Y95.13 E15.52508
G1 X70.372 Y94.756 E15.54548
G0 F6000 X70.607 Y95.079
G1 F1200 X71.326 Y94.558 E15.57501
G1 X71.59 Y94.373 E15.58574
G1 X72.117 Y94.016 E15.60691
G1 X72.887 Y93.543 E15.63696
G1 X73.382 Y93.286 E15.65551
G1 X74.181 Y92.898 E15.68506
G1 X74.457 Y92.769 E15.69519
G1 X75.029 Y92.512 E15.71605
G1 X75.868 Y92.179 E15.74607
G1 X76.402 Y92.01 E15.7647
G1 X77.202 Y91.781 E15.79237
G1 X77.507 Y91.699 E15.80288
G1 X78.179 Y91.529 E15.82593
G1 X79.064 Y91.346 E15.85599
G1 X79.628 Y91.272 E15.87491
G1 X80.495 Y91.182 E15.9039
G1 X80.82 Y91.153 E15.91476
G1 X81.463 Y91.107 E15.9362
G1 X82.029 Y91.082 E15.95504
G1 X82.948 Y91.069 E15.98561
G1 X137.074 Y91.069 E17.78585
G1 X137.902 Y91.08 E17.81339
G1 X138.487 Y91.106 E17.83287
G1 X139.33 Y91.167 E17.86098
G1 X139.61 Y91.191 E17.87032
G1 X140.289 Y91.259 E17.89302
G1 X141.183 Y91.388 E17.92306
G1 X141.766 Y91.517 E17.94292
G1 X142.619 Y91.732 E17.97218
G1 X142.894 Y91.806 E17.98165
G1 X143.504 Y91.978 E18.00273
G1 X144.362 Y92.261 E18.03278
G1 X144.898 Y92.483 E18.05208
G1 X145.652 Y92.82 E18.07955
G1 X145.924 Y92.946 E18.08952
G1 X146.531 Y93.239 E18.11194
G1 X146.927 Y93.441 E18.12672
G1 X147.847 Y93.996 E18.16246
G1 X148.572 Y94.487 E18.19158
G1 X148.805 Y94.649 E18.20102
G1 X149.317 Y95.017 E18.22199
G1 X150.026 Y95.576 E18.25202
G1 X150.47 Y95.983 E18.27205
G1 X151.093 Y96.588 E18.30094
G1 X151.3 Y96.795 E18.31067
G1 X151.755 Y97.263 E18.33238
G1 X152.356 Y97.938 E18.36244
G1 X152.695 Y98.379 E18.38094
G1 X153.191 Y99.062 E18.40902
G1 X153.373 Y99.322 E18.41957
G1 X153.753 Y99.881 E18.44206
G1 X154.228 Y100.649 E18.47209
G1 X154.487 Y101.146 E18.49073
G1 X154.856 Y101.903 E18.51874
G1 X154.994 Y102.199 E18.5296
G1 X155.276 Y102.828 E18.55253
G1 X155.609 Y103.668 E18.58258
G1 X155.779 Y104.209 E18.60145
G1 X156.003 Y104.996 E18.62866
G1 X156.081 Y105.283 E18.63855
G1 X156.252 Y105.958 E18.66171
G1 X156.434 Y106.843 E18.69176
G1 X156.508 Y107.398 E18.71039
G1 X156.595 Y108.227 E18.73811
G1 X156.623 Y108.536 E18.74843
G1 X156.674 Y109.222 E18.77131
G1 X156.701 Y110.124 E18.80132
G1 X156.677 Y110.692 E18.82023
G1 X156.621 Y111.49 E18.84684
G1 X156.594 Y111.807 E18.85742
G1 X156.519 Y112.545 E18.88209
G1 X156.299 Y113.853 E18.92621
G1 X156.198 Y114.273 E18.94058
G1 X156.111 Y114.609 E18.95212
G1 X155.975 Y115.114 E18.96951
G1 X155.798 Y115.738 E18.99109
G1 X155.513 Y116.596 E19.02116
G1 X155.301 Y117.109 E19.03962
G1 X154.963 Y117.867 E19.06722
G1 X154.834 Y118.144 E19.07739
G1 X154.535 Y118.764 E19.10028
G1 X154.108 Y119.559 E19.1303
G1 X153.801 Y120.042 E19.14933
G1 X153.333 Y120.735 E19.17714
G1 X153.156 Y120.988 E19.18741
G1 X152.749 Y121.553 E19.21057
G1 X152.189 Y122.262 E19.24062
G1 X151.795 Y122.692 E19.26002
G1 X151.217 Y123.288 E19.28763
G1 X151.009 Y123.496 E19.29742
G1 X150.522 Y123.97 E19.32002
G1 X149.848 Y124.571 E19.35006
G1 X149.393 Y124.921 E19.36915
G1 X148.674 Y125.442 E19.39868
G1 X148.41 Y125.627 E19.4094
G1 X147.883 Y125.984 E19.43058
G1 X147.113 Y126.457 E19.46063
G1 X146.618 Y126.714 E19.47918
G1 X145.819 Y127.102 E19.50872
G1 X145.549 Y127.228 E19.51863
G1 X144.978 Y127.485 E19.53946
G1 X144.139 Y127.819 E19.5695
G1 X143.596 Y127.991 E19.58844
G1 X142.795 Y128.22 E19.61615
G1 X142.493 Y128.301 E19.62655
G1 X141.821 Y128.471 E19.6496
G1 X140.936 Y128.654 E19.67966
G1 X140.372 Y128.728 E19.69858
G1 X139.505 Y128.818 E19.72757
G1 X139.18 Y128.847 E19.73843
G1 X138.537 Y128.893 E19.75987
G1 X137.971 Y128.918 E19.77871
G1 X137.052 Y128.931 E19.80928
G1 X82.775 Y128.93 E21.61454
G1 X82.098 Y128.92 E21.63706
G1 X81.513 Y128.894 E21.65654
G1 X80.67 Y128.833 E21.68465
G1 X80.39 Y128.809 E21.69399
G1 X79.711 Y128.741 E21.71669
