;FLAVOR:Marlin
;TIME:2590
;Filament used: 1.3546m
;Layer height: 0.2
;MINX:49.8
;MINY:90.269
;MINZ:0.2
;MAXX:170.201
;MAXY:129.731
;MAXZ:12.6
;Generated with Cura_SteamEngine 4.8.0
M140 S60
M105
M190 S60
M104 S200
M105
M109 S200
M82 ;absolute extrusion mode
; Ender 3 Custom Start G-code
G92 E0 ; Reset Extruder
G28 ; Home all axes
G1 Z2.0 F3000 ; Move Z Axis up little to prevent scratching of Heat Bed
G1 X0.1 Y20 Z0.3 F5000.0 ; Move to start position
G1 X0.1 Y200.0 Z0.3 F1500.0 E15 ; Draw the first line
G1 X0.4 Y200.0 Z0.3 F5000.0 ; Move to side a little
G1 X0.4 Y20 Z0.3 F1500.0 E30 ; Draw the second line
G92 E0 ; Reset Extruder
G1 Z2.0 F3000 ; Move Z Axis up little to prevent scratching of Heat Bed
G1 X5 Y20 Z0.3 F5000.0 ; Move over to prevent blob squish
G92 E0
G92 E0
G1 F2700 E-5
;LAYER_COUNT:63
;LAYER:0
M107
G0 F6000 X58.969 Y93.354 Z0.2
;TYPE:SKIRT
G1 F2700 E0
G1 F1200 X59.767 Y92.861 E0.0312
G1 X60.333 Y92.566 E0.05243
G1 X61.132 Y92.178 E0.08197
G1 X61.429 Y92.039 E0.09288
G1 X62.001 Y91.782 E0.11373
G1 X62.872 Y91.435 E0.14492
G1 X63.482 Y91.241 E0.16621
G1 X64.282 Y91.012 E0.19388
G1 X64.611 Y90.923 E0.20522
G1 X65.283 Y90.753 E0.22827
G1 X66.201 Y90.562 E0.25946
G1 X66.845 Y90.476 E0.28107
G1 X67.712 Y90.386 E0.31006
G1 X68.063 Y90.355 E0.32178
G1 X68.706 Y90.309 E0.34322
G1 X69.317 Y90.282 E0.36356
G1 X70.074 Y90.27 E0.38875
G1 X149.774 Y90.269 E3.03958
G1 X150.613 Y90.28 E3.06749
G1 X151.245 Y90.308 E3.08853
G1 X152.088 Y90.369 E3.11664
G1 X152.39 Y90.395 E3.12672
G1 X153.069 Y90.463 E3.14942
G1 X153.998 Y90.596 E3.18063
G1 X154.661 Y90.742 E3.20321
G1 X155.514 Y90.957 E3.23247
G1 X155.811 Y91.036 E3.24269
G1 X156.421 Y91.208 E3.26377
G1 X157.312 Y91.501 E3.29497
G1 X157.925 Y91.752 E3.317
G1 X158.679 Y92.089 E3.34447
G1 X158.972 Y92.226 E3.35522
G1 X159.579 Y92.519 E3.37764
G1 X160.003 Y92.735 E3.39347
G1 X160.995 Y93.333 E3.43199
G1 X161.72 Y93.824 E3.46112
G1 X161.972 Y94 E3.47134
G1 X162.484 Y94.368 E3.49231
G1 X163.222 Y94.947 E3.52351
G1 X163.727 Y95.409 E3.54628
G1 X164.35 Y96.014 E3.57516
G1 X164.574 Y96.237 E3.58567
G1 X165.029 Y96.705 E3.60738
G1 X165.653 Y97.405 E3.63857
G1 X166.043 Y97.909 E3.65977
G1 X166.539 Y98.592 E3.68784
G1 X166.735 Y98.872 E3.69921
G1 X167.115 Y99.431 E3.72169
G1 X167.609 Y100.228 E3.75288
G1 X167.906 Y100.795 E3.77417
G1 X168.275 Y101.552 E3.80218
G1 X168.424 Y101.872 E3.81392
G1 X168.706 Y102.501 E3.83685
G1 X169.053 Y103.372 E3.86803
G1 X169.249 Y103.99 E3.88959
G1 X169.473 Y104.777 E3.91681
G1 X169.556 Y105.087 E3.92748
G1 X169.727 Y105.762 E3.95064
G1 X169.919 Y106.68 E3.98184
G1 X170.004 Y107.32 E4.00331
G1 X170.092 Y108.162 E4.03147
G1 X170.122 Y108.49 E4.04242
G1 X170.172 Y109.163 E4.06487
G1 X170.201 Y110.1 E4.09605
G1 X170.175 Y110.748 E4.11762
G1 X170.119 Y111.546 E4.14422
G1 X170.09 Y111.888 E4.15564
G1 X170.015 Y112.626 E4.18031
G1 X169.88 Y113.554 E4.2115
G1 X169.778 Y114.036 E4.22789
G1 X169.673 Y114.472 E4.2428
G1 X169.584 Y114.816 E4.25462
G1 X169.445 Y115.333 E4.27243
G1 X169.268 Y115.957 E4.294
G1 X168.973 Y116.847 E4.32519
G1 X168.731 Y117.435 E4.34634
G1 X168.393 Y118.193 E4.37394
G1 X168.255 Y118.491 E4.38486
G1 X167.956 Y119.111 E4.40776
G1 X167.513 Y119.938 E4.43896
G1 X167.164 Y120.489 E4.46065
G1 X166.696 Y121.182 E4.48847
G1 X166.505 Y121.455 E4.49955
G1 X166.098 Y122.02 E4.52271
G1 X165.518 Y122.757 E4.5539
G1 X165.07 Y123.249 E4.57603
G1 X164.492 Y123.845 E4.60365
G1 X164.267 Y124.07 E4.61423
G1 X163.78 Y124.544 E4.63683
G1 X163.081 Y125.169 E4.66802
G1 X162.562 Y125.568 E4.68979
G1 X161.843 Y126.089 E4.71933
G1 X161.558 Y126.289 E4.73091
G1 X161.031 Y126.646 E4.75208
G1 X160.233 Y127.139 E4.78328
G1 X159.667 Y127.434 E4.80451
G1 X158.868 Y127.822 E4.83405
G1 X158.578 Y127.958 E4.8447
G1 X158.007 Y128.215 E4.86553
G1 X157.136 Y128.563 E4.89672
G1 X156.516 Y128.76 E4.91836
G1 X155.715 Y128.989 E4.94607
G1 X155.389 Y129.077 E4.9573
G1 X154.717 Y129.247 E4.98036
G1 X153.799 Y129.438 E5.01154
G1 X153.155 Y129.524 E5.03315
G1 X152.288 Y129.614 E5.06214
G1 X151.937 Y129.645 E5.07386
G1 X151.294 Y129.691 E5.0953
G1 X150.683 Y129.718 E5.11565
G1 X149.926 Y129.73 E5.14083
G1 X70.226 Y129.731 E7.79166
G1 X69.387 Y129.72 E7.81957
G1 X68.755 Y129.692 E7.84061
G1 X67.912 Y129.631 E7.86872
G1 X67.61 Y129.605 E7.8788
G1 X66.931 Y129.537 E7.9015
G1 X66.002 Y129.404 E7.93271
G1 X65.339 Y129.258 E7.95529
G1 X64.486 Y129.043 E7.98455
G1 X64.189 Y128.964 E7.99477
G1 X63.579 Y128.792 E8.01585
G1 X62.688 Y128.499 E8.04705
G1 X62.075 Y128.248 E8.06908
G1 X61.321 Y127.911 E8.09655
G1 X61.028 Y127.774 E8.10731
G1 X60.421 Y127.481 E8.12972
G1 X59.997 Y127.265 E8.14555
G1 X59.005 Y126.667 E8.18408
G1 X58.28 Y126.176 E8.2132
G1 X58.028 Y126 E8.22342
G1 X57.516 Y125.632 E8.24439
G1 X56.778 Y125.053 E8.27559
G1 X56.273 Y124.591 E8.29836
G1 X55.65 Y123.986 E8.32724
G1 X55.418 Y123.755 E8.33813
G1 X54.961 Y123.284 E8.35996
G1 X54.338 Y122.584 E8.39113
G1 X53.957 Y122.089 E8.4119
G1 X53.463 Y121.409 E8.43986
G1 X53.265 Y121.128 E8.45129
G1 X52.885 Y120.569 E8.47377
G1 X52.391 Y119.772 E8.50496
G1 X52.094 Y119.205 E8.52625
G1 X51.725 Y118.448 E8.55426
G1 X51.576 Y118.128 E8.566
G1 X51.294 Y117.499 E8.58893
G1 X50.947 Y116.628 E8.62011
G1 X50.751 Y116.01 E8.64167
G1 X50.527 Y115.223 E8.66889
G1 X50.444 Y114.913 E8.67956
G1 X50.273 Y114.238 E8.70272
G1 X50.081 Y113.32 E8.73392
G1 X49.996 Y112.68 E8.75539
G1 X49.908 Y111.838 E8.78355
G1 X49.878 Y111.508 E8.79457
G1 X49.829 Y110.847 E8.81661
G1 X49.8 Y109.91 E8.84779
G1 X49.826 Y109.259 E8.86946
G1 X49.886 Y108.41 E8.89777
G1 X49.916 Y108.065 E8.90929
G1 X49.986 Y107.381 E8.93216
G1 X50.121 Y106.453 E8.96335
G1 X50.26 Y105.821 E8.98487
G1 X50.469 Y104.989 E9.0134
G1 X50.554 Y104.672 E9.02432
G1 X50.731 Y104.047 E9.04592
G1 X51.025 Y103.156 E9.07713
G1 X51.271 Y102.559 E9.09861
G1 X51.609 Y101.802 E9.12618
G1 X51.748 Y101.502 E9.13718
G1 X52.049 Y100.879 E9.16019
G1 X52.493 Y100.052 E9.19141
G1 X52.838 Y99.508 E9.21283
G1 X53.304 Y98.818 E9.24053
G1 X53.499 Y98.539 E9.25185
G1 X53.908 Y97.972 E9.2751
G1 X54.488 Y97.235 E9.30629
G1 X54.932 Y96.749 E9.32819
G1 X55.508 Y96.155 E9.35571
G1 X55.733 Y95.93 E9.36629
G1 X56.22 Y95.456 E9.3889
G1 X56.919 Y94.831 E9.42008
G1 X57.438 Y94.432 E9.44186
G1 X58.157 Y93.911 E9.47139
G1 X58.442 Y93.711 E9.48297
G1 X58.969 Y93.354 E9.50414
G0 F6000 X59.193 Y93.685
G1 F1200 X59.977 Y93.202 E9.53477
G1 X60.508 Y92.926 E9.55467
G1 X61.307 Y92.538 E9.58421
G1 X61.593 Y92.404 E9.59472
G1 X62.165 Y92.147 E9.61558
G1 X63.02 Y91.807 E9.64618
G1 X63.592 Y91.625 E9.66614
G1 X64.392 Y91.396 E9.69382
G1 X64.709 Y91.311 E9.70474
G1 X65.381 Y91.141 E9.72779
G1 X66.283 Y90.954 E9.75843
G1 X66.887 Y90.874 E9.77869
G1 X67.754 Y90.784 E9.80769
G1 X68.092 Y90.754 E9.81897
G1 X68.735 Y90.708 E9.84041
G1 X69.323 Y90.682 E9.85999
G1 X70.248 Y90.669 E9.89076
G1 X149.774 Y90.669 E12.5358
G1 X150.608 Y90.68 E12.56355
G1 X151.216 Y90.707 E12.58379
G1 X152.059 Y90.768 E12.6119
G1 X152.35 Y90.793 E12.62161
G1 X153.029 Y90.861 E12.64431
G1 X153.94 Y90.992 E12.67492
G1 X154.564 Y91.129 E12.69617
G1 X155.417 Y91.344 E12.72543
G1 X155.703 Y91.421 E12.73528
G1 X156.313 Y91.593 E12.75636
G1 X157.187 Y91.881 E12.78697
G1 X157.761 Y92.118 E12.80762
G1 X158.515 Y92.455 E12.83509
G1 X158.798 Y92.586 E12.84546
G1 X159.405 Y92.879 E12.86788
G1 X159.815 Y93.088 E12.88319
G1 X160.771 Y93.664 E12.92031
G1 X161.496 Y94.155 E12.94943
G1 X161.739 Y94.325 E12.95929
G1 X162.251 Y94.693 E12.98027
G1 X162.974 Y95.262 E13.01087
G1 X163.449 Y95.696 E13.03227
G1 X164.072 Y96.301 E13.06115
G1 X164.287 Y96.516 E13.07126
G1 X164.742 Y96.984 E13.09297
G1 X165.355 Y97.671 E13.1236
G1 X165.719 Y98.144 E13.14345
G1 X166.215 Y98.827 E13.17152
G1 X166.404 Y99.097 E13.18249
G1 X166.784 Y99.656 E13.20497
G1 X167.268 Y100.439 E13.23558
G1 X167.546 Y100.97 E13.25552
G1 X167.915 Y101.727 E13.28353
G1 X168.059 Y102.036 E13.29487
G1 X168.341 Y102.665 E13.31779
G1 X168.681 Y103.52 E13.3484
G1 X168.864 Y104.099 E13.36859
G1 X169.088 Y104.886 E13.39581
G1 X169.168 Y105.185 E13.4061
G1 X169.339 Y105.86 E13.42926
G1 X169.527 Y106.761 E13.45988
G1 X169.607 Y107.361 E13.48001
G1 X169.695 Y108.203 E13.50817
G1 X169.723 Y108.52 E13.51875
G1 X169.773 Y109.193 E13.5412
G1 X169.801 Y110.113 E13.57181
G1 X169.776 Y110.72 E13.59202
G1 X169.72 Y111.518 E13.61862
G1 X169.692 Y111.848 E13.62964
G1 X169.617 Y112.586 E13.65431
G1 X169.389 Y113.944 E13.70011
G1 X169.286 Y114.373 E13.71478
G1 X169.198 Y114.713 E13.72647
G1 X169.06 Y115.224 E13.74407
G1 X168.883 Y115.848 E13.76564
G1 X168.593 Y116.722 E13.79627
G1 X168.366 Y117.272 E13.81606
G1 X168.028 Y118.03 E13.84367
G1 X167.895 Y118.317 E13.85419
G1 X167.596 Y118.937 E13.87708
G1 X167.16 Y119.749 E13.90773
G1 X166.832 Y120.265 E13.92807
G1 X166.364 Y120.958 E13.95588
G1 X166.181 Y121.222 E13.96657
G1 X165.774 Y121.787 E13.98973
G1 X165.204 Y122.51 E14.02035
G1 X164.782 Y122.971 E14.04114
G1 X164.204 Y123.567 E14.06875
G1 X163.988 Y123.783 E14.07891
G1 X163.501 Y124.257 E14.10151
G1 X162.814 Y124.87 E14.13214
G1 X162.328 Y125.244 E14.15253
G1 X161.609 Y125.765 E14.18207
G1 X161.334 Y125.958 E14.19324
G1 X160.807 Y126.315 E14.21441
G1 X160.023 Y126.798 E14.24504
G1 X159.492 Y127.074 E14.26494
G1 X158.693 Y127.462 E14.29449
G1 X158.414 Y127.593 E14.30474
G1 X157.843 Y127.85 E14.32556
G1 X156.987 Y128.191 E14.35621
G1 X156.406 Y128.376 E14.37649
G1 X155.605 Y128.605 E14.4042
G1 X155.291 Y128.689 E14.41501
G1 X154.619 Y128.859 E14.43806
G1 X153.717 Y129.046 E14.4687
G1 X153.113 Y129.126 E14.48897
G1 X152.246 Y129.216 E14.51796
G1 X151.908 Y129.246 E14.52925
G1 X151.265 Y129.292 E14.55069
G1 X150.677 Y129.318 E14.57026
G1 X149.752 Y129.331 E14.60103
G1 X70.069 Y129.33 E17.2513
G1 X69.392 Y129.32 E17.27382
G1 X68.784 Y129.293 E17.29406
G1 X67.941 Y129.232 E17.32217
G1 X67.65 Y129.207 E17.33189
G1 X66.971 Y129.139 E17.35458
G1 X66.06 Y129.008 E17.38519
G1 X65.436 Y128.871 E17.40644
G1 X64.583 Y128.656 E17.4357
G1 X64.297 Y128.579 E17.44555
G1 X63.687 Y128.407 E17.46663
G1 X62.813 Y128.119 E17.49724
G1 X62.239 Y127.882 E17.51789
G1 X61.485 Y127.545 E17.54536
G1 X61.202 Y127.414 E17.55573
G1 X60.595 Y127.121 E17.57815
G1 X60.185 Y126.912 E17.59346
G1 X59.229 Y126.336 E17.63058
G1 X58.504 Y125.845 E17.6597
G1 X58.261 Y125.675 E17.66957
G1 X57.749 Y125.307 E17.69054
G1 X57.026 Y124.738 E17.72114
G1 X56.551 Y124.304 E17.74254
G1 X55.928 Y123.699 E17.77142
G1 X55.705 Y123.476 E17.78191
G1 X55.248 Y123.005 E17.80374
G1 X54.637 Y122.317 E17.83434
G1 X54.28 Y121.854 E17.85379
G1 X53.786 Y121.174 E17.88175
G1 X53.596 Y120.903 E17.89275
G1 X53.216 Y120.344 E17.91524
G1 X52.732 Y119.561 E17.94585
G1 X52.454 Y119.03 E17.96579
G1 X52.085 Y118.273 E17.9938
G1 X51.941 Y117.964 E18.00514
G1 X51.659 Y117.335 E18.02806
G1 X51.319 Y116.48 E18.05867
G1 X51.136 Y115.901 E18.07886
G1 X50.912 Y115.114 E18.10608
G1 X50.832 Y114.815 E18.11637
G1 X50.661 Y114.14 E18.13953
G1 X50.473 Y113.239 E18.17014
G1 X50.393 Y112.639 E18.19028
G1 X50.305 Y111.797 E18.21843
G1 X50.277 Y111.479 E18.22905
G1 X50.228 Y110.818 E18.2511
G1 X50.2 Y109.897 E18.28174
G1 X50.225 Y109.287 E18.30205
G1 X50.285 Y108.438 E18.33036
G1 X50.314 Y108.106 E18.34144
G1 X50.384 Y107.422 E18.36431
G1 X50.517 Y106.511 E18.39493
G1 X50.648 Y105.918 E18.41513
G1 X50.857 Y105.086 E18.44366
G1 X50.939 Y104.781 E18.45417
G1 X51.116 Y104.156 E18.47577
G1 X51.405 Y103.282 E18.50639
G1 X51.636 Y102.722 E18.52654
G1 X51.974 Y101.965 E18.55411
G1 X52.109 Y101.676 E18.56472
G1 X52.41 Y101.053 E18.58773
G1 X52.846 Y100.242 E18.61836
G1 X53.17 Y99.731 E18.63848
G1 X53.636 Y99.041 E18.66618
G1 X53.823 Y98.773 E18.67705
G1 X54.232 Y98.206 E18.7003
G1 X54.803 Y97.483 E18.73094
G1 X55.219 Y97.028 E18.75145
G1 X55.795 Y96.434 E18.77897
G1 X56.012 Y96.217 E18.78917
G1 X56.499 Y95.743 E18.81178
G1 X57.186 Y95.13 E18.8424
G1 X57.672 Y94.756 E18.8628
G1 X58.391 Y94.235 E18.89233
G1 X58.666 Y94.042 E18.9035
G1 X59.193 Y93.685 E18.92467
G0 F6000 X59.417 Y94.016
G1 F1200 X60.187 Y93.543 E18.95473
G1 X60.682 Y93.286 E18.97328
G1 X61.481 Y92.898 E19.00282
G1 X61.757 Y92.769 E19.01296
G1 X62.329 Y92.512 E19.03381
G1 X63.168 Y92.179 E19.06384
G1 X63.702 Y92.01 E19.08247
G1 X64.502 Y91.781 E19.11014
G1 X64.807 Y91.699 E19.12065
G1 X65.479 Y91.529 E19.1437
G1 X66.364 Y91.346 E19.17376
G1 X66.928 Y91.272 E19.19268
G1 X67.795 Y91.182 E19.22167
G1 X68.12 Y91.153 E19.23252
G1 X68.763 Y91.107 E19.25396
G1 X69.329 Y91.082 E19.27281
G1 X70.248 Y91.069 E19.30338
G1 X149.774 Y91.069 E21.94842
G1 X150.602 Y91.08 E21.97596
G1 X151.187 Y91.106 E21.99544
G1 X152.03 Y91.167 E22.02355
G1 X152.31 Y91.191 E22.0329
G1 X152.989 Y91.259 E22.0556
G1 X153.883 Y91.388 E22.08564
G1 X154.466 Y91.517 E22.1055
G1 X155.319 Y91.732 E22.13476
G1 X155.594 Y91.806 E22.14423
G1 X156.204 Y91.978 E22.16531
G1 X157.062 Y92.261 E22.19536
G1 X157.598 Y92.483 E22.21465
G1 X158.352 Y92.82 E22.24212
G1 X158.624 Y92.946 E22.25209
G1 X159.231 Y93.239 E22.27451
G1 X159.627 Y93.441 E22.2893
G1 X160.547 Y93.996 E22.32503
G1 X161.272 Y94.487 E22.35416
G1 X161.505 Y94.649 E22.36359
G1 X162.017 Y95.017 E22.38457
G1 X162.726 Y95.576 E22.4146
G1 X163.17 Y95.983 E22.43463
G1 X163.793 Y96.588 E22.46351
G1 X164 Y96.795 E22.47325
G1 X164.455 Y97.263 E22.49496
G1 X165.056 Y97.938 E22.52502
G1 X165.395 Y98.379 E22.54352
G1 X165.891 Y99.062 E22.57159
G1 X166.073 Y99.322 E22.58215
G1 X166.453 Y99.881 E22.60463
G1 X166.928 Y100.649 E22.63467
G1 X167.187 Y101.146 E22.65331
G1 X167.556 Y101.903 E22.68132
G1 X167.694 Y102.199 E22.69218
G1 X167.976 Y102.828 E22.71511
G1 X168.309 Y103.668 E22.74516
G1 X168.479 Y104.209 E22.76402
G1 X168.703 Y104.996 E22.79124
G1 X168.781 Y105.283 E22.80113
G1 X168.952 Y105.958 E22.82429
G1 X169.134 Y106.843 E22.85434
G1 X169.209 Y107.403 E22.87313
G1 X169.297 Y108.245 E22.90129
G1 X169.324 Y108.549 E22.91144
G1 X169.374 Y109.222 E22.93388
G1 X169.401 Y110.125 E22.96393
G1 X169.377 Y110.692 E22.98281
G1 X169.321 Y111.49 E23.00941
G1 X169.294 Y111.807 E23.02
G1 X169.219 Y112.545 E23.04467
G1 X168.999 Y113.853 E23.08878
G1 X168.898 Y114.273 E23.10315
G1 X168.811 Y114.609 E23.1147
G1 X168.675 Y115.114 E23.13209
G1 X168.498 Y115.738 E23.15366
G1 X168.213 Y116.596 E23.18373
G1 X168.001 Y117.109 E23.2022
G1 X167.663 Y117.867 E23.2298
G1 X167.534 Y118.144 E23.23996
G1 X167.235 Y118.764 E23.26286
G1 X166.808 Y119.559 E23.29287
G1 X166.501 Y120.042 E23.31191
G1 X166.033 Y120.735 E23.33972
G1 X165.856 Y120.988 E23.34999
G1 X165.449 Y121.553 E23.37315
G1 X164.889 Y122.262 E23.4032
G1 X164.495 Y122.692 E23.4226
G1 X163.917 Y123.288 E23.45021
G1 X163.709 Y123.496 E23.45999
G1 X163.222 Y123.97 E23.4826
G1 X162.548 Y124.571 E23.51263
G1 X162.093 Y124.921 E23.53173
G1 X161.374 Y125.442 E23.56126
G1 X161.11 Y125.627 E23.57198
G1 X160.583 Y125.984 E23.59315
G1 X159.813 Y126.457 E23.62321
G1 X159.318 Y126.714 E23.64176
G1 X158.519 Y127.102 E23.6713
G1 X158.249 Y127.228 E23.68121
G1 X157.678 Y127.485 E23.70204
G1 X156.839 Y127.819 E23.73207
G1 X156.296 Y127.991 E23.75102
G1 X155.495 Y128.22 E23.77873
G1 X155.193 Y128.301 E23.78912
G1 X154.521 Y128.471 E23.81218
G1 X153.636 Y128.654 E23.84224
G1 X153.072 Y128.728 E23.86116
G1 X152.205 Y128.818 E23.89015
G1 X151.88 Y128.847 E23.901
G1 X151.237 Y128.893 E23.92244
G1 X150.671 Y128.918 E23.94129
G1 X149.752 Y128.931 E23.97185
G1 X70.075 Y128.93 E26.62192
G1 X69.398 Y128.92 E26.64444
G1 X68.813 Y128.894 E26.66392
G1 X67.97 Y128.833 E26.69203
G1 X67.69 Y128.809 E26.70138
G1 X67.011 Y128.741 E26.72407
G1 X66.117 Y128.612 E26.75412
G1 X65.534 Y128.483 E26.77398
G1 X64.681 Y128.268 E26.80323
