;FLAVOR:Marlin
;TIME:4203
;Filament used: 2.32191m
;Layer height: 0.2
;MINX:59.037
;MINY:82.271
;MINZ:0.2
;MAXX:160.963
;MAXY:137.717
;MAXZ:7
;Generated with Cura_SteamEngine 4.8.0
M140 S60
M105
M190 S60
M104 S200
M105
M109 S200
M82 ;absolute extrusion mode
; Ender 3 Custom Start G-code
G92 E0 ; Reset Extruder
G28 ; Home all axes
G1 Z2.0 F3000 ; Move Z Axis up little to prevent scratching of Heat Bed
G1 X0.1 Y20 Z0.3 F5000.0 ; Move to start position
G1 X0.1 Y200.0 Z0.3 F1500.0 E15 ; Draw the first line
G1 X0.4 Y200.0 Z0.3 F5000.0 ; Move to side a little
G1 X0.4 Y20 Z0.3 F1500.0 E30 ; Draw the second line
G92 E0 ; Reset Extruder
G1 Z2.0 F3000 ; Move Z Axis up little to prevent scratching of Heat Bed
G1 X5 Y20 Z0.3 F5000.0 ; Move over to prevent blob squish
G92 E0
G92 E0
G1 F2700 E-5
;LAYER_COUNT:35
;LAYER:0
M107
G0 F6000 X67.783 Y90.917 Z0.2
;TYPE:SKIRT
G1 F2700 E0
G1 F1200 X68.289 Y90.573 E0.02035
G1 X68.985 Y90.127 E0.04784
G1 X69.445 Y89.842 E0.06584
G1 X70.032 Y89.488 E0.08864
G1 X70.855 Y89.039 E0.11982
G1 X71.395 Y88.791 E0.13959
G1 X72.197 Y88.45 E0.16857
G1 X72.657 Y88.263 E0.18509
G1 X73.346 Y87.993 E0.2097
G1 X74.204 Y87.697 E0.23989
G1 X75.009 Y87.457 E0.26783
G1 X79.468 Y86.194 E0.42197
G1 X80.323 Y85.964 E0.45142
G1 X80.611 Y85.891 E0.4613
G1 X81.41 Y85.7 E0.48862
G1 X86.076 Y84.653 E0.64767
G1 X86.758 Y84.509 E0.67086
G1 X87.072 Y84.448 E0.6815
G1 X87.93 Y84.294 E0.71049
G1 X92.59 Y83.516 E0.86763
G1 X93.367 Y83.398 E0.89377
G1 X93.657 Y83.358 E0.9035
G1 X94.439 Y83.261 E0.92971
G1 X99.189 Y82.735 E1.08866
G1 X99.954 Y82.661 E1.11423
G1 X100.256 Y82.636 E1.12431
G1 X101.028 Y82.584 E1.15004
G1 X105.836 Y82.319 E1.3102
G1 X106.555 Y82.289 E1.33413
G1 X106.875 Y82.28 E1.34478
G1 X107.647 Y82.271 E1.37046
G1 X112.307 Y82.271 E1.52545
G1 X113.196 Y82.282 E1.55502
G1 X113.509 Y82.291 E1.56544
G1 X114.299 Y82.325 E1.59174
G1 X119.049 Y82.589 E1.74997
G1 X119.835 Y82.644 E1.77617
G1 X120.136 Y82.669 E1.78622
G1 X120.955 Y82.75 E1.81359
G1 X125.719 Y83.279 E1.97302
G1 X126.402 Y83.365 E1.99591
G1 X126.694 Y83.406 E2.00572
G1 X127.559 Y83.54 E2.03483
G1 X132.257 Y84.326 E2.19326
G1 X132.98 Y84.458 E2.21771
G1 X133.267 Y84.514 E2.22743
G1 X134.021 Y84.674 E2.25307
G1 X138.709 Y85.727 E2.41288
G1 X139.489 Y85.915 E2.43956
G1 X139.776 Y85.988 E2.44941
G1 X140.483 Y86.18 E2.47378
G1 X145.101 Y87.49 E2.63343
G1 X145.809 Y87.701 E2.65801
G1 X146.698 Y88.008 E2.68929
G1 X147.459 Y88.309 E2.71651
G1 X147.939 Y88.507 E2.73378
G1 X148.654 Y88.814 E2.75966
G1 X149.499 Y89.221 E2.79085
G1 X150.019 Y89.517 E2.81075
G1 X150.633 Y89.89 E2.83465
G1 X151.122 Y90.196 E2.85383
G1 X151.757 Y90.605 E2.87895
G1 X152.524 Y91.146 E2.91017
G1 X153.003 Y91.539 E2.93078
G1 X153.597 Y92.054 E2.95693
G1 X153.996 Y92.408 E2.97467
G1 X154.522 Y92.889 E2.99838
G1 X155.187 Y93.551 E3.02959
G1 X155.567 Y93.986 E3.0488
G1 X156.146 Y94.687 E3.07904
G1 X156.474 Y95.099 E3.09655
G1 X156.917 Y95.671 E3.12062
G1 X157.459 Y96.436 E3.1518
G1 X157.758 Y96.927 E3.17092
G1 X158.162 Y97.632 E3.19794
G1 X158.416 Y98.091 E3.21539
G1 X158.763 Y98.738 E3.23981
G1 X159.17 Y99.583 E3.27101
G1 X159.387 Y100.124 E3.29039
G1 X159.674 Y100.905 E3.31807
G1 X159.853 Y101.418 E3.33614
G1 X160.09 Y102.128 E3.36103
G1 X160.349 Y103.03 E3.39225
G1 X160.469 Y103.594 E3.41143
G1 X160.625 Y104.434 E3.43984
G1 X160.712 Y104.951 E3.45728
G1 X160.823 Y105.663 E3.48125
G1 X160.928 Y106.595 E3.51244
G1 X160.953 Y107.209 E3.53288
G1 X160.963 Y108.026 E3.56006
G1 X160.962 Y108.576 E3.57835
G1 X160.951 Y109.288 E3.60203
G1 X160.896 Y110.224 E3.63322
G1 X160.82 Y110.818 E3.65314
G1 X160.684 Y111.679 E3.68213
G1 X160.595 Y112.19 E3.69938
G1 X160.464 Y112.889 E3.72303
G1 X160.252 Y113.803 E3.75424
G1 X160.083 Y114.356 E3.77347
G1 X159.814 Y115.156 E3.80154
G1 X159.646 Y115.629 E3.81824
G1 X159.397 Y116.309 E3.84232
G1 X159.038 Y117.175 E3.87351
G1 X158.753 Y117.743 E3.89464
G1 X158.373 Y118.447 E3.92125
G1 X158.114 Y118.911 E3.93892
G1 X157.745 Y119.553 E3.96355
G1 X157.243 Y120.345 E3.99474
G1 X156.887 Y120.83 E4.01475
G1 X156.369 Y121.493 E4.04274
G1 X156.026 Y121.919 E4.06093
G1 X155.574 Y122.465 E4.0845
G1 X154.946 Y123.161 E4.11568
G1 X154.529 Y123.563 E4.13495
G1 X153.894 Y124.142 E4.16353
G1 X153.496 Y124.493 E4.18118
G1 X152.962 Y124.953 E4.20462
G1 X152.226 Y125.534 E4.23581
G1 X151.74 Y125.867 E4.2554
G1 X151.133 Y126.258 E4.27942
G1 X150.555 Y126.617 E4.30205
G1 X149.973 Y126.968 E4.32465
G1 X149.585 Y127.192 E4.33955
G1 X147.312 Y128.521 E4.42713
G1 X145.217 Y129.829 E4.50927
G1 X143.12 Y131.22 E4.59297
G1 X141.076 Y132.674 E4.6764
G1 X140.902 Y132.787 E4.6833
G1 X140.036 Y133.412 E4.71882
G1 X139.253 Y133.928 E4.75001
G1 X138.651 Y134.263 E4.77292
G1 X138.245 Y134.473 E4.78813
G1 X137.931 Y134.63 E4.7998
G1 X137.071 Y135.004 E4.831
G1 X136.401 Y135.238 E4.8546
G1 X136.069 Y135.342 E4.86617
G1 X135.785 Y135.427 E4.87603
G1 X135.63 Y135.471 E4.88139
G1 X134.718 Y135.688 E4.91257
G1 X134.055 Y135.796 E4.93491
G1 X133.658 Y135.848 E4.94823
G1 X133.275 Y135.891 E4.96105
G1 X133.118 Y135.906 E4.96629
G1 X132.544 Y135.946 E4.98543
G1 X131.649 Y135.984 E5.01523
G1 X129.096 Y136.129 E5.10028
G1 X126.603 Y136.341 E5.18349
G1 X124.082 Y136.628 E5.26788
G1 X121.606 Y136.98 E5.35106
G1 X119.141 Y137.411 E5.43429
G1 X118.628 Y137.495 E5.45158
G1 X117.976 Y137.582 E5.47346
G1 X117.402 Y137.641 E5.49265
G1 X117.101 Y137.668 E5.5027
G1 X116.848 Y137.687 E5.51114
G1 X115.91 Y137.717 E5.54236
G1 X115.237 Y137.69 E5.56476
G1 X114.749 Y137.655 E5.58103
G1 X114.41 Y137.625 E5.59235
G1 X114.07 Y137.59 E5.60372
G1 X113.435 Y137.506 E5.62502
G1 X113.171 Y137.463 E5.63392
G1 X110.9 Y137.07 E5.71058
G1 X108.392 Y136.709 E5.79485
G1 X105.927 Y136.423 E5.87739
G1 X103.134 Y136.184 E5.97062
G1 X102.16 Y136.113 E6.0031
G1 X100.761 Y135.992 E6.04981
G1 X98.284 Y135.848 E6.13233
G1 X95.753 Y135.772 E6.21655
G1 X93.229 Y135.768 E6.3005
G1 X90.696 Y135.835 E6.38478
G1 X89.62 Y135.89 E6.42061
G1 X88.435 Y135.944 E6.46007
G1 X87.497 Y135.946 E6.49127
G1 X86.852 Y135.902 E6.51277
G1 X86.498 Y135.867 E6.5246
G1 X86.055 Y135.815 E6.53944
G1 X85.13 Y135.657 E6.57065
G1 X84.48 Y135.497 E6.59291
G1 X84.086 Y135.387 E6.60652
G1 X83.643 Y135.254 E6.6219
G1 X82.76 Y134.937 E6.6531
G1 X82.193 Y134.686 E6.67373
G1 X81.863 Y134.529 E6.68588
G1 X81.501 Y134.348 E6.69934
G1 X81.386 Y134.288 E6.70366
G1 X80.574 Y133.82 E6.73483
G1 X80.072 Y133.481 E6.75498
G1 X78.735 Y132.524 E6.80966
G1 X78.558 Y132.406 E6.81674
G1 X77.673 Y131.768 E6.85303
G1 X75.618 Y130.371 E6.93567
G1 X73.535 Y129.041 E7.01787
G1 X70.416 Y127.194 E7.13844
G1 X70.01 Y126.959 E7.15404
G1 X69.292 Y126.523 E7.18198
G1 X68.882 Y126.266 E7.19807
G1 X68.251 Y125.86 E7.22303
G1 X67.485 Y125.319 E7.25422
G1 X67.009 Y124.93 E7.27466
G1 X66.376 Y124.382 E7.30251
G1 X65.989 Y124.036 E7.31978
G1 X65.471 Y123.563 E7.34311
G1 X64.806 Y122.902 E7.37429
G1 X64.406 Y122.444 E7.39452
G1 X63.908 Y121.839 E7.42058
G1 X63.521 Y121.354 E7.44122
G1 X63.09 Y120.798 E7.46462
G1 X62.548 Y120.033 E7.4958
G1 X62.24 Y119.529 E7.51544
G1 X61.84 Y118.828 E7.54229
G1 X61.591 Y118.38 E7.55934
G1 X61.243 Y117.733 E7.58377
G1 X60.835 Y116.888 E7.61498
G1 X60.608 Y116.322 E7.63526
G1 X60.309 Y115.505 E7.6642
G1 X60.149 Y115.045 E7.6804
G1 X59.913 Y114.34 E7.70513
G1 X59.653 Y113.439 E7.73632
G1 X59.532 Y112.871 E7.75563
G1 X59.376 Y112.032 E7.78401
G1 X59.289 Y111.509 E7.80165
G1 X59.178 Y110.798 E7.82558
G1 X59.073 Y109.866 E7.85678
G1 X59.047 Y109.249 E7.87732
G1 X59.037 Y108.432 E7.90449
G1 X59.038 Y107.882 E7.92279
G1 X59.049 Y107.17 E7.94647
G1 X59.104 Y106.234 E7.97766
G1 X59.18 Y105.64 E7.99757
G1 X59.316 Y104.779 E8.02656
G1 X59.404 Y104.274 E8.04361
G1 X59.534 Y103.578 E8.06716
G1 X59.745 Y102.665 E8.09833
G1 X59.919 Y102.096 E8.11812
G1 X60.186 Y101.304 E8.14592
G1 X60.375 Y100.768 E8.16482
G1 X60.588 Y100.187 E8.1854
G1 X60.954 Y99.307 E8.2171
G1 X60.991 Y99.228 E8.22001
G1 X61.258 Y98.696 E8.2398
G1 X61.54 Y98.17 E8.25965
G1 X61.881 Y97.557 E8.28298
G1 X62.247 Y96.919 E8.30745
G1 X62.747 Y96.126 E8.33863
G1 X63.102 Y95.644 E8.35854
G1 X63.6 Y95.005 E8.38548
G1 X63.969 Y94.546 E8.40507
G1 X64.425 Y93.995 E8.42886
G1 X65.053 Y93.298 E8.46006
G1 X65.481 Y92.886 E8.47982
G1 X66.116 Y92.307 E8.50841
G1 X66.463 Y92.001 E8.52379
G1 X67.047 Y91.498 E8.54943
G1 X67.783 Y90.917 E8.58062
G0 F6000 X68.031 Y91.231
G1 F1200 X68.505 Y90.909 E8.59968
G1 X69.197 Y90.467 E8.62699
G1 X69.652 Y90.185 E8.64479
G1 X70.239 Y89.831 E8.66759
G1 X71.047 Y89.39 E8.69821
G1 X71.552 Y89.159 E8.71668
G1 X72.348 Y88.82 E8.74545
G1 X72.803 Y88.636 E8.76178
G1 X73.492 Y88.366 E8.78639
G1 X74.319 Y88.08 E8.81549
G1 X75.118 Y87.842 E8.84322
G1 X79.719 Y86.54 E9.00226
G1 X80.427 Y86.35 E9.02664
G1 X80.704 Y86.28 E9.03615
G1 X81.498 Y86.091 E9.06329
G1 X86.158 Y85.045 E9.22214
G1 X86.84 Y84.901 E9.24532
G1 X87.143 Y84.841 E9.2556
G1 X87.995 Y84.688 E9.28439
G1 X92.65 Y83.911 E9.44136
G1 X93.427 Y83.793 E9.4675
G1 X93.706 Y83.755 E9.47686
G1 X94.483 Y83.659 E9.5029
G1 X99.227 Y83.133 E9.66165
G1 X99.992 Y83.059 E9.68722
G1 X100.283 Y83.035 E9.69693
G1 X101.05 Y82.983 E9.7225
G1 X105.853 Y82.718 E9.88249
G1 X106.572 Y82.688 E9.90642
G1 X106.88 Y82.68 E9.91667
G1 X107.647 Y82.671 E9.94218
G1 X112.307 Y82.671 E10.09718
G1 X113.191 Y82.682 E10.12658
G1 X113.493 Y82.69 E10.13663
G1 X114.277 Y82.724 E10.16273
G1 X118.867 Y82.978 E10.31563
G1 X119.807 Y83.043 E10.34696
G1 X120.097 Y83.067 E10.35664
G1 X120.911 Y83.147 E10.38385
G1 X125.513 Y83.657 E10.53785
G1 X126.352 Y83.762 E10.56597
G1 X126.633 Y83.801 E10.57541
G1 X127.493 Y83.934 E10.60435
G1 X132.185 Y84.719 E10.76258
G1 X132.908 Y84.851 E10.78702
G1 X133.184 Y84.906 E10.79638
G1 X133.934 Y85.064 E10.82187
G1 X138.616 Y86.116 E10.98148
G1 X139.396 Y86.304 E11.00817
G1 X139.672 Y86.375 E11.01764
G1 X140.374 Y86.565 E11.04183
G1 X144.986 Y87.874 E11.20129
G1 X145.694 Y88.085 E11.22586
G1 X146.552 Y88.381 E11.25605
G1 X147.307 Y88.679 E11.28304
G1 X147.781 Y88.875 E11.3001
G1 X148.496 Y89.182 E11.32598
G1 X149.326 Y89.582 E11.35663
G1 X149.812 Y89.859 E11.37523
G1 X150.422 Y90.23 E11.39898
G1 X150.906 Y90.533 E11.41797
G1 X151.541 Y90.942 E11.44309
G1 X152.292 Y91.473 E11.47369
G1 X152.741 Y91.841 E11.49299
G1 X153.332 Y92.354 E11.51902
G1 X153.726 Y92.704 E11.53655
G1 X154.252 Y93.185 E11.56026
G1 X154.904 Y93.835 E11.59088
G1 X155.259 Y94.241 E11.60882
G1 X155.72 Y94.797 E11.63284
G1 X156.158 Y95.343 E11.65612
G1 X156.601 Y95.915 E11.68018
G1 X157.132 Y96.667 E11.7108
G1 X157.411 Y97.126 E11.72867
G1 X157.813 Y97.827 E11.75555
G1 X158.063 Y98.28 E11.77275
G1 X158.41 Y98.927 E11.79717
G1 X158.81 Y99.757 E11.82782
G1 X159.012 Y100.263 E11.84594
G1 X159.297 Y101.038 E11.8734
G1 X159.474 Y101.545 E11.89126
G1 X159.711 Y102.255 E11.91616
G1 X159.964 Y103.14 E11.94677
G1 X160.076 Y103.667 E11.96469
G1 X160.231 Y104.501 E11.99291
G1 X160.293 Y104.865 E12.00519
G1 X160.427 Y105.724 E12.0341
G1 X160.53 Y106.639 E12.06473
G1 X160.553 Y107.214 E12.08387
G1 X160.563 Y108.026 E12.11088
G1 X160.562 Y108.57 E12.12897
G1 X160.551 Y109.282 E12.15266
G1 X160.497 Y110.201 E12.18328
G1 X160.425 Y110.756 E12.20189
G1 X160.29 Y111.611 E12.23068
G1 X160.202 Y112.117 E12.24776
G1 X160.071 Y112.816 E12.27142
G1 X159.862 Y113.712 E12.30202
G1 X159.703 Y114.229 E12.32001
G1 X159.436 Y115.023 E12.34787
G1 X159.271 Y115.492 E12.3644
G1 X159.022 Y116.172 E12.38849
G1 X158.668 Y117.022 E12.41911
G1 X158.4 Y117.553 E12.4389
G1 X158.023 Y118.253 E12.46534
G1 X157.767 Y118.711 E12.48279
G1 X157.398 Y119.353 E12.50742
G1 X156.905 Y120.131 E12.53806
G1 X156.571 Y120.584 E12.55678
G1 X156.056 Y121.243 E12.58459
G1 X155.718 Y121.663 E12.60252
G1 X155.266 Y122.209 E12.6261
G1 X154.649 Y122.892 E12.65671
G1 X154.259 Y123.268 E12.67473
G1 X153.629 Y123.843 E12.7031
G1 X153.235 Y124.19 E12.72056
G1 X152.701 Y124.65 E12.744
G1 X151.978 Y125.22 E12.77463
G1 X151.523 Y125.53 E12.79294
G1 X150.756 Y126.022 E12.82325
G1 X150.348 Y126.274 E12.8392
G1 X149.766 Y126.625 E12.8618
G1 X149.392 Y126.841 E12.87617
G1 X147.145 Y128.155 E12.96274
G1 X144.965 Y129.515 E13.0482
G1 X142.903 Y130.884 E13.13052
G1 X140.844 Y132.348 E13.21455
G1 X140.667 Y132.462 E13.22155
G1 X139.802 Y133.087 E13.25705
G1 X139.033 Y133.593 E13.28767
G1 X138.467 Y133.908 E13.30921
G1 X138.061 Y134.118 E13.32441
G1 X137.755 Y134.27 E13.33578
G1 X136.911 Y134.637 E13.36639
G1 X136.282 Y134.856 E13.38854
G1 X135.95 Y134.96 E13.40011
G1 X135.676 Y135.042 E13.40962
G1 X135.521 Y135.086 E13.41498
G1 X134.625 Y135.299 E13.44562
G1 X134.003 Y135.399 E13.46657
G1 X133.606 Y135.451 E13.47989
G1 X133.237 Y135.493 E13.49224
G1 X133.08 Y135.508 E13.49748
G1 X132.527 Y135.546 E13.51592
G1 X131.685 Y135.582 E13.54395
G1 X129.077 Y135.73 E13.63083
G1 X126.522 Y135.948 E13.71612
G1 X124.047 Y136.228 E13.79896
G1 X121.546 Y136.585 E13.88299
G1 X119.077 Y137.017 E13.96636
G1 X118.564 Y137.101 E13.98365
G1 X117.935 Y137.184 E14.00475
G1 X117.361 Y137.243 E14.02394
G1 X117.071 Y137.269 E14.03363
G1 X116.818 Y137.288 E14.04206
G1 X115.898 Y137.317 E14.07268
G1 X115.266 Y137.291 E14.09372
G1 X114.778 Y137.256 E14.10999
G1 X114.451 Y137.227 E14.12091
G1 X114.111 Y137.192 E14.13228
G1 X113.499 Y137.111 E14.15281
G1 X113.239 Y137.069 E14.16157
G1 X110.954 Y136.673 E14.2387
G1 X108.458 Y136.314 E14.32257
G1 X105.94 Y136.023 E14.40688
G1 X103.192 Y135.787 E14.49861
G1 X102.195 Y135.714 E14.53186
G1 X100.82 Y135.595 E14.57777
G1 X98.283 Y135.447 E14.66229
G1 X95.765 Y135.372 E14.74608
G1 X93.219 Y135.368 E14.83076
G1 X90.706 Y135.435 E14.91437
G1 X89.602 Y135.49 E14.95114
G1 X88.417 Y135.544 E14.99059
G1 X87.496 Y135.546 E15.02122
G1 X86.891 Y135.504 E15.04139
G1 X86.537 Y135.469 E15.05322
G1 X86.105 Y135.418 E15.06769
G1 X85.198 Y135.263 E15.0983
G1 X84.588 Y135.112 E15.1192
G1 X84.194 Y135.002 E15.1328
G1 X83.762 Y134.872 E15.14781
G1 X82.896 Y134.56 E15.17842
G1 X82.365 Y134.325 E15.19774
G1 X82.035 Y134.168 E15.20989
G1 X81.686 Y133.994 E15.22286
G1 X81.571 Y133.934 E15.22718
G1 X80.774 Y133.473 E15.2578
G1 X80.305 Y133.156 E15.27663
G1 X79.068 Y132.271 E15.32722
G1 X78.792 Y132.081 E15.33836
G1 X77.934 Y131.462 E15.37355
G1 X75.828 Y130.031 E15.45824
G1 X73.74 Y128.697 E15.54065
G1 X70.595 Y126.835 E15.66221
G1 X70.217 Y126.616 E15.67674
G1 X69.504 Y126.184 E15.70447
G1 X69.098 Y125.929 E15.72041
G1 X68.467 Y125.523 E15.74537
G1 X67.716 Y124.992 E15.77596
G1 X67.27 Y124.627 E15.79513
G1 X66.642 Y124.083 E15.82276
G1 X66.258 Y123.741 E15.83987
G1 X65.74 Y123.268 E15.8632
G1 X65.088 Y122.618 E15.89382
G1 X64.714 Y122.189 E15.91275
G1 X64.22 Y121.589 E15.9386
G1 X63.837 Y121.109 E15.95902
G1 X63.406 Y120.553 E15.98242
G1 X62.874 Y119.802 E16.01303
G1 X62.587 Y119.33 E16.0314
G1 X62.189 Y118.633 E16.0581
G1 X61.944 Y118.19 E16.07494
G1 X61.596 Y117.543 E16.09937
G1 X61.195 Y116.714 E16.13
G1 X60.984 Y116.184 E16.14897
G1 X60.687 Y115.373 E16.1777
G1 X60.528 Y114.918 E16.19373
G1 X60.292 Y114.213 E16.21846
G1 X60.038 Y113.328 E16.24908
G1 X59.925 Y112.798 E16.2671
G1 X59.803 Y112.146 E16.28917
G1 X59.706 Y111.581 E16.30823
G1 X59.573 Y110.736 E16.33668
G1 X59.47 Y109.821 E16.36731
G1 X59.447 Y109.244 E16.38652
G1 X59.437 Y108.432 E16.41352
G1 X59.438 Y107.888 E16.43162
G1 X59.449 Y107.176 E16.4553
G1 X59.503 Y106.257 E16.48592
G1 X59.575 Y105.702 E16.50454
G1 X59.71 Y104.847 E16.53332
G1 X59.797 Y104.348 E16.55017
G1 X59.927 Y103.652 E16.57372
G1 X60.135 Y102.755 E16.60435
G1 X60.299 Y102.223 E16.62286
G1 X60.564 Y101.436 E16.65048
G1 X60.751 Y100.905 E16.66921
G1 X60.964 Y100.324 E16.68979
G1 X61.317 Y99.477 E16.72031
