;FLAVOR:Marlin
;TIME:4211
;Filament used: 2.30257m
;Layer height: 0.2
;MINX:59.037
;MINY:82.867
;MINZ:0.2
;MAXX:160.963
;MAXY:137.12
;MAXZ:7
;Generated with Cura_SteamEngine 4.8.0
M140 S60
M105
M190 S60
M104 S200
M105
M109 S200
M82 ;absolute extrusion mode
; Ender 3 Custom Start G-code
G92 E0 ; Reset Extruder
G28 ; Home all axes
G1 Z2.0 F3000 ; Move Z Axis up little to prevent scratching of Heat Bed
G1 X0.1 Y20 Z0.3 F5000.0 ; Move to start position
G1 X0.1 Y200.0 Z0.3 F1500.0 E15 ; Draw the first line
G1 X0.4 Y200.0 Z0.3 F5000.0 ; Move to side a little
G1 X0.4 Y20 Z0.3 F1500.0 E30 ; Draw the second line
G92 E0 ; Reset Extruder
G1 Z2.0 F3000 ; Move Z Axis up little to prevent scratching of Heat Bed
G1 X5 Y20 Z0.3 F5000.0 ; Move over to prevent blob squish
G92 E0
G92 E0
G1 F2700 E-5
;LAYER_COUNT:35
;LAYER:0
M107
G0 F6000 X67.766 Y91.527 Z0.2
;TYPE:SKIRT
G1 F2700 E0
G1 F1200 X68.269 Y91.183 E0.02027
G1 X69.029 Y90.696 E0.05029
G1 X69.445 Y90.438 E0.06657
G1 X70.032 Y90.084 E0.08937
G1 X70.855 Y89.635 E0.12055
G1 X71.405 Y89.383 E0.14067
G1 X72.236 Y89.031 E0.17069
G1 X72.661 Y88.858 E0.18595
G1 X73.317 Y88.6 E0.2094
G1 X74.171 Y88.304 E0.23946
G1 X74.782 Y88.12 E0.26068
G1 X79.614 Y86.749 E0.42774
G1 X80.348 Y86.553 E0.45301
G1 X80.622 Y86.484 E0.46241
G1 X81.386 Y86.302 E0.48853
G1 X86.08 Y85.25 E0.64852
G1 X86.782 Y85.102 E0.67239
G1 X87.085 Y85.042 E0.68266
G1 X87.892 Y84.897 E0.70993
G1 X92.634 Y84.105 E0.86983
G1 X93.346 Y83.996 E0.89379
G1 X93.651 Y83.953 E0.90404
G1 X94.401 Y83.861 E0.92917
G1 X99.189 Y83.331 E1.08939
G1 X99.953 Y83.257 E1.11492
G1 X100.256 Y83.232 E1.12503
G1 X101.028 Y83.18 E1.15077
G1 X105.837 Y82.915 E1.31096
G1 X106.555 Y82.885 E1.33486
G1 X106.875 Y82.876 E1.34551
G1 X107.647 Y82.867 E1.37119
G1 X112.307 Y82.867 E1.52618
G1 X113.196 Y82.878 E1.55575
G1 X113.509 Y82.887 E1.56616
G1 X114.299 Y82.921 E1.59246
G1 X119.049 Y83.185 E1.75069
G1 X119.835 Y83.24 E1.7769
G1 X120.136 Y83.265 E1.78694
G1 X120.955 Y83.346 E1.81432
G1 X125.556 Y83.856 E1.96828
G1 X126.435 Y83.966 E1.99775
G1 X126.71 Y84.004 E2.00698
G1 X127.485 Y84.123 E2.03306
G1 X132.242 Y84.92 E2.19348
G1 X133.008 Y85.06 E2.21938
G1 X133.29 Y85.116 E2.22895
G1 X134.001 Y85.266 E2.25311
G1 X138.577 Y86.293 E2.4091
G1 X139.478 Y86.509 E2.43992
G1 X139.762 Y86.581 E2.44966
G1 X140.464 Y86.771 E2.47385
G1 X145.144 Y88.099 E2.63565
G1 X145.804 Y88.297 E2.65857
G1 X146.317 Y88.465 E2.67652
G1 X146.7 Y88.607 E2.69011
G1 X147.475 Y88.912 E2.71781
G1 X147.917 Y89.094 E2.73371
G1 X148.59 Y89.38 E2.75803
G1 X149.437 Y89.783 E2.78923
G1 X149.971 Y90.086 E2.80965
G1 X150.693 Y90.523 E2.83772
G1 X151.122 Y90.791 E2.85454
G1 X151.751 Y91.196 E2.87943
G1 X152.517 Y91.737 E2.91062
G1 X152.992 Y92.125 E2.93102
G1 X153.624 Y92.673 E2.95884
G1 X154.011 Y93.019 E2.9761
G1 X154.529 Y93.492 E2.99943
G1 X155.194 Y94.153 E3.03062
G1 X155.594 Y94.611 E3.05084
G1 X156.092 Y95.216 E3.07691
G1 X156.469 Y95.688 E3.097
G1 X156.892 Y96.232 E3.11992
G1 X157.312 Y96.809 E3.14366
G1 X157.769 Y97.539 E3.1723
G1 X158.096 Y98.11 E3.19419
G1 X158.417 Y98.689 E3.21621
G1 X158.766 Y99.34 E3.24077
G1 X159.173 Y100.184 E3.27194
G1 X159.394 Y100.737 E3.29175
G1 X159.678 Y101.513 E3.31923
G1 X159.854 Y102.019 E3.33705
G1 X160.089 Y102.723 E3.36173
G1 X160.327 Y103.538 E3.38997
G1 X160.482 Y104.249 E3.41418
G1 X160.623 Y105.017 E3.44015
G1 X160.712 Y105.549 E3.45809
G1 X160.823 Y106.262 E3.48209
G1 X160.928 Y107.194 E3.51328
G1 X160.953 Y107.806 E3.53365
G1 X160.963 Y108.623 E3.56083
G1 X160.962 Y109.173 E3.57912
G1 X160.951 Y109.885 E3.60281
G1 X160.896 Y110.821 E3.63399
G1 X160.82 Y111.415 E3.65391
G1 X160.684 Y112.276 E3.6829
G1 X160.596 Y112.781 E3.69995
G1 X160.466 Y113.477 E3.7235
G1 X160.255 Y114.39 E3.75467
G1 X160.081 Y114.959 E3.77446
G1 X159.816 Y115.745 E3.80205
G1 X159.684 Y116.123 E3.81536
G1 X159.391 Y116.92 E3.8436
G1 X158.911 Y118.03 E3.88383
G1 X158.742 Y118.359 E3.89613
G1 X158.46 Y118.885 E3.91598
G1 X158.119 Y119.498 E3.93931
G1 X157.753 Y120.136 E3.96377
G1 X157.253 Y120.929 E3.99495
G1 X156.898 Y121.411 E4.01487
G1 X156.4 Y122.05 E4.04181
G1 X156.04 Y122.499 E4.06095
G1 X155.595 Y123.038 E4.0842
G1 X154.967 Y123.735 E4.1154
G1 X154.547 Y124.142 E4.13486
G1 X153.884 Y124.748 E4.16473
G1 X153.544 Y125.047 E4.17979
G1 X152.968 Y125.544 E4.20509
G1 X152.233 Y126.126 E4.23628
G1 X151.729 Y126.47 E4.25657
G1 X151.015 Y126.928 E4.28478
G1 X150.552 Y127.214 E4.30289
G1 X149.963 Y127.569 E4.32576
G1 X148.862 Y128.151 E4.36718
G1 X148.366 Y128.378 E4.38532
G1 X146.092 Y129.46 E4.46908
G1 X143.832 Y130.613 E4.55347
G1 X141.626 Y131.819 E4.63709
G1 X139.447 Y133.093 E4.72104
G1 X137.292 Y134.433 E4.80544
G1 X137.162 Y134.518 E4.81061
G1 X136.404 Y134.999 E4.84047
G1 X135.337 Y135.596 E4.88113
G1 X135.038 Y135.742 E4.8922
G1 X134.711 Y135.895 E4.90421
G1 X134.537 Y135.973 E4.91055
G1 X133.665 Y136.319 E4.94175
G1 X133.048 Y136.515 E4.96328
G1 X132.446 Y136.684 E4.98408
G1 X132.339 Y136.712 E4.98776
G1 X131.422 Y136.91 E5.01896
G1 X130.659 Y137.014 E5.04457
G1 X130.243 Y137.056 E5.05848
G1 X129.826 Y137.091 E5.0724
G1 X128.888 Y137.119 E5.10361
G1 X128.251 Y137.093 E5.12481
G1 X127.813 Y137.062 E5.13942
G1 X127.294 Y137.012 E5.15676
G1 X127.176 Y136.998 E5.16071
G1 X126.698 Y136.931 E5.17677
G1 X126.254 Y136.858 E5.19173
G1 X124.263 Y136.507 E5.25897
G1 X121.754 Y136.135 E5.34334
G1 X119.264 Y135.839 E5.42674
G1 X116.777 Y135.614 E5.50979
G1 X114.256 Y135.458 E5.5938
G1 X111.736 Y135.373 E5.67766
G1 X109.212 Y135.36 E5.76161
G1 X106.724 Y135.417 E5.84439
G1 X104.155 Y135.549 E5.92995
G1 X101.683 Y135.745 E6.01242
G1 X99.185 Y136.015 E6.09599
G1 X96.719 Y136.353 E6.17878
G1 X94.475 Y136.74 E6.25451
G1 X93.316 Y136.929 E6.29357
G1 X92.699 Y137.011 E6.31427
G1 X92.386 Y137.044 E6.32474
G1 X92.077 Y137.073 E6.33506
G1 X91.882 Y137.088 E6.34157
G1 X90.944 Y137.12 E6.37279
G1 X90.272 Y137.093 E6.39515
G1 X89.828 Y137.062 E6.40996
G1 X89.489 Y137.034 E6.42127
G1 X88.56 Y136.907 E6.45246
G1 X87.794 Y136.741 E6.47853
G1 X87.303 Y136.616 E6.49538
G1 X86.405 Y136.346 E6.52657
G1 X85.482 Y135.977 E6.55963
G1 X84.976 Y135.748 E6.5781
G1 X84.138 Y135.326 E6.60931
G1 X83.616 Y135.014 E6.62953
G1 X82.609 Y134.373 E6.66924
G1 X82.238 Y134.13 E6.68399
G1 X80.078 Y132.805 E6.76827
G1 X77.882 Y131.542 E6.85253
G1 X75.702 Y130.369 E6.93486
G1 X73.381 Y129.202 E7.02127
G1 X71.774 Y128.444 E7.08037
G1 X71.138 Y128.152 E7.10364
G1 X70.461 Y127.812 E7.12884
G1 X69.978 Y127.536 E7.14734
G1 X69.366 Y127.165 E7.17115
G1 X68.874 Y126.857 E7.19045
G1 X68.241 Y126.449 E7.2155
G1 X67.475 Y125.908 E7.24669
G1 X66.996 Y125.516 E7.26728
G1 X66.403 Y125.001 E7.2934
G1 X66.007 Y124.65 E7.311
G1 X65.474 Y124.163 E7.33501
G1 X64.809 Y123.501 E7.36622
G1 X64.411 Y123.045 E7.38635
G1 X63.854 Y122.368 E7.41551
G1 X63.541 Y121.975 E7.43222
G1 X63.11 Y121.421 E7.45557
G1 X62.512 Y120.573 E7.49008
G1 X62.23 Y120.108 E7.50817
G1 X61.838 Y119.423 E7.53442
G1 X61.581 Y118.958 E7.55209
G1 X61.234 Y118.31 E7.57654
G1 X60.827 Y117.465 E7.60773
G1 X60.611 Y116.924 E7.62711
G1 X60.324 Y116.143 E7.65478
G1 X60.148 Y115.64 E7.67251
G1 X59.908 Y114.922 E7.69769
G1 X59.649 Y114.021 E7.72887
G1 X59.524 Y113.432 E7.74889
G1 X59.375 Y112.621 E7.77632
G1 X59.288 Y112.104 E7.79376
G1 X59.177 Y111.392 E7.81772
G1 X59.072 Y110.46 E7.84892
G1 X59.047 Y109.846 E7.86936
G1 X59.037 Y109.029 E7.89653
G1 X59.038 Y108.479 E7.91482
G1 X59.049 Y107.767 E7.93851
G1 X59.104 Y106.831 E7.96969
G1 X59.18 Y106.237 E7.98961
G1 X59.316 Y105.376 E8.0186
G1 X59.405 Y104.865 E8.03586
G1 X59.536 Y104.166 E8.05951
G1 X59.748 Y103.252 E8.09072
G1 X59.917 Y102.699 E8.10995
G1 X60.186 Y101.899 E8.13802
G1 X60.358 Y101.414 E8.15514
G1 X60.609 Y100.731 E8.17934
G1 X60.97 Y99.865 E8.21054
G1 X61.247 Y99.314 E8.23106
G1 X61.627 Y98.608 E8.25772
G1 X61.886 Y98.144 E8.2754
G1 X62.255 Y97.502 E8.30003
G1 X62.757 Y96.71 E8.33121
G1 X63.112 Y96.227 E8.35115
G1 X63.63 Y95.563 E8.37916
G1 X63.963 Y95.149 E8.39683
G1 X64.408 Y94.61 E8.42008
G1 X65.036 Y93.913 E8.45128
G1 X65.474 Y93.49 E8.47154
G1 X66.091 Y92.928 E8.49929
G1 X66.497 Y92.568 E8.51734
G1 X67.03 Y92.108 E8.54076
G1 X67.766 Y91.527 E8.57195
G0 F6000 X68.014 Y91.841
G1 F1200 X68.485 Y91.52 E8.5909
G1 X69.24 Y91.036 E8.62073
G1 X69.652 Y90.781 E8.63685
G1 X70.239 Y90.427 E8.65965
G1 X71.047 Y89.986 E8.69026
G1 X71.562 Y89.751 E8.70909
G1 X72.387 Y89.401 E8.7389
G1 X72.807 Y89.23 E8.75398
G1 X73.463 Y88.972 E8.77743
G1 X74.286 Y88.687 E8.80639
G1 X75.061 Y88.455 E8.8333
G1 X79.559 Y87.179 E8.98881
G1 X80.451 Y86.94 E9.01952
G1 X80.715 Y86.873 E9.02858
G1 X81.474 Y86.692 E9.05453
G1 X86.162 Y85.641 E9.21433
G1 X86.864 Y85.493 E9.23819
G1 X87.156 Y85.436 E9.24809
G1 X87.958 Y85.291 E9.27519
G1 X92.695 Y84.5 E9.43493
G1 X93.407 Y84.391 E9.45888
G1 X93.701 Y84.35 E9.46876
G1 X94.445 Y84.259 E9.49369
G1 X99.227 Y83.729 E9.65371
G1 X99.991 Y83.655 E9.67924
G1 X100.283 Y83.631 E9.68899
G1 X101.05 Y83.579 E9.71455
G1 X105.853 Y83.314 E9.87455
G1 X106.571 Y83.284 E9.89845
G1 X106.88 Y83.276 E9.90873
G1 X107.647 Y83.267 E9.93424
G1 X112.307 Y83.267 E10.08923
G1 X113.191 Y83.278 E10.11864
G1 X113.493 Y83.286 E10.12869
G1 X114.277 Y83.32 E10.15479
G1 X118.867 Y83.574 E10.30768
G1 X119.807 Y83.639 E10.33902
G1 X120.097 Y83.663 E10.3487
G1 X120.911 Y83.744 E10.37591
G1 X125.671 Y84.272 E10.5352
G1 X126.384 Y84.362 E10.5591
G1 X126.65 Y84.399 E10.56803
G1 X127.419 Y84.517 E10.59391
G1 X132.014 Y85.286 E10.74886
G1 X132.936 Y85.454 E10.78004
G1 X133.208 Y85.507 E10.78925
G1 X133.913 Y85.656 E10.81322
G1 X138.489 Y86.683 E10.9692
G1 X139.385 Y86.898 E10.99985
G1 X139.658 Y86.967 E11.00922
G1 X140.355 Y87.156 E11.03324
G1 X145.029 Y88.482 E11.19483
G1 X145.689 Y88.68 E11.21775
G1 X146.185 Y88.842 E11.2351
G1 X146.554 Y88.979 E11.24819
G1 X147.323 Y89.282 E11.27568
G1 X147.761 Y89.462 E11.29143
G1 X148.434 Y89.748 E11.31575
G1 X149.265 Y90.145 E11.34639
G1 X149.764 Y90.428 E11.36547
G1 X150.482 Y90.862 E11.39337
G1 X150.771 Y91.042 E11.40469
G1 X151.534 Y91.533 E11.43487
G1 X152.286 Y92.064 E11.46549
G1 X152.73 Y92.428 E11.48459
G1 X153.358 Y92.972 E11.51222
G1 X153.742 Y93.314 E11.52932
G1 X154.26 Y93.787 E11.55266
G1 X154.912 Y94.437 E11.58328
G1 X155.286 Y94.866 E11.60221
G1 X155.78 Y95.466 E11.62806
G1 X156.153 Y95.933 E11.64793
G1 X156.576 Y96.477 E11.67085
G1 X156.981 Y97.035 E11.69379
G1 X157.421 Y97.738 E11.72137
G1 X157.812 Y98.422 E11.74758
G1 X158.064 Y98.878 E11.7649
G1 X158.413 Y99.529 E11.78947
G1 X158.813 Y100.358 E11.82009
G1 X159.019 Y100.876 E11.83863
G1 X159.301 Y101.645 E11.86587
G1 X159.475 Y102.146 E11.88351
G1 X159.71 Y102.85 E11.90819
G1 X159.939 Y103.635 E11.93539
G1 X160.089 Y104.321 E11.95875
G1 X160.229 Y105.084 E11.98455
G1 X160.317 Y105.61 E12.00229
G1 X160.428 Y106.323 E12.02629
G1 X160.53 Y107.238 E12.05691
G1 X160.553 Y107.811 E12.07598
G1 X160.563 Y108.623 E12.10299
G1 X160.562 Y109.167 E12.12108
G1 X160.551 Y109.879 E12.14477
G1 X160.497 Y110.798 E12.17539
G1 X160.425 Y111.353 E12.194
G1 X160.29 Y112.208 E12.22279
G1 X160.203 Y112.707 E12.23964
G1 X160.073 Y113.403 E12.26319
G1 X159.865 Y114.3 E12.29381
G1 X159.701 Y114.832 E12.31233
G1 X159.438 Y115.613 E12.33974
G1 X159.243 Y116.166 E12.35924
G1 X159.016 Y116.781 E12.38105
G1 X158.553 Y117.851 E12.41982
G1 X158.389 Y118.17 E12.43175
G1 X158.034 Y118.83 E12.45668
G1 X157.772 Y119.299 E12.47455
G1 X157.406 Y119.937 E12.49901
G1 X156.914 Y120.715 E12.52963
G1 X156.583 Y121.165 E12.54821
G1 X156.088 Y121.801 E12.57501
G1 X155.731 Y122.245 E12.59396
G1 X155.286 Y122.784 E12.61721
G1 X154.67 Y123.467 E12.6478
G1 X154.277 Y123.847 E12.66598
G1 X153.758 Y124.323 E12.6894
G1 X153.283 Y124.744 E12.71052
G1 X152.707 Y125.241 E12.73582
G1 X151.984 Y125.812 E12.76646
G1 X151.512 Y126.133 E12.78545
G1 X150.803 Y126.588 E12.81347
G1 X150.346 Y126.872 E12.83136
G1 X149.757 Y127.227 E12.85424
G1 X148.695 Y127.787 E12.89417
G1 X148.26 Y127.986 E12.91008
G1 X145.903 Y129.107 E12.99689
G1 X143.638 Y130.263 E13.08147
G1 X141.411 Y131.481 E13.16589
G1 X139.255 Y132.741 E13.24895
G1 X137.083 Y134.092 E13.33402
G1 X136.189 Y134.661 E13.36927
G1 X135.161 Y135.236 E13.40845
G1 X134.862 Y135.382 E13.41951
G1 X134.547 Y135.53 E13.43109
G1 X134.373 Y135.608 E13.43743
G1 X133.517 Y135.947 E13.46805
G1 X132.938 Y136.13 E13.48825
G1 X132.344 Y136.297 E13.50877
G1 X132.237 Y136.325 E13.51245
G1 X131.338 Y136.519 E13.54304
G1 X130.619 Y136.616 E13.56717
G1 X130.203 Y136.658 E13.58108
G1 X129.797 Y136.692 E13.59463
G1 X128.877 Y136.719 E13.62524
G1 X128.28 Y136.694 E13.64511
G1 X127.842 Y136.663 E13.65972
G1 X127.341 Y136.615 E13.67646
G1 X127.223 Y136.601 E13.68041
G1 X126.763 Y136.536 E13.69586
G1 X126.324 Y136.464 E13.71066
G1 X124.325 Y136.111 E13.77817
G1 X121.823 Y135.741 E13.8623
G1 X119.311 Y135.442 E13.94643
G1 X116.802 Y135.215 E14.03023
G1 X114.26 Y135.058 E14.11493
G1 X111.751 Y134.973 E14.19843
G1 X109.205 Y134.96 E14.28311
G1 X106.693 Y135.017 E14.36668
G1 X104.176 Y135.147 E14.45051
G1 X101.642 Y135.348 E14.53506
G1 X99.12 Y135.621 E14.61943
G1 X96.657 Y135.958 E14.70211
G1 X94.411 Y136.345 E14.77791
G1 X93.252 Y136.534 E14.81697
G1 X92.657 Y136.614 E14.83694
G1 X92.344 Y136.647 E14.84741
G1 X92.046 Y136.674 E14.85736
G1 X91.851 Y136.689 E14.86387
G1 X90.931 Y136.719 E14.89448
G1 X90.3 Y136.694 E14.91548
G1 X89.856 Y136.663 E14.93029
G1 X89.526 Y136.635 E14.9413
G1 X88.614 Y136.51 E14.97192
G1 X87.893 Y136.353 E14.99646
G1 X87.402 Y136.228 E15.01331
G1 X86.52 Y135.963 E15.04395
G1 X85.647 Y135.613 E15.07523
G1 X85.141 Y135.384 E15.0937
G1 X84.319 Y134.968 E15.12434
G1 X83.831 Y134.676 E15.14326
G1 X82.827 Y134.039 E15.1828
G1 X82.403 Y133.762 E15.19965
G1 X80.281 Y132.46 E15.28245
G1 X78.092 Y131.201 E15.36644
G1 X75.865 Y130.002 E15.45057
G1 X73.601 Y128.864 E15.53485
G1 X71.841 Y128.034 E15.59957
G1 X71.305 Y127.788 E15.61918
G1 X70.652 Y127.461 E15.64347
G1 X70.185 Y127.194 E15.66136
G1 X69.577 Y126.825 E15.68502
G1 X69.09 Y126.521 E15.70411
G1 X68.457 Y126.113 E15.72916
G1 X67.706 Y125.581 E15.75977
G1 X67.258 Y125.214 E15.77903
G1 X66.668 Y124.701 E15.80504
G1 X66.277 Y124.354 E15.82242
G1 X65.744 Y123.867 E15.84644
G1 X65.092 Y123.217 E15.87706
G1 X64.719 Y122.79 E15.89592
G1 X64.265 Y122.24 E15.91964
G1 X63.857 Y121.73 E15.94136
G1 X63.426 Y121.176 E15.96471
G1 X62.849 Y120.358 E15.998
G1 X62.577 Y119.909 E16.01546
G1 X62.187 Y119.228 E16.04156
G1 X61.933 Y118.769 E16.05901
G1 X61.586 Y118.121 E16.08346
G1 X61.187 Y117.291 E16.11409
G1 X60.986 Y116.785 E16.1322
G1 X60.701 Y116.01 E16.15966
G1 X60.528 Y115.513 E16.17716
G1 X60.288 Y114.795 E16.20234
G1 X60.034 Y113.91 E16.23297
G1 X59.917 Y113.359 E16.2517
G1 X59.769 Y112.554 E16.27893
G1 X59.707 Y112.19 E16.29121
G1 X59.573 Y111.331 E16.32012
G1 X59.47 Y110.416 E16.35075
G1 X59.447 Y109.841 E16.36989
G1 X59.437 Y109.029 E16.3969
G1 X59.438 Y108.485 E16.41499
G1 X59.449 Y107.773 E16.43867
G1 X59.503 Y106.854 E16.46929
G1 X59.575 Y106.299 E16.48791
G1 X59.71 Y105.444 E16.5167
G1 X59.798 Y104.938 E16.53378
G1 X59.929 Y104.239 E16.55743
G1 X60.138 Y103.343 E16.58803
G1 X60.297 Y102.826 E16.60602
G1 X60.564 Y102.032 E16.63389
G1 X60.734 Y101.552 E16.65082
G1 X60.985 Y100.869 E16.67502
G1 X61.339 Y100.019 E16.70565
G1 X61.599 Y99.503 E16.72487
G1 X61.977 Y98.802 E16.75136
G1 X62.233 Y98.344 E16.76881
G1 X62.602 Y97.702 E16.79344
G1 X63.095 Y96.924 E16.82407
G1 X63.427 Y96.473 E16.8427
G1 X63.852 Y95.927 E16.86571
G1 X64.272 Y95.403 E16.88805
G1 X64.717 Y94.864 E16.91129
G1 X65.333 Y94.181 E16.94188
G1 X65.744 Y93.785 E16.96087
G1 X66.356 Y93.227 E16.98841
